%
(1001)
(T2 D=0.3937 CR=0. TAPER=118DEG - ZMIN=-1.9427 - DRILL)
(T3 D=0.315 CR=0. TAPER=118DEG - ZMIN=-1.919 - DRILL)
(T4 D=0.2362 CR=0. TAPER=118DEG - ZMIN=-1.8675 - DRILL)
(T131 D=0.5 CR=0. TAPER=45DEG - ZMIN=-0.4202 - CHAMFER MILL)
(T133 D=0.5 CR=0.02 - ZMIN=-1.6643 - BULLNOSE END MILL)
(T134 D=0.5 CR=0. - ZMIN=-0.7212 - FLAT END MILL)
(T135 D=0.5 CR=0. - ZMIN=-1.6744 - FLAT END MILL)
(T137 D=0.5 CR=0.25 - ZMIN=-0.5888 - BALL END MILL)
(T171 D=2. CR=0. - ZMIN=-0.2817 - FACE MILL)
N10 G90 G94 G17 G91.1 G64 P0.001
N15 G20
N20 G53 G0 Z0.

(ADAPTIVE12)
N250 M9
N255 M5
N260 (M0)
(PAUSE PROGRAM FOR TOOL CHANGE)
N265 (T133 M6)
(BULLNOSE END MILL D=0.5 12 ROUGH EM LONG)
N270 S500 M3
N275 G54
N280 M8
N285 G0 X-1.1639 Y-1.5751
N290 Z0.6
N295 G0 Z0.2
N300 Z0.1
N305 G3 X-1.4169 Y-1.1891 Z0.0808 I-0.2474 J0.1137 F13.123
N310 X-1.6533 Y-1.5841 Z0.0615 I0.0056 J-0.2716
N315 X-1.1958 Y-1.6244 Z0.0423 I0.2414 J0.1232
N320 X-1.3587 Y-1.1963 Z0.0231 I-0.2156 J0.1631
N325 X-1.6721 Y-1.5287 Z0.0039 I-0.0526 J-0.2644
N330 X-1.2373 Y-1.6655 Z-0.0154 I0.2602 J0.0679
N335 X-1.3038 Y-1.2157 Z-0.0346 I-0.1741 J0.2041
N340 X-1.6786 Y-1.471 Z-0.0538 I-0.1074 J-0.2451
N345 X-1.2863 Y-1.6964 Z-0.0731 I0.2667 J0.0102
N350 X-1.2547 Y-1.2462 Z-0.0923 I-0.1252 J0.235
N355 X-1.6725 Y-1.4137 Z-0.1115 I-0.1564 J-0.2146
N360 X-1.3404 Y-1.7158 Z-0.1307 I0.2607 J-0.047
N365 X-1.2137 Y-1.2863 Z-0.15 I-0.0712 J0.2545
N370 X-1.6544 Y-1.3595 Z-0.1692 I-0.1974 J-0.1746
N375 X-1.397 Y-1.7232 Z-0.1884 I0.2426 J-0.1012
N380 X-1.1825 Y-1.3339 Z-0.2077 I-0.0147 J0.2618
N385 X-1.6252 Y-1.3108 Z-0.2269 I-0.2286 J-0.1271
N390 X-1.4534 Y-1.7182 Z-0.2461 I0.2136 J-0.1499
N395 X-1.1625 Y-1.3867 Z-0.2653 I0.0416 J0.2569
N400 X-1.5865 Y-1.2698 Z-0.2846 I-0.2487 J-0.0744
N405 X-1.507 Y-1.7013 Z-0.3038 I0.175 J-0.1908
N410 X-1.1543 Y-1.4421 Z-0.323 I0.0951 J0.24
N415 X-1.5403 Y-1.2384 Z-0.3423 I-0.2568 J-0.019
N420 X-1.5553 Y-1.6735 Z-0.3615 I0.1288 J-0.2222
N425 X-1.1583 Y-1.4976 Z-0.3807 I0.1434 J0.2123
N430 X-1.4888 Y-1.2178 Z-0.3999 I-0.2529 J0.0364
N435 X-1.5962 Y-1.6362 Z-0.4192 I0.0774 J-0.2428
N440 X-1.174 Y-1.5505 Z-0.4384 I0.1843 J0.1751
N445 X-1.4345 Y-1.2089 Z-0.4576 I-0.2373 J0.0892
N450 X-1.6278 Y-1.5913 Z-0.4769 I0.0232 J-0.2518
N455 X-1.2005 Y-1.5984 Z-0.4961 I0.2159 J0.1303
N460 X-1.38 Y-1.2118 Z-0.5153 I-0.2109 J0.137
N465 X-1.6489 Y-1.5411 Z-0.5345 I-0.0313 J-0.2489
N470 X-1.2364 Y-1.6391 Z-0.5538 I0.237 J0.0802
N475 X-1.3278 Y-1.2263 Z-0.573 I-0.1751 J0.1778
N480 X-1.6585 Y-1.488 Z-0.5922 I-0.0834 J-0.2344
N485 X-1.2798 Y-1.6709 Z-0.6115 I0.2467 J0.0272
N490 X-1.2804 Y-1.2515 Z-0.6307 I-0.1317 J0.2095
N495 X-1.6566 Y-1.4344 Z-0.6499 I-0.1308 J-0.2093
N500 X-1.3287 Y-1.6924 Z-0.6692 I0.2447 J-0.0263
N505 X-1.2398 Y-1.286 Z-0.6884 I-0.0829 J0.2311
N510 X-1.6432 Y-1.383 Z-0.7076 I-0.1713 J-0.1749
N515 X-1.3807 Y-1.7028 Z-0.7268 I0.2314 J-0.0777
N520 X-1.2079 Y-1.3282 Z-0.7461 I-0.031 J0.2415
N525 X-1.6193 Y-1.336 Z-0.7653 I-0.2032 J-0.1328
N530 X-1.4333 Y-1.7018 Z-0.7845 I0.2076 J-0.1246
N535 X-1.186 Y-1.3758 Z-0.8038 I0.0215 J0.2405
N540 X-1.5861 Y-1.2957 Z-0.823 I-0.2252 J-0.0853
N545 X-1.4839 Y-1.6896 Z-0.8422 I0.1745 J-0.1649
N550 X-1.1749 Y-1.4266 Z-0.8614 I0.0721 J0.2283
N555 X-1.5453 Y-1.2637 Z-0.8807 I-0.2362 J-0.0346
N560 X-1.5304 Y-1.6669 Z-0.8999 I0.1338 J-0.1969
N565 X-1.1751 Y-1.4781 Z-0.9191 I0.1185 J0.2057
N570 X-1.499 Y-1.2414 Z-0.9384 I-0.2361 J0.0169
N575 X-1.5705 Y-1.635 Z-0.9576 I0.0876 J-0.2192
N580 X-1.1862 Y-1.528 Z-0.9768 I0.1586 J0.1739
N585 X-1.4494 Y-1.2297 Z-0.996 I-0.2251 J0.0667
N590 X-1.6026 Y-1.5956 Z-1.0153 I0.038 J-0.231
N595 X-1.2076 Y-1.5739 Z-1.0345 I0.1907 J0.1346
N600 X-1.3989 Y-1.229 Z-1.0537 I-0.2037 J0.1126
N605 X-1.6252 Y-1.5506 Z-1.073 I-0.0124 J-0.2317
N610 X-1.2382 Y-1.6138 Z-1.0922 I0.2133 J0.0896
N615 X-1.3498 Y-1.239 Z-1.1114 I-0.1732 J0.1524
N620 X-1.6375 Y-1.5022 Z-1.1306 I-0.0614 J-0.2217
N625 X-1.2763 Y-1.6459 Z-1.1499 I0.2256 J0.0413
N630 X-1.3045 Y-1.2593 Z-1.1691 I-0.1352 J0.1845
N635 X-1.639 Y-1.4527 Z-1.1883 I-0.1067 J-0.2015
N640 X-1.32 Y-1.6688 Z-1.2076 I0.2272 J-0.0081
N645 X-1.2649 Y-1.2886 Z-1.2268 I-0.0915 J0.2074
N650 X-1.63 Y-1.4044 Z-1.246 I-0.1463 J-0.1723
N655 X-1.3673 Y-1.6816 Z-1.2652 I0.2182 J-0.0563
N660 X-1.2328 Y-1.3254 Z-1.2845 I-0.0444 J0.2202
N665 X-1.6109 Y-1.3597 Z-1.3037 I-0.1783 J-0.1356
N670 X-1.4157 Y-1.6839 Z-1.3229 I0.1992 J-0.101
N675 X-1.2097 Y-1.3678 Z-1.3422 I0.004 J0.2226
N680 X-1.5829 Y-1.3204 Z-1.3614 I-0.2015 J-0.0932
N685 X-1.4631 Y-1.6759 Z-1.3806 I0.1713 J-0.1402
N690 X-1.1963 Y-1.4138 Z-1.3998 I0.0513 J0.2146
N695 X-1.5474 Y-1.2885 Z-1.4191 I-0.2148 J-0.0473
N700 X-1.5072 Y-1.6579 Z-1.4383 I0.1359 J-0.1722
N705 X-1.1932 Y-1.4612 Z-1.4575 I0.0954 J0.1967
N710 X-1.6305 I-0.2186 J0.
N715 X-1.1932 I0.2186 J0.

N720 G1 Y-1.4481 F39.37
N725 X-1.1918 Y-1.4351
N730 X-1.1892 Y-1.4223
N735 X-1.1814 Y-1.3973
N740 X-1.1796 Y-1.3916
N745 X-1.178 Y-1.3852
N750 X-1.1767 Y-1.3782
N755 X-1.1758 Y-1.3706
N760 X-1.1754 Y-1.3623
N765 X-1.1755 Y-1.3534
N770 X-1.1763 Y-1.344
N775 X-1.1777 Y-1.3342
N780 X-1.1798 Y-1.3239
N785 X-1.1828 Y-1.3132
N790 X-1.1866 Y-1.3022
N795 X-1.1913 Y-1.291
N800 X-1.1969 Y-1.2797
N805 X-1.2035 Y-1.2683
N810 X-1.2111 Y-1.2569
N815 X-1.2197 Y-1.2457
N820 X-1.2292 Y-1.2348
N825 X-1.2398 Y-1.2242
N830 X-1.2513 Y-1.214
N835 X-1.2637 Y-1.2043
N840 X-1.277 Y-1.1953
N845 X-1.2912 Y-1.1869
N850 X-1.3061 Y-1.1794
N855 X-1.3218 Y-1.1726
N860 X-1.3381 Y-1.1668
N865 X-1.355 Y-1.162
N870 X-1.3724 Y-1.1583
N875 X-1.3902 Y-1.1556
N880 X-1.4084 Y-1.1541
N885 X-1.4268 Y-1.1537
N890 X-1.4453 Y-1.1545
N895 X-1.4639 Y-1.1565
N900 X-1.4825 Y-1.1597
N905 X-1.501 Y-1.1641
N910 X-1.5192 Y-1.1698
N915 X-1.5372 Y-1.1766
N920 X-1.5547 Y-1.1846
N925 X-1.5718 Y-1.1937
N930 X-1.5884 Y-1.204
N935 X-1.6042 Y-1.2153
N940 X-1.6194 Y-1.2277
N945 X-1.6338 Y-1.241
N950 X-1.6474 Y-1.2553
N955 X-1.66 Y-1.2705
N960 X-1.6717 Y-1.2865
N965 X-1.6824 Y-1.3032
N970 X-1.6919 Y-1.3206
N975 X-1.7004 Y-1.3385
N980 X-1.7077 Y-1.3571
N985 X-1.7138 Y-1.376
N990 X-1.7186 Y-1.3954
N995 X-1.7223 Y-1.415
N1000 X-1.7247 Y-1.4349
N1005 X-1.7258 Y-1.4548
N1010 X-1.7256 Y-1.4748
N1015 X-1.7241 Y-1.4948
N1020 X-1.7214 Y-1.5147
N1025 X-1.7174 Y-1.5343
N1030 X-1.7121 Y-1.5537
N1035 X-1.7056 Y-1.5726
N1040 X-1.6979 Y-1.5912
N1045 X-1.6891 Y-1.6092
N1050 X-1.6791 Y-1.6266
N1055 X-1.668 Y-1.6433
N1060 X-1.6558 Y-1.6593
N1065 X-1.6427 Y-1.6745
N1070 X-1.6286 Y-1.6889
N1075 X-1.6136 Y-1.7023
N1080 X-1.5978 Y-1.7147
N1085 X-1.5812 Y-1.7261
N1090 X-1.5639 Y-1.7363
N1095 X-1.546 Y-1.7455
N1100 X-1.5276 Y-1.7535
N1105 X-1.5086 Y-1.7603
N1110 X-1.4893 Y-1.7659
N1115 X-1.4697 Y-1.7702
N1120 X-1.4498 Y-1.7733
N1125 X-1.4297 Y-1.7751
N1130 X-1.4096 Y-1.7756
N1135 X-1.3895 Y-1.7748
N1140 X-1.3695 Y-1.7728
N1145 X-1.3497 Y-1.7694
N1150 X-1.3301 Y-1.7648
N1155 X-1.3108 Y-1.759
N1160 X-1.292 Y-1.7519
N1165 X-1.2736 Y-1.7436
N1170 X-1.2558 Y-1.7342
N1175 X-1.2387 Y-1.7237
N1180 X-1.2223 Y-1.712
N1185 X-1.2066 Y-1.6994
N1190 X-1.1918 Y-1.6858
N1195 X-1.1779 Y-1.6712
N1200 X-1.1649 Y-1.6558
N1205 X-1.153 Y-1.6397
N1210 X-1.1404 Y-1.6202
N1215 X-1.1277 Y-1.5973
N1220 X-1.1157 Y-1.574
N1225 X-1.1047 Y-1.5502
N1230 X-1.0948 Y-1.526
N1235 X-1.0863 Y-1.5012
N1240 X-1.0796 Y-1.4769
N1245 X-1.0747 Y-1.4534
N1250 X-1.0715 Y-1.4307
N1255 X-1.0698 Y-1.4086
N1260 X-1.0696 Y-1.3955
N1265 X-1.0702 Y-1.374
N1270 X-1.072 Y-1.3528
N1275 X-1.0752 Y-1.332
N1280 X-1.0798 Y-1.3114
N1285 X-1.0856 Y-1.2912
N1290 X-1.0927 Y-1.2713
N1295 X-1.1011 Y-1.2519
N1300 X-1.1108 Y-1.2329
N1305 X-1.1218 Y-1.2145
N1310 X-1.134 Y-1.1966
N1315 X-1.1474 Y-1.1795
N1320 X-1.1621 Y-1.1631
N1325 X-1.1779 Y-1.1475
N1330 X-1.1948 Y-1.1328
N1335 X-1.2129 Y-1.1191
N1340 X-1.2319 Y-1.1064
N1345 X-1.252 Y-1.0949
N1350 X-1.273 Y-1.0846
N1355 X-1.2948 Y-1.0755
N1360 X-1.3173 Y-1.0678
N1365 X-1.3405 Y-1.0615
N1370 X-1.3642 Y-1.0566
N1375 X-1.3884 Y-1.0533
N1380 X-1.413 Y-1.0515
N1385 X-1.4378 Y-1.0512
N1390 X-1.4627 Y-1.0526
N1395 X-1.4876 Y-1.0555
N1400 X-1.5124 Y-1.0601
N1405 X-1.537 Y-1.0663
N1410 X-1.5613 Y-1.0741
N1415 X-1.5851 Y-1.0834
N1420 X-1.6084 Y-1.0944
N1425 X-1.6311 Y-1.1068
N1430 X-1.653 Y-1.1207
N1435 X-1.674 Y-1.1361
N1440 X-1.6941 Y-1.1528
N1445 X-1.7131 Y-1.1708
N1450 X-1.7309 Y-1.19
N1455 X-1.7475 Y-1.2103
N1460 X-1.7627 Y-1.2316
N1465 X-1.7765 Y-1.2538
N1470 X-1.7889 Y-1.2768
N1475 X-1.7999 Y-1.3006
N1480 X-1.8093 Y-1.3251
N1485 X-1.8171 Y-1.35
N1490 X-1.8234 Y-1.3755
N1495 X-1.8281 Y-1.4012
N1500 X-1.8311 Y-1.4272
N1505 X-1.8325 Y-1.4534
N1510 X-1.8322 Y-1.4796
N1515 X-1.8303 Y-1.5057
N1520 X-1.8268 Y-1.5316
N1525 X-1.8217 Y-1.5573
N1530 X-1.815 Y-1.5826
N1535 X-1.8067 Y-1.6075
N1540 X-1.7969 Y-1.6317
N1545 X-1.7856 Y-1.6553
N1550 X-1.7728 Y-1.6782
N1555 X-1.7587 Y-1.7002
N1560 X-1.7432 Y-1.7213
N1565 X-1.7264 Y-1.7414
N1570 X-1.7084 Y-1.7605
N1575 X-1.6892 Y-1.7783
N1580 X-1.669 Y-1.795
N1585 X-1.6478 Y-1.8103
N1590 X-1.6257 Y-1.8243
N1595 X-1.6027 Y-1.8369
N1600 X-1.579 Y-1.8481
N1605 X-1.5547 Y-1.8577
N1610 X-1.5298 Y-1.8658
N1615 X-1.5045 Y-1.8724
N1620 X-1.4788 Y-1.8774
N1625 X-1.4528 Y-1.8807
N1630 X-1.4267 Y-1.8825
N1635 X-1.4005 Y-1.8826
N1640 X-1.3744 Y-1.8811
N1645 X-1.3484 Y-1.878
N1650 X-1.3226 Y-1.8732
N1655 X-1.2972 Y-1.8669
N1660 X-1.2722 Y-1.859
N1665 X-1.2478 Y-1.8496
N1670 X-1.224 Y-1.8386
N1675 X-1.201 Y-1.8262
N1680 X-1.1787 Y-1.8124
N1685 X-1.1574 Y-1.7973
N1690 X-1.137 Y-1.7809
N1695 X-1.1176 Y-1.7633
N1700 X-1.0991 Y-1.7447
N1705 X-1.0816 Y-1.7252
N1710 X-1.0651 Y-1.7049
N1715 X-1.0496 Y-1.6838
N1720 X-1.0352 Y-1.6619
N1725 X-1.0218 Y-1.6394
N1730 X-1.0096 Y-1.6163
N1735 X-0.9986 Y-1.5925
N1740 X-0.9888 Y-1.5682
N1745 X-0.9803 Y-1.5435
N1750 X-0.9731 Y-1.5183
N1755 X-0.9673 Y-1.4928
N1760 X-0.9628 Y-1.467
N1765 X-0.9598 Y-1.441
N1770 X-0.9583 Y-1.4148
N1775 X-0.9582 Y-1.3886
N1780 X-0.9597 Y-1.3625
N1785 X-0.9626 Y-1.3365
N1790 X-0.967 Y-1.3107
N1795 X-0.9729 Y-1.2852
N1800 X-0.9803 Y-1.26
N1805 X-0.9891 Y-1.2354
N1810 X-0.9993 Y-1.2112
N1815 X-1.0108 Y-1.1878
N1820 X-1.0237 Y-1.165
N1825 X-1.038 Y-1.143
N1830 X-1.0534 Y-1.1218
N1835 X-1.07 Y-1.1016
N1840 X-1.0878 Y-1.0824
N1845 X-1.1066 Y-1.0642
N1850 X-1.1264 Y-1.0471
N1855 X-1.1472 Y-1.0311
N1860 X-1.1688 Y-1.0163
N1865 X-1.1912 Y-1.0027
N1870 X-1.2143 Y-0.9904
N1875 X-1.238 Y-0.9794
N1880 X-1.2623 Y-0.9696
N1885 X-1.2871 Y-0.9612
N1890 X-1.3123 Y-0.9542
N1895 X-1.3379 Y-0.9485
N1900 X-1.3637 Y-0.9442
N1905 X-1.3898 Y-0.9413
N1910 X-1.4159 Y-0.9398
N1915 X-1.4421 Y-0.9396
N1920 X-1.4682 Y-0.9408
N1925 X-1.4943 Y-0.9434
N1930 X-1.5202 Y-0.9474
N1935 X-1.5458 Y-0.9526
N1940 X-1.5712 Y-0.9592
N1945 X-1.5961 Y-0.9671
N1950 X-1.6206 Y-0.9763
N1955 X-1.6447 Y-0.9867
N1960 X-1.6681 Y-0.9983
N1965 X-1.691 Y-1.0111
N1970 X-1.7131 Y-1.0251
N1975 X-1.7346 Y-1.0401
N1980 X-1.7552 Y-1.0562
N1985 X-1.775 Y-1.0733
N1990 X-1.7939 Y-1.0914
N1995 X-1.8119 Y-1.1105
N2000 X-1.8289 Y-1.1304
N2005 X-1.8449 Y-1.1511
N2010 X-1.8598 Y-1.1726
N2015 X-1.8737 Y-1.1949
N2020 X-1.8864 Y-1.2178
N2025 X-1.8979 Y-1.2413
N2030 X-1.9083 Y-1.2653
N2035 X-1.9175 Y-1.2898
N2040 X-1.9254 Y-1.3148
N2045 X-1.9321 Y-1.3401
N2050 X-1.9376 Y-1.3657
N2055 X-1.9417 Y-1.3916
N2060 X-1.9446 Y-1.4176
N2065 X-1.9462 Y-1.4437
N2070 X-1.9465 Y-1.4699
N2075 X-1.9455 Y-1.4961
N2080 X-1.9433 Y-1.5221
N2085 X-1.9398 Y-1.5481
N2090 X-1.9349 Y-1.5738
N2095 X-1.9288 Y-1.5993
N2100 X-1.9215 Y-1.6244
N2105 X-1.913 Y-1.6492
N2110 X-1.9032 Y-1.6735
N2115 X-1.8923 Y-1.6973
N2120 X-1.8802 Y-1.7205
N2125 X-1.867 Y-1.7431
N2130 X-1.8527 Y-1.7651
N2135 X-1.8374 Y-1.7863
N2140 X-1.821 Y-1.8067
N2145 X-1.8036 Y-1.8263
N2150 X-1.7854 Y-1.845
N2155 X-1.7662 Y-1.8629
N2160 X-1.7461 Y-1.8797
N2165 X-1.7253 Y-1.8956
N2170 X-1.7037 Y-1.9104
N2175 X-1.6814 Y-1.9241
N2180 X-1.6585 Y-1.9368
N2185 X-1.635 Y-1.9483
N2190 X-1.6109 Y-1.9586
N2195 X-1.5864 Y-1.9678
N2200 X-1.5614 Y-1.9757
N2205 X-1.5361 Y-1.9824
N2210 X-1.5105 Y-1.9879
N2215 X-1.4847 Y-1.9921
N2220 X-1.4587 Y-1.995
N2225 X-1.4325 Y-1.9967
N2230 X-1.4063 Y-1.9971
N2235 X-1.3802 Y-1.9961
N2240 X-1.3541 Y-1.994
N2245 X-1.3281 Y-1.9905
N2250 X-1.3024 Y-1.9858
N2255 X-1.2769 Y-1.9798
N2260 X-1.2517 Y-1.9726
N2265 X-1.2269 Y-1.9642
N2270 X-1.2026 Y-1.9546
N2275 X-1.1787 Y-1.9438
N2280 X-1.1554 Y-1.9318
N2285 X-1.1327 Y-1.9188
N2290 X-1.1106 Y-1.9048
N2295 X-1.0891 Y-1.8898
N2300 X-1.0684 Y-1.8738
N2305 X-1.0483 Y-1.857
N2310 X-1.029 Y-1.8393
N2315 X-1.0105 Y-1.8207
N2320 X-0.9928 Y-1.8015
N2325 X-0.976 Y-1.7814
N2330 X-0.9599 Y-1.7607
N2335 X-0.9448 Y-1.7393
N2340 X-0.9307 Y-1.7173
N2345 X-0.9174 Y-1.6947
N2350 X-0.9051 Y-1.6716
N2355 X-0.8939 Y-1.648
N2360 X-0.8836 Y-1.62
N2365 X-0.8744 Y-1.5994
N2370 X-0.8663 Y-1.5745
N2375 X-0.8593 Y-1.5493
N2380 X-0.8533 Y-1.5237
N2385 X-0.8486 Y-1.498
N2390 X-0.8463 Y-1.4822
N2395 X-0.8457 Y-1.4765
N2400 X-0.8453 Y-1.4708
N2405 X-0.8451 Y-1.4652
N2410 Y-1.4599
N2415 X-0.8453 Y-1.4449
N2420 X-0.8458 Y-1.4299
N2425 X-0.8469 Y-1.4149
N2430 X-0.8484 Y-1.3999
N2435 X-0.85 Y-1.385
N2440 X-0.8524 Y-1.37
N2445 X-0.8542 Y-1.3598
N2450 X-0.8581 Y-1.34
N2455 X-0.8617 Y-1.325
N2460 X-0.8657 Y-1.31
N2465 X-0.8692 Y-1.2976
N2470 X-0.87 Y-1.295
N2475 X-0.8748 Y-1.28
N2480 X-0.8801 Y-1.265
N2485 X-0.8842 Y-1.2545
N2490 X-0.8859 Y-1.25
N2495 X-0.8921 Y-1.2351
N2500 X-0.899 Y-1.2201
N2505 X-0.9062 Y-1.2051
N2510 X-0.9142 Y-1.1901
N2515 X-0.9227 Y-1.1751
N2520 X-0.9291 Y-1.1638
N2525 X-0.9316 Y-1.1601
N2530 X-0.9441 Y-1.1412
N2535 X-0.9516 Y-1.1301
N2540 X-0.9632 Y-1.1151
N2545 X-0.9741 Y-1.101
N2550 X-0.9748 Y-1.1001
N2555 X-0.9891 Y-1.084
N2560 X-1.0017 Y-1.0702
N2565 X-1.0041 Y-1.0676
N2570 X-1.0167 Y-1.0552
N2575 X-1.0191 Y-1.0528
N2580 X-1.0326 Y-1.0402
N2585 X-1.034 Y-1.0389
N2590 X-1.049 Y-1.0261
N2595 X-1.0501 Y-1.0252
N2600 X-1.064 Y-1.0139
N2605 X-1.079 Y-1.0028
N2610 X-1.0897 Y-0.9952
N2615 X-1.094 Y-0.9922
N2620 X-1.109 Y-0.9825
N2625 X-1.124 Y-0.9731
N2630 X-1.139 Y-0.9648
N2635 X-1.1539 Y-0.957
N2640 X-1.1674 Y-0.9502
N2645 X-1.1689 Y-0.9495
N2650 X-1.1839 Y-0.9426
N2655 X-1.1989 Y-0.9364
N2660 X-1.2139 Y-0.9306
N2665 X-1.2289 Y-0.925
N2670 X-1.2442 Y-0.9203
N2675 X-1.2588 Y-0.916
N2680 X-1.2738 Y-0.912
N2685 X-1.2888 Y-0.9084
N2690 X-1.3034 Y-0.9053
N2695 X-1.3038 Y-0.9052
N2700 X-1.3188 Y-0.9026
N2705 X-1.3338 Y-0.9003
N2710 X-1.3488 Y-0.8984
N2715 X-1.3637 Y-0.897
N2720 X-1.3787 Y-0.8959
N2725 X-1.3937 Y-0.8953
N2730 X-1.4087 Y-0.895
N2735 X-1.4237 Y-0.8952
N2740 X-1.4387 Y-0.8957
N2745 X-1.4537 Y-0.8966
N2750 X-1.4686 Y-0.898
N2755 X-1.4836 Y-0.8997
N2760 X-1.4986 Y-0.9017
N2765 X-1.5136 Y-0.9043
N2770 X-1.5286 Y-0.9072
N2775 X-1.5436 Y-0.9105
N2780 X-1.5586 Y-0.9145
N2785 X-1.5736 Y-0.9188
N2790 X-1.5787 Y-0.9203
N2795 X-1.5885 Y-0.9235
N2800 X-1.6035 Y-0.9286
N2805 X-1.6208 Y-0.9352
N2810 X-1.6335 Y-0.9404
N2815 X-1.6485 Y-0.9468
N2820 X-1.6555 Y-0.9502
N2825 X-1.6635 Y-0.9543
N2830 X-1.6785 Y-0.9621
N2835 X-1.6844 Y-0.9652
N2840 X-1.6934 Y-0.9703
N2845 X-1.7102 Y-0.9802
N2850 X-1.7234 Y-0.9888
N2855 X-1.7329 Y-0.9952
N2860 X-1.7384 Y-0.9991
N2865 X-1.7537 Y-1.0102
N2870 X-1.7684 Y-1.0218
N2875 X-1.7727 Y-1.0252
N2880 X-1.7834 Y-1.0342
N2885 X-1.7899 Y-1.0402
N2890 X-1.8063 Y-1.0552
N2895 X-1.8133 Y-1.0624
N2900 X-1.8208 Y-1.0702
N2905 X-1.8283 Y-1.0781
N2910 X-1.8346 Y-1.0851
N2915 X-1.8433 Y-1.0951
N2920 X-1.8475 Y-1.1001
N2925 X-1.8594 Y-1.1151
N2930 X-1.8706 Y-1.1301
N2935 X-1.8733 Y-1.1338
N2940 X-1.8813 Y-1.1451
N2945 X-1.8883 Y-1.1559
N2950 X-1.8909 Y-1.1601
N2955 X-1.8999 Y-1.1751
N2960 X-1.9032 Y-1.1808
N2965 X-1.9085 Y-1.1901
N2970 X-1.9164 Y-1.2051
N2975 X-1.9182 Y-1.2087
N2980 X-1.9236 Y-1.2201
N2985 X-1.9304 Y-1.2351
N2990 X-1.937 Y-1.25
N2995 X-1.9425 Y-1.265
N3000 X-1.9482 Y-1.2809
N3005 X-1.9528 Y-1.295
N3010 X-1.957 Y-1.31
N3015 X-1.9609 Y-1.325
N3020 X-1.9632 Y-1.3345
N3025 X-1.9645 Y-1.34
N3030 X-1.9676 Y-1.355
N3035 X-1.9702 Y-1.37
N3040 X-1.9724 Y-1.385
N3045 X-1.9745 Y-1.3999
N3050 X-1.9757 Y-1.4149
N3055 X-1.9767 Y-1.4299
N3060 X-1.9775 Y-1.4449
N3065 X-1.9776 Y-1.4599
N3070 X-1.9774 Y-1.4749
N3075 X-1.977 Y-1.4899
N3080 X-1.9759 Y-1.5049
N3085 X-1.9746 Y-1.5199
N3090 X-1.9728 Y-1.5349
N3095 X-1.9707 Y-1.5498
N3100 X-1.9681 Y-1.5648
N3105 X-1.965 Y-1.5798
N3110 X-1.9618 Y-1.5948
N3115 X-1.9578 Y-1.6098
N3120 X-1.9536 Y-1.6248
N3125 X-1.9489 Y-1.6398
N3130 X-1.9482 Y-1.6417
N3135 X-1.9435 Y-1.6548
N3140 X-1.9379 Y-1.6698
N3145 X-1.9316 Y-1.6848
N3150 X-1.9251 Y-1.6997
N3155 X-1.9182 Y-1.714
N3160 X-1.91 Y-1.7297
N3165 X-1.9032 Y-1.7418
N3170 X-1.9016 Y-1.7447
N3175 X-1.8926 Y-1.7597
N3180 X-1.8883 Y-1.7668
N3185 X-1.8832 Y-1.7747
N3190 X-1.8726 Y-1.7897
N3195 X-1.8617 Y-1.8047
N3200 X-1.8583 Y-1.809
N3205 X-1.8498 Y-1.8197
N3210 X-1.8433 Y-1.8275
N3215 X-1.8373 Y-1.8347
N3220 X-1.8283 Y-1.8446
N3225 X-1.8235 Y-1.8496
N3230 X-1.8133 Y-1.8603
N3235 X-1.8088 Y-1.8646
N3240 X-1.7983 Y-1.8747
N3245 X-1.793 Y-1.8796
N3250 X-1.7834 Y-1.8883
N3255 X-1.7762 Y-1.8946
N3260 X-1.7574 Y-1.9096
N3265 X-1.7534 Y-1.9127
N3270 X-1.737 Y-1.9246
N3275 X-1.7234 Y-1.9338
N3280 X-1.7147 Y-1.9396
N3285 X-1.7084 Y-1.9435
N3290 X-1.6934 Y-1.9524
N3295 X-1.6897 Y-1.9546
N3300 X-1.6785 Y-1.9606
N3305 X-1.6635 Y-1.9684
N3310 X-1.6485 Y-1.9758
N3315 X-1.6335 Y-1.9822
N3320 X-1.6185 Y-1.9885
N3325 X-1.6035 Y-1.9941
N3330 X-1.5875 Y-1.9995
N3335 X-1.5736 Y-2.0039
N3340 X-1.5586 Y-2.0081
N3345 X-1.5436 Y-2.0121
N3350 X-1.5331 Y-2.0145
N3355 X-1.5286 Y-2.0154
N3360 X-1.5136 Y-2.0183
N3365 X-1.4986 Y-2.0209
N3370 X-1.4836 Y-2.023
N3375 X-1.4686 Y-2.0247
N3380 X-1.4537 Y-2.0261
N3385 X-1.4387 Y-2.0269
N3390 X-1.4237 Y-2.0275
N3395 X-1.4087 Y-2.0276
N3400 X-1.3937 Y-2.0274
N3405 X-1.3787 Y-2.0267
N3410 X-1.3637 Y-2.0256
N3415 X-1.3488 Y-2.0243
N3420 X-1.3338 Y-2.0224
N3425 X-1.3188 Y-2.02
N3430 X-1.3038 Y-2.0174
N3435 X-1.2903 Y-2.0145
N3440 X-1.2888 Y-2.0142
N3445 X-1.2738 Y-2.0107
N3450 X-1.2588 Y-2.0067
N3455 X-1.2439 Y-2.0023
N3460 X-1.2348 Y-1.9995
N3465 X-1.2289 Y-1.9975
N3470 X-1.2139 Y-1.992
N3475 X-1.1989 Y-1.9863
N3480 X-1.1944 Y-1.9846
N3485 X-1.1839 Y-1.98
N3490 X-1.1612 Y-1.9696
N3495 X-1.1539 Y-1.9659
N3500 X-1.139 Y-1.9578
N3505 X-1.1331 Y-1.9546
N3510 X-1.124 Y-1.9495
N3515 X-1.109 Y-1.9401
N3520 X-1.1081 Y-1.9396
N3525 X-1.094 Y-1.9304
N3530 X-1.0854 Y-1.9246
N3535 X-1.079 Y-1.9199
N3540 X-1.064 Y-1.9088
N3545 X-1.049 Y-1.8966
N3550 X-1.034 Y-1.8838
N3555 X-1.0294 Y-1.8796
N3560 X-1.0191 Y-1.8697
N3565 X-1.0138 Y-1.8646
N3570 X-1.0041 Y-1.8548
N3575 X-0.9992 Y-1.8496
N3580 X-0.9891 Y-1.8387
N3585 X-0.9856 Y-1.8347
N3590 X-0.9741 Y-1.8215
N3595 X-0.9726 Y-1.8197
N3600 X-0.9591 Y-1.8022
N3605 X-0.9496 Y-1.7897
N3610 X-0.9397 Y-1.7747
N3615 X-0.9297 Y-1.7597
N3620 X-0.9291 Y-1.7588
N3625 X-0.921 Y-1.7447
N3630 X-0.9142 Y-1.7326
N3635 X-0.9125 Y-1.7297
N3640 X-0.9048 Y-1.7147
N3645 X-0.8992 Y-1.7029
N3650 X-0.8977 Y-1.6997
N3655 X-0.8908 Y-1.6848
N3660 X-0.8842 Y-1.6682
N3665 X-0.8792 Y-1.6548
N3670 X-0.8739 Y-1.6398
N3675 X-0.8691 Y-1.6248
N3680 X-0.8648 Y-1.6098
N3685 X-0.861 Y-1.5948
N3690 X-0.8573 Y-1.5798
N3695 X-0.8545 Y-1.5648
N3700 X-0.8542 Y-1.5629
N3705 X-0.852 Y-1.5498
N3710 X-0.8497 Y-1.5349
N3715 X-0.8481 Y-1.5199
N3720 X-0.8467 Y-1.5049
N3725 X-0.8457 Y-1.4899
N3730 X-0.8452 Y-1.4749
N3735 X-0.8451 Y-1.4652
N3740 G3 X-0.8551 Y-1.4364 Z-1.4556 I-0.05 J-0.0014
N3745 G1 X-0.8692 Y-1.4253 Z-1.4528
N3750 G3 X-0.9898 Y-1.4149 Z-1.4037 I-0.067 J-0.0721
N3755 G1 X-1.7063 Y-1.909 Z-0.6613
N3760 X-1.7084 Y-1.9104 Z-0.6591
N3765 X-1.7275 Y-1.9302 Z-0.6575
N3770 X-1.728 Y-1.9309
N3775 X-1.7282 Y-1.9324
N3780 X-1.7283 Y-1.9343
N3785 Y-1.9372
N3790 X-1.728 Y-1.9407
N3795 X-1.7274 Y-1.9453
N3800 X-1.7263 Y-1.9508
N3805 X-1.7245 Y-1.9572
N3810 X-1.7221 Y-1.9642
N3815 X-1.7187 Y-1.9724
N3820 X-1.7144 Y-1.9812
N3825 X-1.709 Y-1.9907
N3830 X-1.7022 Y-2.001
N3835 X-1.6939 Y-2.0119
N3840 X-1.6839 Y-2.0235
N3845 X-1.6724 Y-2.0351
N3850 X-1.6588 Y-2.0473
N3855 X-1.6434 Y-2.0594
N3860 X-1.6257 Y-2.0715
N3865 X-1.6059 Y-2.0833
N3870 X-1.5838 Y-2.0946
N3875 X-1.5598 Y-2.1051
N3880 X-1.5351 Y-2.114
N3885 X-1.51 Y-2.1214
N3890 X-1.4845 Y-2.1274
N3895 X-1.4588 Y-2.132
N3900 X-1.4328 Y-2.1354
N3905 X-1.4067 Y-2.1374
N3910 X-1.3805 Y-2.1382
N3915 X-1.3543 Y-2.1378
N3920 X-1.3282 Y-2.1362
N3925 X-1.3022 Y-2.1335
N3930 X-1.2763 Y-2.1296
N3935 X-1.2506 Y-2.1246
N3940 X-1.2251 Y-2.1186
N3945 X-1.1999 Y-2.1115
N3950 X-1.175 Y-2.1034
N3955 X-1.1504 Y-2.0943
N3960 X-1.1263 Y-2.0841
N3965 X-1.1026 Y-2.0731
N3970 X-1.0793 Y-2.0611
N3975 X-1.0565 Y-2.0481
N3980 X-1.0343 Y-2.0343
N3985 X-1.0126 Y-2.0197
N3990 X-0.9915 Y-2.0042
N3995 X-0.971 Y-1.9879
N4000 X-0.9511 Y-1.9708
N4005 X-0.9319 Y-1.953
N4010 X-0.9135 Y-1.9344
N4015 X-0.8958 Y-1.9151
N4020 X-0.8788 Y-1.8952
N4025 X-0.8626 Y-1.8746
N4030 X-0.8472 Y-1.8534
N4035 X-0.8327 Y-1.8317
N4040 X-0.8189 Y-1.8094
N4045 X-0.8061 Y-1.7866
N4050 X-0.7941 Y-1.7633
N4055 X-0.783 Y-1.7396
N4060 X-0.7728 Y-1.7154
N4065 X-0.7636 Y-1.6909
N4070 X-0.7553 Y-1.6661
N4075 X-0.748 Y-1.641
N4080 X-0.7416 Y-1.6156
N4085 X-0.7362 Y-1.59
N4090 X-0.7318 Y-1.5641
N4095 X-0.7283 Y-1.5382
N4100 X-0.7259 Y-1.5121
N4105 X-0.7245 Y-1.486
N4110 X-0.724 Y-1.4598
N4115 X-0.7246 Y-1.4336
N4120 X-0.7261 Y-1.4075
N4125 X-0.7287 Y-1.3814
N4130 X-0.7322 Y-1.3555
N4135 X-0.7367 Y-1.3297
N4140 X-0.7422 Y-1.3041
N4145 X-0.7487 Y-1.2787
N4150 X-0.7561 Y-1.2536
N4155 X-0.7645 Y-1.2288
N4160 X-0.7738 Y-1.2043
N4165 X-0.7841 Y-1.1802
N4170 X-0.7952 Y-1.1565
N4175 X-0.8073 Y-1.1333
N4180 X-0.8202 Y-1.1105
N4185 X-0.834 Y-1.0883
N4190 X-0.8486 Y-1.0666
N4195 X-0.8641 Y-1.0454
N4200 X-0.8803 Y-1.0249
N4205 X-0.8973 Y-1.005
N4210 X-0.9151 Y-0.9857
N4215 X-0.9336 Y-0.9672
N4220 X-0.9527 Y-0.9494
N4225 X-0.9726 Y-0.9323
N4230 X-0.993 Y-0.9159
N4235 X-1.0141 Y-0.9004
N4240 X-1.0358 Y-0.8857
N4245 X-1.058 Y-0.8718
N4250 X-1.0807 Y-0.8588
N4255 X-1.1039 Y-0.8466
N4260 X-1.1275 Y-0.8353
N4265 X-1.1515 Y-0.825
N4270 X-1.176 Y-0.8155
N4275 X-1.2007 Y-0.807
N4280 X-1.2258 Y-0.7995
N4285 X-1.2512 Y-0.7929
N4290 X-1.2767 Y-0.7873
N4295 X-1.3025 Y-0.7827
N4300 X-1.3284 Y-0.779
N4305 X-1.3545 Y-0.7764
N4310 X-1.3806 Y-0.7747
N4315 X-1.4068 Y-0.774
N4320 X-1.433 Y-0.7743
N4325 X-1.4591 Y-0.7757
N4330 X-1.4852 Y-0.778
N4335 X-1.5112 Y-0.7813
N4340 X-1.537 Y-0.7856
N4345 X-1.5626 Y-0.7909
N4350 X-1.5881 Y-0.7971
N4355 X-1.6132 Y-0.8043
N4360 X-1.6381 Y-0.8125
N4365 X-1.6627 Y-0.8216
N4370 X-1.6868 Y-0.8317
N4375 X-1.7106 Y-0.8426
N4380 X-1.734 Y-0.8544
N4385 X-1.7569 Y-0.8672
N4390 X-1.7792 Y-0.8807
N4395 X-1.8011 Y-0.8952
N4400 X-1.8224 Y-0.9105
N4405 X-1.843 Y-0.9265
N4410 X-1.8631 Y-0.9434
N4415 X-1.8825 Y-0.9609
N4420 X-1.9012 Y-0.9792
N4425 X-1.9192 Y-0.9983
N4430 X-1.9365 Y-1.0179
N4435 X-1.953 Y-1.0383
N4440 X-1.9687 Y-1.0592
N4445 X-1.9836 Y-1.0807
N4450 X-1.9977 Y-1.1028
N4455 X-2.011 Y-1.1254
N4460 X-2.0233 Y-1.1485
N4465 X-2.0348 Y-1.172
N4470 X-2.0454 Y-1.196
N4475 X-2.055 Y-1.2203
N4480 X-2.0637 Y-1.245
N4485 X-2.0715 Y-1.27
N4490 X-2.0783 Y-1.2953
N4495 X-2.0841 Y-1.3208
N4500 X-2.089 Y-1.3465
N4505 X-2.0929 Y-1.3724
N4510 X-2.0958 Y-1.3984
N4515 X-2.0977 Y-1.4246
N4520 X-2.0986 Y-1.4507
N4525 X-2.0985 Y-1.4769
N4530 X-2.0974 Y-1.5031
N4535 X-2.0953 Y-1.5292
N4540 X-2.0922 Y-1.5552
N4545 X-2.0881 Y-1.581
N4550 X-2.0831 Y-1.6067
N4555 X-2.0771 Y-1.6322
N4560 X-2.0701 Y-1.6574
N4565 X-2.0621 Y-1.6824
N4570 X-2.0532 Y-1.707
N4575 X-2.0434 Y-1.7313
N4580 X-2.0327 Y-1.7552
N4585 X-2.021 Y-1.7786
N4590 X-2.0085 Y-1.8016
N4595 X-1.9951 Y-1.8241
N4600 X-1.9809 Y-1.8461
N4605 X-1.9664 Y-1.8679
N4610 X-1.9522 Y-1.8899
N4615 X-1.9381 Y-1.9119
N4620 X-1.9237 Y-1.9339
N4625 X-1.9091 Y-1.9556
N4630 X-1.8942 Y-1.9771
N4635 X-1.8787 Y-1.9982
N4640 X-1.8627 Y-2.0189
N4645 X-1.846 Y-2.0391
N4650 X-1.8286 Y-2.0586
N4655 X-1.8104 Y-2.0775
N4660 X-1.7916 Y-2.0957
N4665 X-1.772 Y-2.1131
N4670 X-1.7517 Y-2.1296
N4675 X-1.7307 Y-2.1452
N4680 X-1.709 Y-2.1599
N4685 X-1.6867 Y-2.1736
N4690 X-1.6638 Y-2.1863
N4695 X-1.6403 Y-2.198
N4700 X-1.6164 Y-2.2086
N4705 X-1.592 Y-2.2182
N4710 X-1.5673 Y-2.2267
N4715 X-1.5578 Y-2.2296
N4720 X-1.5534 Y-2.2308
N4725 X-1.549 Y-2.2319
N4730 X-1.5445 Y-2.2328
N4735 X-1.5436 Y-2.233
N4740 X-1.5286 Y-2.2354
N4745 X-1.5136 Y-2.2374
N4750 X-1.4979 Y-2.2394
N4755 X-1.4836 Y-2.2408
N4760 X-1.4686 Y-2.2421
N4765 X-1.4537 Y-2.243
N4770 X-1.4387 Y-2.2437
N4775 X-1.4237 Y-2.2441
N4780 X-1.4087
N4785 X-1.3937
N4790 X-1.3787 Y-2.2436
N4795 X-1.3488 Y-2.2418
N4800 X-1.3338 Y-2.2403
N4805 X-1.325 Y-2.2394
N4810 X-1.3188 Y-2.2387
N4815 X-1.3038 Y-2.2368
N4820 X-1.2888 Y-2.2345
N4825 X-1.2738 Y-2.232
N4830 X-1.2588 Y-2.2292
N4835 X-1.2439 Y-2.2261
N4840 X-1.2359 Y-2.2244
N4845 X-1.2139 Y-2.2188
N4850 X-1.1989 Y-2.215
N4855 X-1.1839 Y-2.2104
N4860 X-1.1539 Y-2.2009
N4865 X-1.139 Y-2.1953
N4870 X-1.1368 Y-2.1944
N4875 X-1.124 Y-2.1895
N4880 X-1.109 Y-2.1836
N4885 X-1.094 Y-2.1769
N4890 X-1.079 Y-2.1701
N4895 X-1.0669 Y-2.1644
N4900 X-1.049 Y-2.1553
N4905 X-1.0381 Y-2.1495
N4910 X-1.034 Y-2.1473
N4915 X-1.0191 Y-2.1388
N4920 X-1.0117 Y-2.1345
N4925 X-1.0041 Y-2.1299
N4930 X-0.9873 Y-2.1195
N4935 X-0.9741 Y-2.1107
N4940 X-0.9651 Y-2.1045
N4945 X-0.9591 Y-2.1003
N4950 X-0.9438 Y-2.0895
N4955 X-0.9291 Y-2.0781
N4960 X-0.9142 Y-2.066
N4965 X-0.9061 Y-2.0595
N4970 X-0.8992 Y-2.0537
N4975 X-0.8891 Y-2.0445
N4980 X-0.8842 Y-2.04
N4985 X-0.8728 Y-2.0295
N4990 X-0.8692 Y-2.0261
N4995 X-0.8574 Y-2.0145
N5000 X-0.8392 Y-1.9958
N5005 X-0.829 Y-1.9846
N5010 X-0.8242 Y-1.9792
N5015 X-0.8159 Y-1.9696
N5020 X-0.8093 Y-1.9618
N5025 X-0.8031 Y-1.9546
N5030 X-0.7943 Y-1.9432
N5035 X-0.7915 Y-1.9396
N5040 X-0.7793 Y-1.9233
N5045 X-0.7693 Y-1.9096
N5050 X-0.7594 Y-1.8946
N5055 X-0.7493 Y-1.8793
N5060 X-0.7403 Y-1.8646
N5065 X-0.7316 Y-1.8496
N5070 X-0.7231 Y-1.8347
N5075 X-0.7193 Y-1.8278
N5080 X-0.7153 Y-1.8197
N5085 X-0.7078 Y-1.8047
N5090 X-0.7005 Y-1.7897
N5095 X-0.6939 Y-1.7747
N5100 X-0.6876 Y-1.7597
N5105 X-0.6813 Y-1.7447
N5110 X-0.6759 Y-1.7297
N5115 X-0.6706 Y-1.7147
N5120 X-0.6654 Y-1.6997
N5125 X-0.661 Y-1.6848
N5130 X-0.6594 Y-1.6791
N5135 X-0.6567 Y-1.6698
N5140 X-0.6527 Y-1.6548
N5145 X-0.6491 Y-1.6398
N5150 X-0.6458 Y-1.6248
N5155 X-0.6444 Y-1.6186
N5160 X-0.6427 Y-1.6098
N5165 X-0.6399 Y-1.5948
N5170 X-0.6375 Y-1.5798
N5175 X-0.6353 Y-1.5648
N5180 X-0.6334 Y-1.5498
N5185 X-0.6306 Y-1.5199
N5190 X-0.6295 Y-1.5049
N5195 X-0.629 Y-1.4899
N5200 X-0.6286 Y-1.4749
N5205 X-0.6284 Y-1.4599
N5210 X-0.6286 Y-1.4449
N5215 X-0.6291 Y-1.4299
N5220 X-0.6294 Y-1.4226
N5225 X-0.6298 Y-1.4149
N5230 X-0.6308 Y-1.3999
N5235 X-0.6322 Y-1.385
N5240 X-0.6337 Y-1.37
N5245 X-0.6356 Y-1.355
N5250 X-0.6403 Y-1.325
N5255 X-0.6432 Y-1.31
N5260 X-0.6444 Y-1.3041
N5265 X-0.6464 Y-1.295
N5270 X-0.6497 Y-1.28
N5275 X-0.6535 Y-1.265
N5280 X-0.6576 Y-1.25
N5285 X-0.6594 Y-1.2436
N5290 X-0.6618 Y-1.2351
N5295 X-0.6663 Y-1.2201
N5300 X-0.6744 Y-1.1973
N5305 X-0.677 Y-1.1901
N5310 X-0.6826 Y-1.1751
N5315 X-0.6888 Y-1.1601
N5320 X-0.6894 Y-1.1587
N5325 X-0.6952 Y-1.1451
N5330 X-0.7018 Y-1.1301
N5335 X-0.7044 Y-1.1249
N5340 X-0.7092 Y-1.1151
N5345 X-0.7168 Y-1.1001
N5350 X-0.7193 Y-1.0951
N5355 X-0.7246 Y-1.0851
N5360 X-0.7343 Y-1.0683
N5365 X-0.7421 Y-1.0552
N5370 X-0.7493 Y-1.0432
N5375 X-0.7712 Y-1.0102
N5380 X-0.7793 Y-0.9993
N5385 X-0.7937 Y-0.9802
N5390 X-0.8057 Y-0.9652
N5395 X-0.8093 Y-0.9609
N5400 X-0.8242 Y-0.9434
N5405 X-0.8314 Y-0.9352
N5410 X-0.8392 Y-0.9268
N5415 X-0.8542 Y-0.9113
N5420 X-0.8602 Y-0.9053
N5425 X-0.8692 Y-0.8963
N5430 X-0.8922 Y-0.8753
N5435 X-0.8992 Y-0.869
N5440 X-0.9142 Y-0.8566
N5445 X-0.9291 Y-0.8446
N5450 X-0.9441 Y-0.8329
N5455 X-0.969 Y-0.8153
N5460 X-0.9741 Y-0.8118
N5465 X-0.9891 Y-0.802
N5470 X-1.0041 Y-0.7928
N5475 X-1.0165 Y-0.7853
N5480 X-1.0191 Y-0.7838
N5485 X-1.034 Y-0.7754
N5490 X-1.0434 Y-0.7704
N5495 X-1.049 Y-0.7674
N5500 X-1.064 Y-0.7597
N5505 X-1.0728 Y-0.7554
N5510 X-1.079 Y-0.7525
N5515 X-1.094 Y-0.7457
N5520 X-1.109 Y-0.7391
N5525 X-1.124 Y-0.7331
N5530 X-1.139 Y-0.7274
N5535 X-1.1442 Y-0.7254
N5540 X-1.1539 Y-0.7217
N5545 X-1.1896 Y-0.7104
N5550 X-1.1989 Y-0.7076
N5555 X-1.2139 Y-0.7038
N5560 X-1.2289 Y-0.7
N5565 X-1.2439 Y-0.6965
N5570 X-1.2588 Y-0.6935
N5575 X-1.2738 Y-0.6906
N5580 X-1.2888 Y-0.6881
N5585 X-1.3038 Y-0.6858
N5590 X-1.3188 Y-0.684
N5595 X-1.3338 Y-0.6823
N5600 X-1.3488 Y-0.6809
N5605 X-1.3787 Y-0.679
N5610 X-1.3937 Y-0.6785
N5615 X-1.4087
N5620 X-1.4237
N5625 X-1.4387 Y-0.6789
N5630 X-1.4537 Y-0.6796
N5635 X-1.4686 Y-0.6806
N5640 X-1.4836 Y-0.6818
N5645 X-1.4986 Y-0.6833
N5650 X-1.5136 Y-0.6852
N5655 X-1.5286 Y-0.6872
N5660 X-1.5436 Y-0.6897
N5665 X-1.5743 Y-0.6954
N5670 X-1.5885 Y-0.6988
N5675 X-1.6035 Y-0.7025
N5680 X-1.6185 Y-0.7062
N5685 X-1.6328 Y-0.7104
N5690 X-1.6485 Y-0.7153
N5695 X-1.6635 Y-0.7201
N5700 X-1.6785 Y-0.7254
N5705 X-1.6934 Y-0.7311
N5710 X-1.7084 Y-0.737
N5715 X-1.7234 Y-0.7433
N5720 X-1.7384 Y-0.7501
N5725 X-1.7496 Y-0.7554
N5730 X-1.7534 Y-0.7572
N5735 X-1.7684 Y-0.7645
N5740 X-1.7834 Y-0.7726
N5745 X-1.7983 Y-0.7809
N5750 X-1.8063 Y-0.7853
N5755 X-1.8133 Y-0.7895
N5760 X-1.8308 Y-0.8003
N5765 X-1.8433 Y-0.8084
N5770 X-1.8536 Y-0.8153
N5775 X-1.8748 Y-0.8303
N5780 X-1.8883 Y-0.8405
N5785 X-1.8944 Y-0.8453
N5790 X-1.9131 Y-0.8603
N5795 X-1.9182 Y-0.8646
N5800 X-1.9304 Y-0.8753
N5805 X-1.9332 Y-0.8778
N5810 X-1.9482 Y-0.8915
N5815 X-1.9625 Y-0.9053
N5820 X-1.9782 Y-0.9214
N5825 X-1.9932 Y-0.9375
N5830 X-2.0043 Y-0.9502
N5835 X-2.0171 Y-0.9652
N5840 X-2.0231 Y-0.9725
N5845 X-2.0403 Y-0.9952
N5850 X-2.0511 Y-1.0102
N5855 X-2.0614 Y-1.0252
N5860 X-2.0713 Y-1.0402
N5865 X-2.0806 Y-1.0552
N5870 X-2.0831 Y-1.0593
N5875 X-2.0894 Y-1.0702
N5880 X-2.0981 Y-1.0852
N5885 X-2.1059 Y-1.1001
N5890 X-2.1134 Y-1.1151
N5895 X-2.1209 Y-1.1301
N5900 X-2.1275 Y-1.1451
N5905 X-2.128 Y-1.1463
N5910 X-2.1339 Y-1.1601
N5915 X-2.1401 Y-1.1751
N5920 X-2.1457 Y-1.1901
N5925 X-2.151 Y-1.2051
N5930 X-2.1561 Y-1.2201
N5935 X-2.1608 Y-1.2351
N5940 X-2.1651 Y-1.25
N5945 X-2.1694 Y-1.265
N5950 X-2.173 Y-1.2801
N5955 X-2.1763 Y-1.295
N5960 X-2.1794 Y-1.31
N5965 X-2.1823 Y-1.325
N5970 X-2.188 Y-1.3613
N5975 X-2.1889 Y-1.37
N5980 X-2.1904 Y-1.385
N5985 X-2.1918 Y-1.3999
N5990 X-2.1928 Y-1.4149
N5995 X-2.1935 Y-1.4299
N6000 X-2.194 Y-1.4449
N6005 X-2.1942 Y-1.4599
N6010 X-2.1941 Y-1.4749
N6015 X-2.1936 Y-1.4899
N6020 X-2.1931 Y-1.5049
N6025 X-2.1921 Y-1.5199
N6030 X-2.1893 Y-1.5498
N6035 X-2.188 Y-1.5601
N6040 X-2.1873 Y-1.5648
N6045 X-2.1851 Y-1.5798
N6050 X-2.1828 Y-1.5948
N6055 X-2.18 Y-1.6098
N6060 X-2.1769 Y-1.6248
N6065 X-2.1736 Y-1.6398
N6070 X-2.1701 Y-1.6548
N6075 X-2.1659 Y-1.6698
N6080 X-2.1616 Y-1.6848
N6085 X-2.1572 Y-1.6997
N6090 X-2.152 Y-1.7147
N6095 X-2.143 Y-1.7402
N6100 X-2.1414 Y-1.7447
N6105 X-2.1351 Y-1.7597
N6110 X-2.128 Y-1.7763
N6115 X-2.1221 Y-1.7897
N6120 X-2.1148 Y-1.8047
N6125 X-2.1131 Y-1.8083
N6130 X-2.1074 Y-1.8197
N6135 X-2.0995 Y-1.8347
N6140 X-2.091 Y-1.8496
N6145 X-2.0824 Y-1.8646
N6150 X-2.0731 Y-1.8796
N6155 X-2.0681 Y-1.8873
N6160 X-2.0633 Y-1.8946
N6165 X-2.0531 Y-1.91
N6170 X-2.0424 Y-1.9246
N6175 X-2.0231 Y-1.9501
N6180 X-2.0195 Y-1.9546
N6185 X-2.0067 Y-1.9696
N6190 X-1.9932 Y-1.9854
N6195 X-1.9798 Y-1.9995
N6200 X-1.9632 Y-2.0167
N6205 X-1.9499 Y-2.0295
N6210 X-1.9332 Y-2.0448
N6215 X-1.9182 Y-2.058
N6220 X-1.9165 Y-2.0595
N6225 X-1.9032 Y-2.0703
N6230 X-1.898 Y-2.0745
N6235 X-1.8883 Y-2.0823
N6240 X-1.8733 Y-2.0934
N6245 X-1.8576 Y-2.1045
N6250 X-1.8433 Y-2.1141
N6255 X-1.8352 Y-2.1195
N6260 X-1.8283 Y-2.1238
N6265 X-1.8112 Y-2.1345
N6270 X-1.7983 Y-2.1418
N6275 X-1.7845 Y-2.1495
N6280 X-1.7684 Y-2.1581
N6285 X-1.7534 Y-2.1656
N6290 X-1.7384 Y-2.1725
N6295 X-1.7234 Y-2.1793
N6300 X-1.7084 Y-2.1856
N6305 X-1.6934 Y-2.1915
N6310 X-1.686 Y-2.1944
N6315 X-1.6785 Y-2.1972
N6320 X-1.6635 Y-2.2025
N6325 X-1.6485 Y-2.2073
N6330 X-1.642 Y-2.2094
N6335 X-1.6335 Y-2.212
N6340 X-1.6185 Y-2.2164
N6345 X-1.6035 Y-2.2202
N6350 X-1.5864 Y-2.2244
N6355 X-1.5736 Y-2.2274
N6360 X-1.5586 Y-2.2302
N6365 G3 X-1.5101 Y-2.2094 Z-0.6568 I0.0075 J0.0494
N6370 G1 X-0.8093 Y-1.01 Z-0.4575
N6375 Y-1.0099
N6380 X-0.7902 Y-0.9857 Z-0.4573
N6385 X-0.7895 Y-0.9852
N6390 X-0.7889 Y-0.9838
N6395 X-0.7881 Y-0.9817
N6400 X-0.7871 Y-0.9786
N6405 X-0.786 Y-0.9744
N6410 X-0.7851 Y-0.9694
N6415 X-0.7844 Y-0.9632
N6420 X-0.784 Y-0.9555
N6425 X-0.7841 Y-0.9467
N6430 X-0.7848 Y-0.9369
N6435 X-0.7865 Y-0.9252
N6440 X-0.789 Y-0.9128
N6445 X-0.7929 Y-0.8986
N6450 X-0.7984 Y-0.8827
N6455 X-0.8053 Y-0.8661
N6460 X-0.8144 Y-0.8477
N6465 X-0.8257 Y-0.8282
N6470 X-0.8396 Y-0.8073
N6475 X-0.8555 Y-0.7865
N6480 X-0.8726 Y-0.7667
N6485 X-0.8908 Y-0.7479
N6490 X-0.9099 Y-0.73
N6495 X-0.9299 Y-0.713
N6500 X-0.9506 Y-0.697
N6505 X-0.9719 Y-0.6819
N6510 X-0.9939 Y-0.6676
N6515 X-1.0164 Y-0.6543
N6520 X-1.0394 Y-0.6418
N6525 X-1.0629 Y-0.6301
N6530 X-1.0867 Y-0.6193
N6535 X-1.1109 Y-0.6093
N6540 X-1.1355 Y-0.6002
N6545 X-1.1603 Y-0.5919
N6550 X-1.1854 Y-0.5843
N6555 X-1.2107 Y-0.5776
N6560 X-1.2362 Y-0.5717
N6565 X-1.2619 Y-0.5666
N6570 X-1.2877 Y-0.5623
N6575 X-1.3136 Y-0.5588
N6580 X-1.3397 Y-0.556
N6585 X-1.3658 Y-0.5541
N6590 X-1.3919 Y-0.5529
N6595 X-1.4181 Y-0.5525
N6600 X-1.4443 Y-0.553
N6605 X-1.4705 Y-0.5541
N6610 X-1.4966 Y-0.5561
N6615 X-1.5226 Y-0.5588
N6620 X-1.5486 Y-0.5623
N6625 X-1.5744 Y-0.5665
N6630 X-1.6001 Y-0.5715
N6635 X-1.6257 Y-0.5773
N6640 X-1.651 Y-0.5838
N6645 X-1.6762 Y-0.591
N6650 X-1.7011 Y-0.5989
N6655 X-1.7258 Y-0.6076
N6660 X-1.7503 Y-0.617
N6665 X-1.7745 Y-0.627
N6670 X-1.7983 Y-0.6378
N6675 X-1.8219 Y-0.6493
N6680 X-1.8451 Y-0.6614
N6685 X-1.8679 Y-0.6742
N6690 X-1.8904 Y-0.6876
N6695 X-1.9125 Y-0.7017
N6700 X-1.9341 Y-0.7164
N6705 X-1.9553 Y-0.7318
N6710 X-1.9761 Y-0.7477
N6715 X-1.9964 Y-0.7642
N6720 X-2.0162 Y-0.7814
N6725 X-2.0355 Y-0.799
N6730 X-2.0543 Y-0.8173
N6735 X-2.0726 Y-0.836
N6740 X-2.0903 Y-0.8553
N6745 X-2.1075 Y-0.8751
N6750 X-2.1241 Y-0.8954
N6755 X-2.14 Y-0.9161
N6760 X-2.1554 Y-0.9373
N6765 X-2.1702 Y-0.9589
N6770 X-2.1843 Y-0.9809
N6775 X-2.1978 Y-1.0034
N6780 X-2.2107 Y-1.0262
N6785 X-2.2228 Y-1.0494
N6790 X-2.2344 Y-1.0729
N6795 X-2.2452 Y-1.0967
N6800 X-2.2554 Y-1.1209
N6805 X-2.2648 Y-1.1453
N6810 X-2.2736 Y-1.17
N6815 X-2.2816 Y-1.1949
N6820 X-2.2889 Y-1.22
N6825 X-2.2954 Y-1.2454
N6830 X-2.3013 Y-1.2709
N6835 X-2.3064 Y-1.2966
N6840 X-2.3108 Y-1.3224
N6845 X-2.3144 Y-1.3483
N6850 X-2.3173 Y-1.3743
N6855 X-2.3194 Y-1.4004
N6860 X-2.3208 Y-1.4266
N6865 X-2.3214 Y-1.4528
N6870 X-2.3213 Y-1.479
N6875 X-2.3204 Y-1.5051
N6880 X-2.3187 Y-1.5313
N6885 X-2.3164 Y-1.5573
N6890 X-2.3132 Y-1.5833
N6895 X-2.3094 Y-1.6092
N6900 X-2.3047 Y-1.635
N6905 X-2.2994 Y-1.6606
N6910 X-2.2933 Y-1.6861
N6915 X-2.2864 Y-1.7114
N6920 X-2.2789 Y-1.7364
N6925 X-2.2706 Y-1.7613
N6930 X-2.2616 Y-1.7859
N6935 X-2.2519 Y-1.8102
N6940 X-2.2415 Y-1.8342
N6945 X-2.2305 Y-1.8579
N6950 X-2.2187 Y-1.8814
N6955 X-2.2063 Y-1.9044
N6960 X-2.1933 Y-1.9271
N6965 X-2.1795 Y-1.9494
N6970 X-2.1652 Y-1.9713
N6975 X-2.1502 Y-1.9928
N6980 X-2.1346 Y-2.0138
N6985 X-2.1184 Y-2.0344
N6990 X-2.1016 Y-2.0545
N6995 X-2.0843 Y-2.0741
N7000 X-2.0664 Y-2.0932
N7005 X-2.0479 Y-2.1118
N7010 X-2.0289 Y-2.1298
N7015 X-2.0094 Y-2.1473
N7020 X-1.9895 Y-2.1642
N7025 X-1.969 Y-2.1805
N7030 X-1.9481 Y-2.1963
N7035 X-1.9267 Y-2.2114
N7040 X-1.9049 Y-2.2259
N7045 X-1.8827 Y-2.2398
N7050 X-1.8601 Y-2.2531
N7055 X-1.8372 Y-2.2656
N7060 X-1.8139 Y-2.2776
N7065 X-1.7902 Y-2.2888
N7070 X-1.7663 Y-2.2994
N7075 X-1.742 Y-2.3092
N7080 X-1.7175 Y-2.3184
N7085 X-1.6927 Y-2.3269
N7090 X-1.6677 Y-2.3346
N7095 X-1.6424 Y-2.3416
N7100 X-1.617 Y-2.3479
N7105 X-1.5914 Y-2.3534
N7110 X-1.5657 Y-2.3582
N7115 X-1.5398 Y-2.3623
N7120 X-1.5139 Y-2.3656
N7125 X-1.4878 Y-2.3682
N7130 X-1.4617 Y-2.37
N7135 X-1.4355 Y-2.3711
N7140 X-1.4093 Y-2.3714
N7145 X-1.3832 Y-2.371
N7150 X-1.357 Y-2.3698
N7155 X-1.3309 Y-2.3679
N7160 X-1.3048 Y-2.3652
N7165 X-1.2789 Y-2.3618
N7170 X-1.253 Y-2.3576
N7175 X-1.2273 Y-2.3527
N7180 X-1.2018 Y-2.347
N7185 X-1.1764 Y-2.3406
N7190 X-1.1512 Y-2.3335
N7195 X-1.1262 Y-2.3256
N7200 X-1.1015 Y-2.3171
N7205 X-1.077 Y-2.3078
N7210 X-1.0528 Y-2.2978
N7215 X-1.0288 Y-2.2872
N7220 X-1.0052 Y-2.2758
N7225 X-0.982 Y-2.2638
N7230 X-0.9591 Y-2.2511
N7235 X-0.9365 Y-2.2378
N7240 X-0.9144 Y-2.2238
N7245 X-0.8927 Y-2.2092
N7250 X-0.8714 Y-2.194
N7255 X-0.8505 Y-2.1781
N7260 X-0.8301 Y-2.1617
N7265 X-0.8102 Y-2.1447
N7270 X-0.7908 Y-2.1271
N7275 X-0.7719 Y-2.109
N7280 X-0.7535 Y-2.0903
N7285 X-0.7357 Y-2.0712
N7290 X-0.7185 Y-2.0515
N7295 X-0.7018 Y-2.0313
N7300 X-0.6857 Y-2.0107
N7305 X-0.6702 Y-1.9896
N7310 X-0.6553 Y-1.968
N7315 X-0.641 Y-1.9461
N7320 X-0.6274 Y-1.9237
N7325 X-0.6144 Y-1.901
N7330 X-0.6021 Y-1.8779
N7335 X-0.5904 Y-1.8544
N7340 X-0.5795 Y-1.8306
N7345 X-0.5692 Y-1.8065
N7350 X-0.5596 Y-1.7822
N7355 X-0.5507 Y-1.7575
N7360 X-0.5426 Y-1.7327
N7365 X-0.5351 Y-1.7076
N7370 X-0.5284 Y-1.6823
N7375 X-0.5224 Y-1.6568
N7380 X-0.5172 Y-1.6311
N7385 X-0.5127 Y-1.6053
N7390 X-0.5089 Y-1.5794
N7395 X-0.5059 Y-1.5534
N7400 X-0.5036 Y-1.5273
N7405 X-0.5021 Y-1.5012
N7410 X-0.5013 Y-1.475
N7415 Y-1.4488
N7420 X-0.502 Y-1.4227
N7425 X-0.5035 Y-1.3965
N7430 X-0.5058 Y-1.3704
N7435 X-0.5087 Y-1.3444
N7440 X-0.5125 Y-1.3185
N7445 X-0.517 Y-1.2927
N7450 X-0.5222 Y-1.267
N7455 X-0.5281 Y-1.2415
N7460 X-0.5348 Y-1.2162
N7465 X-0.5422 Y-1.1911
N7470 X-0.5504 Y-1.1662
N7475 X-0.5592 Y-1.1416
N7480 X-0.5677 Y-1.1168
N7485 X-0.5757 Y-1.0919
N7490 X-0.5836 Y-1.0669
N7495 X-0.5914 Y-1.0419
N7500 X-0.5993 Y-1.017
N7505 X-0.6074 Y-0.9921
N7510 X-0.6159 Y-0.9673
N7515 X-0.6249 Y-0.9427
N7520 X-0.6345 Y-0.9183
N7525 X-0.6447 Y-0.8942
N7530 X-0.6556 Y-0.8704
N7535 X-0.6673 Y-0.847
N7540 X-0.6797 Y-0.824
N7545 X-0.693 Y-0.8014
N7550 X-0.6982 Y-0.7932
N7555 X-0.703 Y-0.7862
N7560 X-0.7083 Y-0.7794
N7565 X-0.714 Y-0.7731
N7570 X-0.7166 Y-0.7704
N7575 X-0.7193 Y-0.7676
N7580 X-0.7319 Y-0.7554
N7585 X-0.7493 Y-0.7391
N7590 X-0.7643 Y-0.7255
N7595 X-0.7793 Y-0.7128
N7600 X-0.8002 Y-0.6954
N7605 X-0.8093 Y-0.6884
N7610 X-0.8197 Y-0.6804
N7615 X-0.8242 Y-0.677
N7620 X-0.8399 Y-0.6654
N7625 X-0.8542 Y-0.6552
N7630 X-0.8614 Y-0.6504
N7635 X-0.8842 Y-0.6354
N7640 X-0.8992 Y-0.6261
N7645 X-0.9084 Y-0.6205
N7650 X-0.9291 Y-0.6085
N7655 X-0.9441 Y-0.6
N7660 X-0.9591 Y-0.5922
N7665 X-0.9891 Y-0.5771
N7670 X-0.9925 Y-0.5755
N7675 X-1.0041 Y-0.5701
N7680 X-1.0262 Y-0.5605
N7685 X-1.034 Y-0.5571
N7690 X-1.049 Y-0.5508
N7695 X-1.064 Y-0.5452
N7700 X-1.079 Y-0.5397
N7705 X-1.094 Y-0.5342
N7710 X-1.1053 Y-0.5305
N7715 X-1.109 Y-0.5293
N7720 X-1.124 Y-0.5247
N7725 X-1.139 Y-0.5202
N7730 X-1.1552 Y-0.5155
N7735 X-1.1689 Y-0.5121
N7740 X-1.1839 Y-0.5084
N7745 X-1.1989 Y-0.5047
N7750 X-1.2195 Y-0.5005
N7755 X-1.2289 Y-0.4988
N7760 X-1.2439 Y-0.496
N7765 X-1.2588 Y-0.4933
N7770 X-1.2738 Y-0.4913
N7775 X-1.2888 Y-0.4893
N7780 X-1.3038 Y-0.4875
N7785 X-1.3225 Y-0.4855
N7790 X-1.3338 Y-0.4847
N7795 X-1.3637 Y-0.4826
N7800 X-1.3787 Y-0.4821
N7805 X-1.3937 Y-0.4818
N7810 X-1.4087 Y-0.4816
N7815 X-1.4237 Y-0.4815
N7820 X-1.4387 Y-0.4819
N7825 X-1.4686 Y-0.4832
N7830 X-1.4836 Y-0.4842
N7835 X-1.499 Y-0.4855
N7840 X-1.5286 Y-0.4885
N7845 X-1.5436 Y-0.4905
N7850 X-1.5586 Y-0.4928
N7855 X-1.5736 Y-0.4951
N7860 X-1.5885 Y-0.4977
N7865 X-1.6033 Y-0.5005
N7870 X-1.6335 Y-0.507
N7875 X-1.6485 Y-0.5106
N7880 X-1.6635 Y-0.5146
N7885 X-1.6785 Y-0.5188
N7890 X-1.6934 Y-0.523
N7895 X-1.7084 Y-0.5276
N7900 X-1.7384 Y-0.5378
N7905 X-1.7534 Y-0.5432
N7910 X-1.7594 Y-0.5455
N7915 X-1.7684 Y-0.549
N7920 X-1.7834 Y-0.555
N7925 X-1.7983 Y-0.5611
N7930 X-1.8133 Y-0.5678
N7935 X-1.8433 Y-0.5819
N7940 X-1.8583 Y-0.5895
N7945 X-1.8603 Y-0.5905
N7950 X-1.8733 Y-0.5974
N7955 X-1.8883 Y-0.6055
N7960 X-1.9032 Y-0.6137
N7965 X-1.9332 Y-0.6322
N7970 X-1.9384 Y-0.6354
N7975 X-1.9482 Y-0.6416
N7980 X-1.9612 Y-0.6504
N7985 X-1.9827 Y-0.6654
N7990 X-1.9932 Y-0.6728
N7995 X-2.0031 Y-0.6804
N8000 X-2.0231 Y-0.6961
N8005 X-2.0381 Y-0.7082
N8010 X-2.0407 Y-0.7104
N8015 X-2.0531 Y-0.7211
N8020 X-2.075 Y-0.7404
N8025 X-2.0831 Y-0.7481
N8030 X-2.0906 Y-0.7554
N8035 X-2.0981 Y-0.7627
N8040 X-2.1131 Y-0.7774
N8045 X-2.1207 Y-0.7853
N8050 X-2.1344 Y-0.8003
N8055 X-2.148 Y-0.8153
N8060 X-2.158 Y-0.8268
N8065 X-2.161 Y-0.8303
N8070 X-2.1852 Y-0.8603
N8075 X-2.188 Y-0.8638
N8080 X-2.1964 Y-0.8753
N8085 X-2.203 Y-0.8842
N8090 X-2.2181 Y-0.9053
N8095 X-2.2282 Y-0.9203
N8100 X-2.2329 Y-0.9277
N8105 X-2.2377 Y-0.9352
N8110 X-2.2472 Y-0.9502
N8115 X-2.2562 Y-0.9652
N8120 X-2.2629 Y-0.977
N8125 X-2.2647 Y-0.9802
N8130 X-2.2731 Y-0.9952
N8135 X-2.2779 Y-1.004
N8140 X-2.2813 Y-1.0102
N8145 X-2.2959 Y-1.0402
N8150 X-2.3031 Y-1.0552
N8155 X-2.3079 Y-1.066
N8160 X-2.3159 Y-1.0851
N8165 X-2.3221 Y-1.1001
N8170 X-2.3229 Y-1.1021
N8175 X-2.328 Y-1.1151
N8180 X-2.3386 Y-1.1451
N8185 X-2.3437 Y-1.1601
N8190 X-2.3483 Y-1.1751
N8195 X-2.3528 Y-1.1906
N8200 X-2.357 Y-1.2051
N8205 X-2.3611 Y-1.2201
N8210 X-2.368 Y-1.25
N8215 X-2.3712 Y-1.265
N8220 X-2.3742 Y-1.28
N8225 X-2.3768 Y-1.295
N8230 X-2.3793 Y-1.31
N8235 X-2.3818 Y-1.325
N8240 X-2.3835 Y-1.34
N8245 X-2.3852 Y-1.355
N8250 X-2.3868 Y-1.37
N8255 X-2.3882 Y-1.385
N8260 X-2.3891 Y-1.3999
N8265 X-2.3899 Y-1.4149
N8270 X-2.3906 Y-1.4299
N8275 X-2.3909 Y-1.4449
N8280 X-2.391 Y-1.4599
N8285 Y-1.4749
N8290 X-2.3909 Y-1.4899
N8295 X-2.3892 Y-1.5199
N8300 X-2.3883 Y-1.5349
N8305 X-2.3871 Y-1.5498
N8310 X-2.3855 Y-1.5648
N8315 X-2.3828 Y-1.5887
N8320 X-2.3821 Y-1.5948
N8325 X-2.3797 Y-1.6098
N8330 X-2.3772 Y-1.6248
N8335 X-2.3746 Y-1.6398
N8340 X-2.372 Y-1.6548
N8345 X-2.3686 Y-1.6698
N8350 X-2.3652 Y-1.6848
N8355 X-2.3617 Y-1.6997
N8360 X-2.3577 Y-1.7147
N8365 X-2.3535 Y-1.7297
N8370 X-2.3448 Y-1.7597
N8375 X-2.3396 Y-1.7747
N8380 X-2.3378 Y-1.7797
N8385 X-2.329 Y-1.8047
N8390 X-2.3233 Y-1.8197
N8395 X-2.3229 Y-1.8207
N8400 X-2.3171 Y-1.8347
N8405 X-2.3079 Y-1.8566
N8410 X-2.3045 Y-1.8646
N8415 X-2.2973 Y-1.8796
N8420 X-2.29 Y-1.8946
N8425 X-2.2825 Y-1.9096
N8430 X-2.2746 Y-1.9246
N8435 X-2.2663 Y-1.9396
N8440 X-2.2629 Y-1.9456
N8445 X-2.2578 Y-1.9546
N8450 X-2.2491 Y-1.9696
N8455 X-2.2395 Y-1.9846
N8460 X-2.23 Y-1.9995
N8465 X-2.2201 Y-2.0145
N8470 X-2.1986 Y-2.0445
N8475 X-2.188 Y-2.0587
N8480 X-2.1754 Y-2.0745
N8485 X-2.1633 Y-2.0895
N8490 X-2.158 Y-2.0959
N8495 X-2.1505 Y-2.1045
N8500 X-2.143 Y-2.1128
N8505 X-2.1234 Y-2.1345
N8510 X-2.1131 Y-2.1452
N8515 X-2.0831 Y-2.1747
N8520 X-2.0782 Y-2.1794
N8525 X-2.0681 Y-2.1883
N8530 X-2.0531 Y-2.2015
N8535 X-2.0441 Y-2.2094
N8540 X-2.0381 Y-2.2145
N8545 X-2.0258 Y-2.2244
N8550 X-2.0067 Y-2.2394
N8555 X-1.9932 Y-2.2499
N8560 X-1.9868 Y-2.2544
N8565 X-1.9632 Y-2.2708
N8570 X-1.9482 Y-2.2811
N8575 X-1.9431 Y-2.2844
N8580 X-1.9182 Y-2.2997
N8585 X-1.9032 Y-2.3086
N8590 X-1.8883 Y-2.3171
N8595 X-1.8733 Y-2.3252
N8600 X-1.8656 Y-2.3293
N8605 X-1.8583 Y-2.3331
N8610 X-1.8433 Y-2.3408
N8615 X-1.8133 Y-2.3548
N8620 X-1.8037 Y-2.3593
N8625 X-1.7983 Y-2.3615
N8630 X-1.7834 Y-2.3676
N8635 X-1.7667 Y-2.3743
N8640 X-1.7534 Y-2.3794
N8645 X-1.7384 Y-2.3849
N8650 X-1.7084 Y-2.395
N8655 X-1.6934 Y-2.3997
N8660 X-1.6785 Y-2.4039
N8665 X-1.6635 Y-2.408
N8670 X-1.6485 Y-2.4119
N8675 X-1.6335 Y-2.4156
N8680 X-1.6035 Y-2.422
N8685 X-1.5885 Y-2.425
N8690 X-1.5736 Y-2.4275
N8695 X-1.5586 Y-2.4299
N8700 X-1.5436 Y-2.4321
N8705 X-1.5286 Y-2.4342
N8710 X-1.4986 Y-2.4371
N8715 X-1.4836 Y-2.4384
N8720 X-1.4686 Y-2.4394
N8725 X-1.4387 Y-2.4407
N8730 X-1.4237 Y-2.4411
N8735 X-1.4087 Y-2.441
N8740 X-1.3937 Y-2.4408
N8745 X-1.3787 Y-2.4405
N8750 X-1.3637 Y-2.4401
N8755 X-1.3338 Y-2.4379
N8760 X-1.3188 Y-2.4367
N8765 X-1.3038 Y-2.4352
N8770 X-1.2964 Y-2.4343
N8775 X-1.2738 Y-2.4314
N8780 X-1.2588 Y-2.4293
N8785 X-1.2439 Y-2.4266
N8790 X-1.2289 Y-2.4238
N8795 X-1.2139 Y-2.421
N8800 X-1.1989 Y-2.4179
N8805 X-1.1839 Y-2.4142
N8810 X-1.1689 Y-2.4106
N8815 X-1.1539 Y-2.4068
N8820 X-1.139 Y-2.4024
N8825 X-1.124 Y-2.3979
N8830 X-1.109 Y-2.3932
N8835 X-1.0966 Y-2.3893
N8840 X-1.094 Y-2.3884
N8845 X-1.079 Y-2.3829
N8850 X-1.0557 Y-2.3743
N8855 X-1.049 Y-2.3717
N8860 X-1.034 Y-2.3655
N8865 X-1.0191 Y-2.359
N8870 X-1.0041 Y-2.3524
N8875 X-0.9891 Y-2.3456
N8880 X-0.9569 Y-2.3293
N8885 X-0.9441 Y-2.3228
N8890 X-0.9291 Y-2.3141
N8895 X-0.9142 Y-2.3055
N8900 X-0.9037 Y-2.2994
N8905 X-0.8992 Y-2.2965
N8910 X-0.8842 Y-2.2872
N8915 X-0.8692 Y-2.2773
N8920 X-0.8573 Y-2.2694
N8925 X-0.8542 Y-2.2673
N8930 X-0.8392 Y-2.2567
N8935 X-0.8242 Y-2.2456
N8940 X-0.8159 Y-2.2394
N8945 X-0.8093 Y-2.2343
N8950 X-0.7968 Y-2.2244
N8955 X-0.7787 Y-2.2094
N8960 X-0.7643 Y-2.1973
N8965 X-0.7611 Y-2.1944
N8970 X-0.7493 Y-2.1835
N8975 X-0.7449 Y-2.1794
N8980 X-0.7343 Y-2.1695
N8985 X-0.729 Y-2.1644
N8990 X-0.7193 Y-2.1551
N8995 X-0.6995 Y-2.1345
N9000 X-0.6894 Y-2.1237
N9005 X-0.6855 Y-2.1195
N9010 X-0.6744 Y-2.1069
N9015 X-0.6594 Y-2.0894
N9020 X-0.647 Y-2.0745
N9025 X-0.6444 Y-2.0712
N9030 X-0.6294 Y-2.0516
N9035 X-0.6241 Y-2.0445
N9040 X-0.6144 Y-2.0317
N9045 X-0.6129 Y-2.0295
N9050 X-0.5927 Y-1.9995
N9055 X-0.5845 Y-1.9871
N9060 X-0.5738 Y-1.9696
N9065 X-0.5648 Y-1.9546
N9070 X-0.5562 Y-1.9396
N9075 X-0.5545 Y-1.9365
N9080 X-0.5481 Y-1.9246
N9085 X-0.5324 Y-1.8946
N9090 X-0.5253 Y-1.8796
N9095 X-0.5095 Y-1.8447
N9100 X-0.5055 Y-1.8347
N9105 X-0.4995 Y-1.8197
N9110 X-0.4937 Y-1.8047
N9115 X-0.488 Y-1.7897
N9120 X-0.483 Y-1.7747
N9125 X-0.4734 Y-1.7447
N9130 X-0.469 Y-1.7297
N9135 X-0.465 Y-1.7147
N9140 X-0.4611 Y-1.6997
N9145 X-0.4573 Y-1.6848
N9150 X-0.454 Y-1.6698
N9155 X-0.4479 Y-1.6398
N9160 X-0.4452 Y-1.6248
N9165 X-0.4429 Y-1.6098
N9170 X-0.4386 Y-1.5798
N9175 X-0.437 Y-1.5648
N9180 X-0.4357 Y-1.5498
N9185 X-0.4344 Y-1.5349
N9190 X-0.4333 Y-1.5199
N9195 X-0.4325 Y-1.5049
N9200 X-0.4317 Y-1.4749
N9205 X-0.4316 Y-1.4599
N9210 X-0.4317 Y-1.4449
N9215 X-0.4326 Y-1.4149
N9220 X-0.4333 Y-1.3999
N9225 X-0.4359 Y-1.37
N9230 X-0.4374 Y-1.355
N9235 X-0.4391 Y-1.34
N9240 X-0.4433 Y-1.31
N9245 X-0.4457 Y-1.295
N9250 X-0.4485 Y-1.28
N9255 X-0.4515 Y-1.265
N9260 X-0.4546 Y-1.25
N9265 X-0.4579 Y-1.2351
N9270 X-0.4657 Y-1.2051
N9275 X-0.4699 Y-1.1901
N9280 X-0.4743 Y-1.1751
N9285 X-0.4839 Y-1.1451
N9290 X-0.4891 Y-1.1301
N9295 X-0.5006 Y-1.1001
N9300 X-0.5066 Y-1.0851
N9305 X-0.5095 Y-1.0779
N9310 X-0.5266 Y-1.0402
N9315 X-0.5339 Y-1.0252
N9320 X-0.5495 Y-0.9952
N9325 X-0.5545 Y-0.986
N9330 X-0.5578 Y-0.9802
N9335 X-0.5665 Y-0.9652
N9340 X-0.5755 Y-0.9502
N9345 X-0.5848 Y-0.9352
N9350 X-0.5946 Y-0.9203
N9355 X-0.6047 Y-0.9053
N9360 X-0.6144 Y-0.891
N9365 X-0.615 Y-0.8903
N9370 X-0.6262 Y-0.8753
N9375 X-0.6294 Y-0.8711
N9380 X-0.6377 Y-0.8603
N9385 X-0.6493 Y-0.8453
N9390 X-0.6594 Y-0.8332
N9395 X-0.6747 Y-0.8153
N9400 X-0.6879 Y-0.8003
N9405 X-0.7022 Y-0.7853
N9410 X-0.7056 Y-0.7828 Z-0.457
N9415 X-0.709 Y-0.7802 Z-0.4561
N9420 X-0.7122 Y-0.7778 Z-0.4546
N9425 X-0.7155 Y-0.7764 Z-0.4527
N9430 X-0.7186 Y-0.7752 Z-0.4504
N9435 X-0.7213 Y-0.774 Z-0.4476
N9440 X-0.7237 Y-0.773 Z-0.4445
N9445 X-0.7258 Y-0.7726 Z-0.4412
N9450 X-0.7274 Y-0.7722 Z-0.4377
N9455 X-0.7285 Y-0.772 Z-0.434
N9460 X-0.7292 Y-0.7718 Z-0.4302
N9465 X-0.7295 Z-0.4264
N9470 G0 X-1.2696 Y-1.2801
N9475 Z-1.3182
N9480 G3 X-1.6265 Y-1.3799 Z-1.3333 I-0.1417 J-0.1813 F13.123
N9485 X-1.4254 Y-1.6903 Z-1.3483 I0.2147 J-0.0812
N9490 X-1.1895 Y-1.4067 Z-1.3634 I0.0136 J0.2286
N9495 X-1.5297 Y-1.2661 Z-1.3784 I-0.2218 J-0.0549
N9500 X-1.5626 Y-1.6319 Z-1.3935 I0.1181 J-0.195
N9505 X-1.2044 Y-1.5547 Z-1.4085 I0.1507 J0.1704
N9510 X-1.3843 Y-1.2364 Z-1.4235 I-0.207 J0.093
N9515 X-1.6341 Y-1.5021 Z-1.4386 I-0.0271 J-0.2248
N9520 X-1.3068 Y-1.6612 Z-1.4536 I0.2222 J0.0409
N9525 X-1.2524 Y-1.3023 Z-1.4687 I-0.1049 J0.1995
N9530 X-1.6104 Y-1.357 Z-1.4837 I-0.1589 J-0.1591
N9535 X-1.4521 Y-1.6818 Z-1.4988 I0.1987 J-0.1041
N9540 X-1.1897 Y-1.4346 Z-1.5138 I0.0402 J0.2201
N9545 X-1.503 Y-1.258 Z-1.5289 I-0.2216 J-0.027
N9550 X-1.5782 Y-1.6089 Z-1.5439 I0.0915 J-0.2031
N9555 X-1.2217 Y-1.5763 Z-1.559 I0.1663 J0.1474
N9560 X-1.3585 Y-1.2465 Z-1.574 I-0.1898 J0.1146
N9565 X-1.6321 Y-1.4746 Z-1.5891 I-0.0529 J-0.2147
N9570 X-1.3336 Y-1.6675 Z-1.6041 I0.2202 J0.0134
N9575 X-1.2384 Y-1.326 Z-1.6192 I-0.0781 J0.2058
N9580 X-1.592 Y-1.3367 Z-1.6342 I-0.1728 J-0.1354
N9585 X-1.4769 Y-1.6703 Z-1.6493 I0.1803 J-0.1244
N9590 X-1.1933 Y-1.4616 Z-1.6643 I0.065 J0.2086
N9595 X-1.6304 I-0.2185 J0.
N9600 X-1.1933 I0.2185 J0.
N9605 G1 Y-1.4485 F39.37
N9610 X-1.192 Y-1.4355
N9615 X-1.1893 Y-1.4227
N9620 X-1.1815 Y-1.3977
N9625 X-1.1797 Y-1.392
N9630 X-1.1781 Y-1.3856
N9635 X-1.1768 Y-1.3786
N9640 X-1.176 Y-1.371
N9645 X-1.1755 Y-1.3627
N9650 X-1.1757 Y-1.3538
N9655 X-1.1764 Y-1.3445
N9660 X-1.1778 Y-1.3346
N9665 X-1.1799 Y-1.3243
N9670 X-1.1829 Y-1.3136
N9675 X-1.1867 Y-1.3026
N9680 X-1.1914 Y-1.2914
N9685 X-1.197 Y-1.2801
N9690 X-1.2036 Y-1.2687
N9695 X-1.2112 Y-1.2574
N9700 X-1.2198 Y-1.2462
N9705 X-1.2294 Y-1.2352
N9710 X-1.2399 Y-1.2246
N9715 X-1.2514 Y-1.2144
N9720 X-1.2638 Y-1.2048
N9725 X-1.2771 Y-1.1957
N9730 X-1.2913 Y-1.1874
N9735 X-1.3062 Y-1.1798
N9740 X-1.3219 Y-1.1731
N9745 X-1.3382 Y-1.1673
N9750 X-1.3551 Y-1.1625
N9755 X-1.3725 Y-1.1588
N9760 X-1.3903 Y-1.1561
N9765 X-1.4085 Y-1.1546
N9770 X-1.4269 Y-1.1542
N9775 X-1.4454 Y-1.155
N9780 X-1.464 Y-1.157
N9785 X-1.4826 Y-1.1602
N9790 X-1.501 Y-1.1647
N9795 X-1.5193 Y-1.1703
N9800 X-1.5372 Y-1.1771
N9805 X-1.5548 Y-1.1851
N9810 X-1.5718 Y-1.1943
N9815 X-1.5884 Y-1.2045
N9820 X-1.6043 Y-1.2159
N9825 X-1.6194 Y-1.2282
N9830 X-1.6338 Y-1.2416
N9835 X-1.6474 Y-1.2559
N9840 X-1.66 Y-1.271
N9845 X-1.6717 Y-1.287
N9850 X-1.6823 Y-1.3037
N9855 X-1.6919 Y-1.3211
N9860 X-1.7003 Y-1.3391
N9865 X-1.7076 Y-1.3576
N9870 X-1.7137 Y-1.3765
N9875 X-1.7186 Y-1.3959
N9880 X-1.7222 Y-1.4155
N9885 X-1.7246 Y-1.4353
N9890 X-1.7257 Y-1.4553
N9895 X-1.7255 Y-1.4753
N9900 X-1.724 Y-1.4953
N9905 X-1.7213 Y-1.5151
N9910 X-1.7173 Y-1.5347
N9915 X-1.712 Y-1.5541
N9920 X-1.7055 Y-1.5731
N9925 X-1.6978 Y-1.5916
N9930 X-1.689 Y-1.6096
N9935 X-1.679 Y-1.627
N9940 X-1.6679 Y-1.6437
N9945 X-1.6557 Y-1.6597
N9950 X-1.6426 Y-1.6749
N9955 X-1.6285 Y-1.6892
N9960 X-1.6135 Y-1.7026
N9965 X-1.5977 Y-1.715
N9970 X-1.5811 Y-1.7264
N9975 X-1.5638 Y-1.7367
N9980 X-1.5459 Y-1.7458
N9985 X-1.5275 Y-1.7538
N9990 X-1.5086 Y-1.7606
N9995 X-1.4892 Y-1.7662
N10000 X-1.4696 Y-1.7705
N10005 X-1.4497 Y-1.7736
N10010 X-1.4297 Y-1.7754
N10015 X-1.4096 Y-1.7759
N10020 X-1.3895 Y-1.7751
N10025 X-1.3695 Y-1.773
N10030 X-1.3496 Y-1.7697
N10035 X-1.3301 Y-1.7651
N10040 X-1.3108 Y-1.7592
N10045 X-1.292 Y-1.7522
N10050 X-1.2736 Y-1.7439
N10055 X-1.2559 Y-1.7345
N10060 X-1.2387 Y-1.7239
N10065 X-1.2223 Y-1.7123
N10070 X-1.2066 Y-1.6997
N10075 X-1.1918 Y-1.6861
N10080 X-1.1779 Y-1.6715
N10085 X-1.165 Y-1.6561
N10090 X-1.153 Y-1.6399
N10095 X-1.1404 Y-1.6203
N10100 X-1.1277 Y-1.5974
N10105 X-1.1157 Y-1.5741
N10110 X-1.1047 Y-1.5504
N10115 X-1.0949 Y-1.5261
N10120 X-1.0864 Y-1.5014
N10125 X-1.0797 Y-1.477
N10130 X-1.0748 Y-1.4536
N10135 X-1.0716 Y-1.4309
N10140 X-1.0699 Y-1.4088
N10145 X-1.0698 Y-1.3957
N10150 X-1.0703 Y-1.3742
N10155 X-1.0722 Y-1.353
N10160 X-1.0754 Y-1.3322
N10165 X-1.08 Y-1.3116
N10170 X-1.0858 Y-1.2914
N10175 X-1.0929 Y-1.2716
N10180 X-1.1014 Y-1.2521
N10185 X-1.1111 Y-1.2332
N10190 X-1.122 Y-1.2147
N10195 X-1.1343 Y-1.1969
N10200 X-1.1477 Y-1.1798
N10205 X-1.1624 Y-1.1634
N10210 X-1.1782 Y-1.1478
N10215 X-1.1951 Y-1.1332
N10220 X-1.2132 Y-1.1195
N10225 X-1.2322 Y-1.1068
N10230 X-1.2523 Y-1.0953
N10235 X-1.2733 Y-1.085
N10240 X-1.2951 Y-1.0759
N10245 X-1.3176 Y-1.0682
N10250 X-1.3408 Y-1.062
N10255 X-1.3645 Y-1.0571
N10260 X-1.3887 Y-1.0538
N10265 X-1.4133 Y-1.052
N10270 X-1.438 Y-1.0517
N10275 X-1.463 Y-1.0531
N10280 X-1.4879 Y-1.0561
N10285 X-1.5127 Y-1.0607
N10290 X-1.5373 Y-1.0669
N10295 X-1.5615 Y-1.0747
N10300 X-1.5854 Y-1.0841
N10305 X-1.6087 Y-1.095
N10310 X-1.6313 Y-1.1075
N10315 X-1.6532 Y-1.1214
N10320 X-1.6742 Y-1.1368
N10325 X-1.6942 Y-1.1535
N10330 X-1.7132 Y-1.1715
N10335 X-1.731 Y-1.1907
N10340 X-1.7476 Y-1.211
N10345 X-1.7628 Y-1.2323
N10350 X-1.7766 Y-1.2545
N10355 X-1.789 Y-1.2776
N10360 X-1.7999 Y-1.3014
N10365 X-1.8093 Y-1.3258
N10370 X-1.8172 Y-1.3508
N10375 X-1.8234 Y-1.3763
N10380 X-1.828 Y-1.402
N10385 X-1.831 Y-1.428
N10390 X-1.8324 Y-1.4542
N10395 X-1.8321 Y-1.4804
N10400 X-1.8302 Y-1.5065
N10405 X-1.8267 Y-1.5324
N10410 X-1.8215 Y-1.5581
N10415 X-1.8148 Y-1.5834
N10420 X-1.8065 Y-1.6082
N10425 X-1.7966 Y-1.6325
N10430 X-1.7853 Y-1.6561
N10435 X-1.7725 Y-1.6789
N10440 X-1.7583 Y-1.701
N10445 X-1.7428 Y-1.722
N10450 X-1.726 Y-1.7421
N10455 X-1.708 Y-1.7611
N10460 X-1.6888 Y-1.779
N10465 X-1.6686 Y-1.7956
N10470 X-1.6473 Y-1.8109
N10475 X-1.6252 Y-1.8249
N10480 X-1.6022 Y-1.8374
N10485 X-1.5785 Y-1.8486
N10490 X-1.5542 Y-1.8582
N10495 X-1.5293 Y-1.8663
N10500 X-1.5039 Y-1.8728
N10505 X-1.4782 Y-1.8778
N10510 X-1.4522 Y-1.8811
N10515 X-1.4261 Y-1.8828
N10520 X-1.3999 Y-1.8829
N10525 X-1.3738 Y-1.8813
N10530 X-1.3478 Y-1.8782
N10535 X-1.3221 Y-1.8734
N10540 X-1.2967 Y-1.867
N10545 X-1.2717 Y-1.8591
N10550 X-1.2473 Y-1.8496
N10555 X-1.2235 Y-1.8387
N10560 X-1.2005 Y-1.8262
N10565 X-1.1782 Y-1.8124
N10570 X-1.1569 Y-1.7972
N10575 X-1.1366 Y-1.7807
N10580 X-1.1172 Y-1.7631
N10585 X-1.0988 Y-1.7445
N10590 X-1.0813 Y-1.725
N10595 X-1.0648 Y-1.7047
N10600 X-1.0493 Y-1.6836
N10605 X-1.0349 Y-1.6617
N10610 X-1.0216 Y-1.6392
N10615 X-1.0094 Y-1.616
N10620 X-0.9984 Y-1.5922
N10625 X-0.9886 Y-1.5679
N10630 X-0.9802 Y-1.5432
N10635 X-0.973 Y-1.518
N10640 X-0.9672 Y-1.4924
N10645 X-0.9629 Y-1.4666
N10650 X-0.9599 Y-1.4406
N10655 X-0.9584 Y-1.4145
N10660 Y-1.3883
N10665 X-0.9599 Y-1.3621
N10670 X-0.9628 Y-1.3361
N10675 X-0.9673 Y-1.3103
N10680 X-0.9733 Y-1.2848
N10685 X-0.9807 Y-1.2597
N10690 X-0.9895 Y-1.2351
N10695 X-0.9998 Y-1.211
N10700 X-1.0114 Y-1.1875
N10705 X-1.0243 Y-1.1647
N10710 X-1.0386 Y-1.1428
N10715 X-1.054 Y-1.1217
N10720 X-1.0707 Y-1.1015
N10725 X-1.0885 Y-1.0823
N10730 X-1.1074 Y-1.0641
N10735 X-1.1272 Y-1.047
N10740 X-1.148 Y-1.0311
N10745 X-1.1696 Y-1.0163
N10750 X-1.192 Y-1.0028
N10755 X-1.2152 Y-0.9905
N10760 X-1.2389 Y-0.9795
N10765 X-1.2633 Y-0.9698
N10770 X-1.2881 Y-0.9615
N10775 X-1.3133 Y-0.9545
N10780 X-1.3389 Y-0.9489
N10785 X-1.3647 Y-0.9446
N10790 X-1.3907 Y-0.9418
N10795 X-1.4169 Y-0.9403
N10800 X-1.4431 Y-0.9402
N10805 X-1.4692 Y-0.9414
N10810 X-1.4953 Y-0.9441
N10815 X-1.5211 Y-0.9481
N10820 X-1.5468 Y-0.9534
N10825 X-1.5721 Y-0.96
N10830 X-1.5971 Y-0.968
N10835 X-1.6216 Y-0.9772
N10840 X-1.6456 Y-0.9877
N10845 X-1.669 Y-0.9993
N10850 X-1.6918 Y-1.0122
N10855 X-1.714 Y-1.0261
N10860 X-1.7354 Y-1.0412
N10865 X-1.756 Y-1.0574
N10870 X-1.7757 Y-1.0746
N10875 X-1.7946 Y-1.0927
N10880 X-1.8126 Y-1.1118
N10885 X-1.8295 Y-1.1317
N10890 X-1.8455 Y-1.1525
N10895 X-1.8604 Y-1.174
N10900 X-1.8741 Y-1.1963
N10905 X-1.8868 Y-1.2192
N10910 X-1.8983 Y-1.2427
N10915 X-1.9086 Y-1.2668
N10920 X-1.9178 Y-1.2913
N10925 X-1.9257 Y-1.3163
N10930 X-1.9323 Y-1.3416
N10935 X-1.9377 Y-1.3673
N10940 X-1.9418 Y-1.3931
N10945 X-1.9446 Y-1.4191
N10950 X-1.9462 Y-1.4453
N10955 X-1.9464 Y-1.4715
N10960 X-1.9454 Y-1.4976
N10965 X-1.9431 Y-1.5237
N10970 X-1.9395 Y-1.5496
N10975 X-1.9346 Y-1.5754
N10980 X-1.9284 Y-1.6008
N10985 X-1.9211 Y-1.6259
N10990 X-1.9125 Y-1.6507
N10995 X-1.9027 Y-1.675
N11000 X-1.8917 Y-1.6987
N11005 X-1.8795 Y-1.7219
N11010 X-1.8663 Y-1.7445
N11015 X-1.852 Y-1.7664
N11020 X-1.8365 Y-1.7876
N11025 X-1.8201 Y-1.808
N11030 X-1.8027 Y-1.8275
N11035 X-1.7844 Y-1.8462
N11040 X-1.7652 Y-1.864
N11045 X-1.7451 Y-1.8808
N11050 X-1.7242 Y-1.8966
N11055 X-1.7026 Y-1.9114
N11060 X-1.6803 Y-1.9251
N11065 X-1.6573 Y-1.9377
N11070 X-1.6337 Y-1.9491
N11075 X-1.6097 Y-1.9594
N11080 X-1.5851 Y-1.9685
N11085 X-1.5601 Y-1.9764
N11090 X-1.5348 Y-1.983
N11095 X-1.5092 Y-1.9884
N11100 X-1.4833 Y-1.9925
N11105 X-1.4573 Y-1.9954
N11110 X-1.4312 Y-1.997
N11115 X-1.405 Y-1.9973
N11120 X-1.3788 Y-1.9963
N11125 X-1.3527 Y-1.9941
N11130 X-1.3268 Y-1.9906
N11135 X-1.3011 Y-1.9858
N11140 X-1.2756 Y-1.9798
N11145 X-1.2504 Y-1.9725
N11150 X-1.2257 Y-1.964
N11155 X-1.2013 Y-1.9543
N11160 X-1.1775 Y-1.9434
N11165 X-1.1542 Y-1.9315
N11170 X-1.1315 Y-1.9184
N11175 X-1.1095 Y-1.9043
N11180 X-1.0881 Y-1.8892
N11185 X-1.0673 Y-1.8732
N11190 X-1.0473 Y-1.8563
N11195 X-1.0281 Y-1.8386
N11200 X-1.0096 Y-1.82
N11205 X-0.992 Y-1.8007
N11210 X-0.9751 Y-1.7806
N11215 X-0.9592 Y-1.7599
N11220 X-0.9441 Y-1.7384
N11225 X-0.93 Y-1.7164
N11230 X-0.9168 Y-1.6938
N11235 X-0.9046 Y-1.6706
N11240 X-0.8934 Y-1.647
N11245 X-0.8832 Y-1.6228
N11250 X-0.8741 Y-1.5983
N11255 X-0.866 Y-1.5734
N11260 X-0.859 Y-1.5481
N11265 X-0.8532 Y-1.5226
N11270 X-0.8485 Y-1.4969
N11275 X-0.8463 Y-1.4811
N11280 X-0.8457 Y-1.4755
N11285 X-0.8453 Y-1.47
N11290 X-0.8451 Y-1.4644
N11295 Y-1.4599
N11300 X-0.8453 Y-1.4449
N11305 X-0.8458 Y-1.4299
N11310 X-0.8469 Y-1.4149
N11315 X-0.8484 Y-1.3999
N11320 X-0.85 Y-1.385
N11325 X-0.8524 Y-1.37
N11330 X-0.8542 Y-1.3598
N11335 X-0.8581 Y-1.34
N11340 X-0.8617 Y-1.325
N11345 X-0.8657 Y-1.31
N11350 X-0.8692 Y-1.2976
N11355 X-0.87 Y-1.295
N11360 X-0.8748 Y-1.28
N11365 X-0.8801 Y-1.265
N11370 X-0.8842 Y-1.2545
N11375 X-0.8859 Y-1.25
N11380 X-0.8921 Y-1.2351
N11385 X-0.899 Y-1.2201
N11390 X-0.9062 Y-1.2051
N11395 X-0.9142 Y-1.1901
N11400 X-0.9227 Y-1.1751
N11405 X-0.9291 Y-1.1638
N11410 X-0.9316 Y-1.1601
N11415 X-0.9441 Y-1.1412
N11420 X-0.9516 Y-1.1301
N11425 X-0.9632 Y-1.1151
N11430 X-0.9741 Y-1.101
N11435 X-0.9748 Y-1.1001
N11440 X-0.9891 Y-1.084
N11445 X-1.0017 Y-1.0702
N11450 X-1.0041 Y-1.0676
N11455 X-1.0167 Y-1.0552
N11460 X-1.0191 Y-1.0528
N11465 X-1.0326 Y-1.0402
N11470 X-1.034 Y-1.0389
N11475 X-1.049 Y-1.0261
N11480 X-1.0501 Y-1.0252
N11485 X-1.064 Y-1.0139
N11490 X-1.079 Y-1.0028
N11495 X-1.0897 Y-0.9952
N11500 X-1.094 Y-0.9922
N11505 X-1.109 Y-0.9825
N11510 X-1.124 Y-0.9731
N11515 X-1.139 Y-0.9648
N11520 X-1.1539 Y-0.957
N11525 X-1.1674 Y-0.9502
N11530 X-1.1689 Y-0.9495
N11535 X-1.1839 Y-0.9426
N11540 X-1.1989 Y-0.9364
N11545 X-1.2139 Y-0.9306
N11550 X-1.2289 Y-0.925
N11555 X-1.2442 Y-0.9203
N11560 X-1.2588 Y-0.916
N11565 X-1.2738 Y-0.912
N11570 X-1.2888 Y-0.9084
N11575 X-1.3034 Y-0.9053
N11580 X-1.3038 Y-0.9052
N11585 X-1.3188 Y-0.9026
N11590 X-1.3338 Y-0.9003
N11595 X-1.3488 Y-0.8984
N11600 X-1.3637 Y-0.897
N11605 X-1.3787 Y-0.8959
N11610 X-1.3937 Y-0.8953
N11615 X-1.4087 Y-0.895
N11620 X-1.4237 Y-0.8952
N11625 X-1.4387 Y-0.8957
N11630 X-1.4537 Y-0.8966
N11635 X-1.4686 Y-0.898
N11640 X-1.4836 Y-0.8997
N11645 X-1.4986 Y-0.9017
N11650 X-1.5136 Y-0.9043
N11655 X-1.5286 Y-0.9072
N11660 X-1.5436 Y-0.9105
N11665 X-1.5586 Y-0.9145
N11670 X-1.5736 Y-0.9188
N11675 X-1.5787 Y-0.9203
N11680 X-1.5885 Y-0.9235
N11685 X-1.6035 Y-0.9286
N11690 X-1.6208 Y-0.9352
N11695 X-1.6335 Y-0.9404
N11700 X-1.6485 Y-0.9468
N11705 X-1.6555 Y-0.9502
N11710 X-1.6635 Y-0.9543
N11715 X-1.6785 Y-0.9621
N11720 X-1.6844 Y-0.9652
N11725 X-1.6934 Y-0.9703
N11730 X-1.7102 Y-0.9802
N11735 X-1.7234 Y-0.9888
N11740 X-1.7329 Y-0.9952
N11745 X-1.7384 Y-0.9991
N11750 X-1.7537 Y-1.0102
N11755 X-1.7684 Y-1.0218
N11760 X-1.7727 Y-1.0252
N11765 X-1.7834 Y-1.0342
N11770 X-1.7899 Y-1.0402
N11775 X-1.8063 Y-1.0552
N11780 X-1.8133 Y-1.0624
N11785 X-1.8208 Y-1.0702
N11790 X-1.8283 Y-1.0781
N11795 X-1.8346 Y-1.0851
N11800 X-1.8433 Y-1.0951
N11805 X-1.8475 Y-1.1001
N11810 X-1.8594 Y-1.1151
N11815 X-1.8706 Y-1.1301
N11820 X-1.8733 Y-1.1338
N11825 X-1.8813 Y-1.1451
N11830 X-1.8883 Y-1.1559
N11835 X-1.8909 Y-1.1601
N11840 X-1.8999 Y-1.1751
N11845 X-1.9032 Y-1.1808
N11850 X-1.9085 Y-1.1901
N11855 X-1.9164 Y-1.2051
N11860 X-1.9182 Y-1.2087
N11865 X-1.9236 Y-1.2201
N11870 X-1.9304 Y-1.2351
N11875 X-1.937 Y-1.25
N11880 X-1.9425 Y-1.265
N11885 X-1.9482 Y-1.2809
N11890 X-1.9528 Y-1.295
N11895 X-1.957 Y-1.31
N11900 X-1.9609 Y-1.325
N11905 X-1.9632 Y-1.3345
N11910 X-1.9645 Y-1.34
N11915 X-1.9676 Y-1.355
N11920 X-1.9702 Y-1.37
N11925 X-1.9724 Y-1.385
N11930 X-1.9745 Y-1.3999
N11935 X-1.9757 Y-1.4149
N11940 X-1.9767 Y-1.4299
N11945 X-1.9775 Y-1.4449
N11950 X-1.9776 Y-1.4599
N11955 X-1.9774 Y-1.4749
N11960 X-1.977 Y-1.4899
N11965 X-1.9759 Y-1.5049
N11970 X-1.9746 Y-1.5199
N11975 X-1.9728 Y-1.5349
N11980 X-1.9707 Y-1.5498
N11985 X-1.9681 Y-1.5648
N11990 X-1.965 Y-1.5798
N11995 X-1.9618 Y-1.5948
N12000 X-1.9578 Y-1.6098
N12005 X-1.9536 Y-1.6248
N12010 X-1.9489 Y-1.6398
N12015 X-1.9482 Y-1.6417
N12020 X-1.9435 Y-1.6548
N12025 X-1.9379 Y-1.6698
N12030 X-1.9316 Y-1.6848
N12035 X-1.9251 Y-1.6997
N12040 X-1.9182 Y-1.714
N12045 X-1.91 Y-1.7297
N12050 X-1.9032 Y-1.7418
N12055 X-1.9016 Y-1.7447
N12060 X-1.8926 Y-1.7597
N12065 X-1.8883 Y-1.7668
N12070 X-1.8832 Y-1.7747
N12075 X-1.8726 Y-1.7897
N12080 X-1.8617 Y-1.8047
N12085 X-1.8583 Y-1.809
N12090 X-1.8498 Y-1.8197
N12095 X-1.8433 Y-1.8275
N12100 X-1.8373 Y-1.8347
N12105 X-1.8283 Y-1.8446
N12110 X-1.8235 Y-1.8496
N12115 X-1.8133 Y-1.8603
N12120 X-1.8088 Y-1.8646
N12125 X-1.7983 Y-1.8747
N12130 X-1.793 Y-1.8796
N12135 X-1.7834 Y-1.8883
N12140 X-1.7762 Y-1.8946
N12145 X-1.7574 Y-1.9096
N12150 X-1.7534 Y-1.9127
N12155 X-1.737 Y-1.9246
N12160 X-1.7234 Y-1.9338
N12165 X-1.7147 Y-1.9396
N12170 X-1.7084 Y-1.9435
N12175 X-1.6934 Y-1.9524
N12180 X-1.6897 Y-1.9546
N12185 X-1.6785 Y-1.9606
N12190 X-1.6635 Y-1.9684
N12195 X-1.6485 Y-1.9758
N12200 X-1.6335 Y-1.9822
N12205 X-1.6185 Y-1.9885
N12210 X-1.6035 Y-1.9941
N12215 X-1.5875 Y-1.9995
N12220 X-1.5736 Y-2.0039
N12225 X-1.5586 Y-2.0081
N12230 X-1.5436 Y-2.0121
N12235 X-1.5331 Y-2.0145
N12240 X-1.5286 Y-2.0154
N12245 X-1.5136 Y-2.0183
N12250 X-1.4986 Y-2.0209
N12255 X-1.4836 Y-2.023
N12260 X-1.4686 Y-2.0247
N12265 X-1.4537 Y-2.0261
N12270 X-1.4387 Y-2.0269
N12275 X-1.4237 Y-2.0275
N12280 X-1.4087 Y-2.0276
N12285 X-1.3937 Y-2.0274
N12290 X-1.3787 Y-2.0267
N12295 X-1.3637 Y-2.0256
N12300 X-1.3488 Y-2.0243
N12305 X-1.3338 Y-2.0224
N12310 X-1.3188 Y-2.02
N12315 X-1.3038 Y-2.0174
N12320 X-1.2903 Y-2.0145
N12325 X-1.2888 Y-2.0142
N12330 X-1.2738 Y-2.0107
N12335 X-1.2588 Y-2.0067
N12340 X-1.2439 Y-2.0023
N12345 X-1.2348 Y-1.9995
N12350 X-1.2289 Y-1.9975
N12355 X-1.2139 Y-1.992
N12360 X-1.1989 Y-1.9863
N12365 X-1.1944 Y-1.9846
N12370 X-1.1839 Y-1.98
N12375 X-1.1612 Y-1.9696
N12380 X-1.1539 Y-1.9659
N12385 X-1.139 Y-1.9578
N12390 X-1.1331 Y-1.9546
N12395 X-1.124 Y-1.9495
N12400 X-1.109 Y-1.9401
N12405 X-1.1081 Y-1.9396
N12410 X-1.094 Y-1.9304
N12415 X-1.0854 Y-1.9246
N12420 X-1.079 Y-1.9199
N12425 X-1.064 Y-1.9088
N12430 X-1.049 Y-1.8966
N12435 X-1.034 Y-1.8838
N12440 X-1.0294 Y-1.8796
N12445 X-1.0191 Y-1.8697
N12450 X-1.0138 Y-1.8646
N12455 X-1.0041 Y-1.8548
N12460 X-0.9992 Y-1.8496
N12465 X-0.9891 Y-1.8387
N12470 X-0.9856 Y-1.8347
N12475 X-0.9741 Y-1.8215
N12480 X-0.9726 Y-1.8197
N12485 X-0.9591 Y-1.8022
N12490 X-0.9496 Y-1.7897
N12495 X-0.9397 Y-1.7747
N12500 X-0.9297 Y-1.7597
N12505 X-0.9291 Y-1.7588
N12510 X-0.921 Y-1.7447
N12515 X-0.9142 Y-1.7326
N12520 X-0.9125 Y-1.7297
N12525 X-0.9048 Y-1.7147
N12530 X-0.8992 Y-1.7029
N12535 X-0.8977 Y-1.6997
N12540 X-0.8908 Y-1.6848
N12545 X-0.8842 Y-1.6682
N12550 X-0.8792 Y-1.6548
N12555 X-0.8739 Y-1.6398
N12560 X-0.8691 Y-1.6248
N12565 X-0.8648 Y-1.6098
N12570 X-0.861 Y-1.5948
N12575 X-0.8573 Y-1.5798
N12580 X-0.8545 Y-1.5648
N12585 X-0.8542 Y-1.5629
N12590 X-0.852 Y-1.5498
N12595 X-0.8497 Y-1.5349
N12600 X-0.8481 Y-1.5199
N12605 X-0.8467 Y-1.5049
N12610 X-0.8457 Y-1.4899
N12615 X-0.8452 Y-1.4749
N12620 X-0.8451 Y-1.4644
N12625 X-0.8457 Y-1.4602 Z-1.664
N12630 X-0.8464 Y-1.456 Z-1.6631
N12635 X-0.847 Y-1.4521 Z-1.6617
N12640 X-0.8484 Y-1.4487 Z-1.6598
N12645 X-0.8497 Y-1.4457 Z-1.6574
N12650 X-0.8509 Y-1.4429 Z-1.6547
N12655 X-0.8519 Y-1.4406 Z-1.6515
N12660 X-0.853 Y-1.4388 Z-1.6483
N12665 X-0.8539 Y-1.4375 Z-1.6447
N12670 X-0.8546 Y-1.4365 Z-1.6411
N12675 X-0.855 Y-1.4359 Z-1.6373
N12680 X-0.8551 Y-1.4357 Z-1.6334
N12685 G0 Z0.2
N12690 X-4.0491 Y-3.5686
N12695 Z-1.3182
N12700 G1 Z-1.3682 F39.37
N12705 X-4.049 Y-3.5683 Z-1.3738
N12710 X-4.0487 Y-3.5674 Z-1.3793
N12715 X-4.0484 Y-3.5659 Z-1.3847
N12720 X-4.0478 Y-3.5638 Z-1.3899
N12725 X-4.0472 Y-3.5611 Z-1.3948
N12730 X-4.0463 Y-3.558 Z-1.3994
N12735 X-4.0454 Y-3.5544 Z-1.4036
N12740 X-4.0444 Y-3.5503 Z-1.4073
N12745 X-4.0432 Y-3.5459 Z-1.4106
N12750 X-4.042 Y-3.5411 Z-1.4133
N12755 X-4.0407 Y-3.5361 Z-1.4154
N12760 X-4.0394 Y-3.5309 Z-1.417
N12765 X-4.038 Y-3.5256 Z-1.4179
N12770 X-4.0366 Y-3.5201 Z-1.4182
N12775 G3 X-3.9975 Y-3.2479 I-1.2366 J0.3167
N12780 G1 Y-3.2471
N12785 X-4.008 Y-3.2231
N12790 X-4.0174 Y-3.1987
N12795 X-4.026 Y-3.1739
N12800 X-4.0336 Y-3.1489
N12805 X-4.0405 Y-3.1237
N12810 X-4.0467 Y-3.0982
N12815 X-4.0523 Y-3.0726
N12820 X-4.0572 Y-3.0469
N12825 X-4.0617 Y-3.0211
N12830 X-4.0656 Y-2.9952
N12835 X-4.0692 Y-2.9693
N12840 X-4.0723 Y-2.9433
N12845 X-4.0751 Y-2.9173
N12850 X-4.0776 Y-2.8912
N12855 X-4.0799 Y-2.8651
N12860 X-4.0818 Y-2.839
N12865 X-4.0836 Y-2.8129
N12870 X-4.0852 Y-2.7867
N12875 X-4.0866 Y-2.7606
N12880 X-4.0878 Y-2.7344
N12885 X-4.0889 Y-2.7083
N12890 X-4.0899 Y-2.6821
N12895 X-4.0907 Y-2.6559
N12900 X-4.0915 Y-2.6298
N12905 X-4.0922 Y-2.6036
N12910 X-4.0928 Y-2.5774
N12915 X-4.0933 Y-2.5512
N12920 X-4.0938 Y-2.5251
N12925 X-4.0942 Y-2.4989
N12930 X-4.0946 Y-2.4727
N12935 X-4.0949 Y-2.4465
N12940 X-4.0952 Y-2.4203
N12945 X-4.0955 Y-2.3942
N12950 X-4.0957 Y-2.368
N12955 X-4.0959 Y-2.3418
N12960 X-4.0961 Y-2.3156
N12965 X-4.0963 Y-2.2894
N12970 X-4.0964 Y-2.2632
N12975 X-4.0965 Y-2.2371
N12980 X-4.0966 Y-2.2109
N12985 X-4.0967 Y-2.1847
N12990 X-4.0969 Y-2.1323
N12995 X-4.097 Y-2.08
N13000 X-4.0971 Y-2.0276
N13005 X-4.0972 Y-1.949
N13010 X-4.0973 Y-1.8705
N13015 X-4.0974 Y-1.7658
N13020 Y-1.6348
N13025 X-4.0975 Y-1.4254
N13030 Y-1.2683
N13035 Y-0.2733
N13040 Y0.7217
N13045 Y2.7116
N13050 Y2.7902
N13055 X-4.0963 Y2.8032
N13060 X-4.0912 Y2.8289
N13065 X-4.0812 Y2.8531
N13070 X-4.0678 Y2.8756
N13075 X-4.0519 Y2.8964
N13080 X-4.0342 Y2.9157
N13085 X-4.015 Y2.9335
N13090 X-3.9944 Y2.9497
N13095 X-3.9729 Y2.9646
N13100 X-3.9505 Y2.9781
N13105 X-3.9274 Y2.9904
N13110 X-3.9037 Y3.0016
N13115 X-3.8795 Y3.0117
N13120 X-3.855 Y3.0208
N13125 X-3.8301 Y3.029
N13130 X-3.805 Y3.0363
N13135 X-3.7796 Y3.0429
N13140 X-3.7541 Y3.0489
N13145 X-3.7285 Y3.0542
N13150 X-3.7027 Y3.059
N13155 X-3.6769 Y3.0632
N13160 X-3.651 Y3.067
N13165 X-3.625 Y3.0704
N13170 X-3.599 Y3.0734
N13175 X-3.573 Y3.0761
N13180 X-3.5469 Y3.0785
N13185 X-3.5208 Y3.0806
N13190 X-3.4947 Y3.0825
N13195 X-3.4686 Y3.0842
N13200 X-3.4424 Y3.0857
N13205 X-3.4163 Y3.0871
N13210 X-3.3901 Y3.0882
N13215 X-3.364 Y3.0893
N13220 X-3.3378 Y3.0902
N13225 X-3.3116 Y3.091
N13230 X-3.2854 Y3.0918
N13235 X-3.2593 Y3.0924
N13240 X-3.2331 Y3.093
N13245 X-3.2069 Y3.0935
N13250 X-3.1807 Y3.094
N13255 X-3.1546 Y3.0944
N13260 X-3.1284 Y3.0947
N13265 X-3.1022 Y3.095
N13270 X-3.076 Y3.0953
N13275 X-3.0498 Y3.0956
N13280 X-3.0236 Y3.0958
N13285 X-2.9975 Y3.096
N13290 X-2.9713 Y3.0962
N13295 X-2.9451 Y3.0963
N13300 X-2.9189 Y3.0964
N13305 X-2.8927 Y3.0966
N13310 X-2.8665 Y3.0967
N13315 X-2.8404 Y3.0968
N13320 X-2.788 Y3.0969
N13325 X-2.7356 Y3.097
N13330 X-2.6833 Y3.0971
N13335 X-2.6047 Y3.0973
N13340 X-2.5262
N13345 X-2.4214 Y3.0974
N13350 X-2.3167
N13355 X-2.1072 Y3.0975
N13360 X-1.6883
N13365 X-0.3267
N13370 X1.6632
N13375 X3.6532
N13380 X3.7841
N13385 X3.8101 Y3.095
N13390 X3.8354 Y3.0882
N13395 X3.8592 Y3.0772
N13400 X3.8812 Y3.0631
N13405 X3.9016 Y3.0467
N13410 X3.9205 Y3.0286
N13415 X3.9379 Y3.0089
N13420 X3.9538 Y2.9881
N13425 X3.9683 Y2.9663
N13430 X3.9815 Y2.9437
N13435 X3.9935 Y2.9205
N13440 X4.0043 Y2.8966
N13445 X4.0141 Y2.8724
N13450 X4.023 Y2.8477
N13455 X4.031 Y2.8228
N13460 X4.0381 Y2.7976
N13465 X4.0446 Y2.7722
N13470 X4.0503 Y2.7467
N13475 X4.0555 Y2.721
N13480 X4.0601 Y2.6952
N13485 X4.0643 Y2.6694
N13490 X4.0679 Y2.6434
N13495 X4.0712 Y2.6175
N13500 X4.0742 Y2.5915
N13505 X4.0768 Y2.5654
N13510 X4.0791 Y2.5393
N13515 X4.0812 Y2.5132
N13520 X4.083 Y2.4871
N13525 X4.0846 Y2.461
N13530 X4.0861 Y2.4348
N13535 X4.0874 Y2.4087
N13540 X4.0885 Y2.3825
N13545 X4.0895 Y2.3564
N13550 X4.0904 Y2.3302
N13555 X4.0912 Y2.304
N13560 X4.092 Y2.2778
N13565 X4.0926 Y2.2517
N13570 X4.0931 Y2.2255
N13575 X4.0936 Y2.1993
N13580 X4.0941 Y2.1731
N13585 X4.0945 Y2.1469
N13590 X4.0948 Y2.1208
N13595 X4.0951 Y2.0946
N13600 X4.0954 Y2.0684
N13605 X4.0956 Y2.0422
N13610 X4.0958 Y2.016
N13615 X4.096 Y1.9899
N13620 X4.0962 Y1.9637
N13625 X4.0963 Y1.9375
N13630 X4.0965 Y1.9113
N13635 X4.0966 Y1.8851
N13640 X4.0967 Y1.8589
N13645 X4.0968 Y1.8328
N13650 X4.0969 Y1.7804
N13655 X4.0971 Y1.728
N13660 X4.0972 Y1.6757
N13665 X4.0973 Y1.5971
N13670 Y1.5185
N13675 X4.0974 Y1.4138
N13680 Y1.3614
N13685 X4.0975 Y1.1782
N13690 Y0.864
N13695 Y-0.6285
N13700 Y-2.6184
N13705 Y-2.7756
N13710 X4.0958 Y-2.8017
N13715 X4.0906 Y-2.8274
N13720 X4.0809 Y-2.8516
N13725 X4.0676 Y-2.8743
N13730 X4.0519 Y-2.8952
N13735 X4.0343 Y-2.9146
N13740 X4.0152 Y-2.9324
N13745 X3.9947 Y-2.9488
N13750 X3.9732 Y-2.9637
N13755 X3.9509 Y-2.9773
N13760 X3.9278 Y-2.9897
N13765 X3.9041 Y-3.0009
N13770 X3.88 Y-3.0111
N13775 X3.8554 Y-3.0202
N13780 X3.8306 Y-3.0285
N13785 X3.8055 Y-3.0359
N13790 X3.7802 Y-3.0426
N13795 X3.7547 Y-3.0485
N13800 X3.729 Y-3.0539
N13805 X3.7033 Y-3.0587
N13810 X3.6775 Y-3.063
N13815 X3.6516 Y-3.0668
N13820 X3.6256 Y-3.0702
N13825 X3.5996 Y-3.0732
N13830 X3.5736 Y-3.076
N13835 X3.5475 Y-3.0784
N13840 X3.5214 Y-3.0805
N13845 X3.4953 Y-3.0824
N13850 X3.4692 Y-3.0841
N13855 X3.443 Y-3.0856
N13860 X3.4169 Y-3.087
N13865 X3.3907 Y-3.0882
N13870 X3.3645 Y-3.0892
N13875 X3.3384 Y-3.0902
N13880 X3.3122 Y-3.091
N13885 X3.286 Y-3.0917
N13890 X3.2599 Y-3.0924
N13895 X3.2337 Y-3.093
N13900 X3.2075 Y-3.0935
N13905 X3.1813 Y-3.0939
N13910 X3.1551 Y-3.0943
N13915 X3.129 Y-3.0947
N13920 X3.1028 Y-3.095
N13925 X3.0766 Y-3.0953
N13930 X3.0504 Y-3.0956
N13935 X3.0242 Y-3.0958
N13940 X2.998 Y-3.096
N13945 X2.9719 Y-3.0961
N13950 X2.9457 Y-3.0963
N13955 X2.9195 Y-3.0964
N13960 X2.8933 Y-3.0966
N13965 X2.8671 Y-3.0967
N13970 X2.841 Y-3.0968
N13975 X2.7886 Y-3.0969
N13980 X2.7362 Y-3.097
N13985 X2.6838 Y-3.0971
N13990 X2.6053 Y-3.0973
N13995 X2.5267
N14000 X2.422 Y-3.0974
N14005 X2.3958
N14010 X2.2387 Y-3.0975
N14015 X1.9769
N14020 X1.2176
N14025 X0.4059
N14030 X-1.5841
N14035 X-3.574
N14040 X-3.6002
N14045 X-3.6263 Y-3.095
N14050 X-3.6523 Y-3.0924
N14055 X-3.6775 Y-3.0854
N14060 X-3.7015 Y-3.0749
N14065 X-3.724 Y-3.0615
N14070 X-3.745 Y-3.0458
N14075 X-3.7644 Y-3.0282
N14080 X-3.7822 Y-3.0091
N14085 X-3.7986 Y-2.9886
N14090 X-3.8135 Y-2.9671
N14095 X-3.8271 Y-2.9448
N14100 X-3.8395 Y-2.9217
N14105 X-3.8507 Y-2.898
N14110 X-3.8608 Y-2.8739
N14115 X-3.8699 Y-2.8493
N14120 X-3.8782 Y-2.8245
N14125 X-3.8856 Y-2.7993
N14130 X-3.8922 Y-2.774
N14135 X-3.8982 Y-2.7485
N14140 X-3.9035 Y-2.7229
N14145 X-3.9083 Y-2.6971
N14150 X-3.9126 Y-2.6713
N14155 X-3.9164 Y-2.6454
N14160 X-3.9198 Y-2.6194
N14165 X-3.9228 Y-2.5934
N14170 X-3.9256 Y-2.5674
N14175 X-3.928 Y-2.5413
N14180 X-3.9302 Y-2.5152
N14185 X-3.9321 Y-2.4891
N14190 X-3.9338 Y-2.463
N14195 X-3.9353 Y-2.4369
N14200 X-3.9367 Y-2.4107
N14205 X-3.9379 Y-2.3846
N14210 X-3.939 Y-2.3584
N14215 X-3.9399 Y-2.3322
N14220 X-3.9408 Y-2.3061
N14225 X-3.9415 Y-2.2799
N14230 X-3.9422 Y-2.2537
N14235 X-3.9428 Y-2.2275
N14240 X-3.9433 Y-2.2014
N14245 X-3.9438 Y-2.1752
N14250 X-3.9442 Y-2.149
N14255 X-3.9446 Y-2.1228
N14260 X-3.9449 Y-2.0966
N14265 X-3.9452 Y-2.0705
N14270 X-3.9455 Y-2.0443
N14275 X-3.9457 Y-2.0181
N14280 X-3.9459 Y-1.9919
N14285 X-3.9461 Y-1.9657
N14290 X-3.9462 Y-1.9395
N14295 X-3.9464 Y-1.9134
N14300 X-3.9465 Y-1.8872
N14305 X-3.9466 Y-1.861
N14310 X-3.9467 Y-1.8348
N14315 X-3.9469 Y-1.7824
N14320 X-3.947 Y-1.7301
N14325 X-3.9471 Y-1.6777
N14330 X-3.9472 Y-1.5992
N14335 X-3.9473 Y-1.5206
N14340 X-3.9474 Y-1.4159
N14345 Y-1.2849
N14350 X-3.9475 Y-1.0755
N14355 Y-0.6565
N14360 Y0.705
N14365 Y2.564
N14370 X-3.9451 Y2.5901
N14375 X-3.9398 Y2.6157
N14380 X-3.9318 Y2.6407
N14385 X-3.9213 Y2.6647
N14390 X-3.9085 Y2.6875
N14395 X-3.8937 Y2.7091
N14400 X-3.8772 Y2.7295
N14405 X-3.8592 Y2.7485
N14410 X-3.8399 Y2.7662
N14415 X-3.8195 Y2.7826
N14420 X-3.7982 Y2.7977
N14425 X-3.776 Y2.8117
N14430 X-3.7532 Y2.8245
N14435 X-3.7298 Y2.8362
N14440 X-3.7059 Y2.8469
N14445 X-3.6816 Y2.8567
N14450 X-3.657 Y2.8656
N14455 X-3.6321 Y2.8737
N14460 X-3.6069 Y2.881
N14465 X-3.5816 Y2.8877
N14470 X-3.5561 Y2.8937
N14475 X-3.5305 Y2.8992
N14480 X-3.5048 Y2.9041
N14485 X-3.479 Y2.9086
N14490 X-3.4531 Y2.9126
N14495 X-3.4272 Y2.9162
N14500 X-3.4012 Y2.9194
N14505 X-3.3752 Y2.9223
N14510 X-3.3491 Y2.925
N14515 X-3.3231 Y2.9273
N14520 X-3.297 Y2.9294
N14525 X-3.2708 Y2.9313
N14530 X-3.2447 Y2.9331
N14535 X-3.2186 Y2.9346
N14540 X-3.1924 Y2.9359
N14545 X-3.1663 Y2.9372
N14550 X-3.1401 Y2.9383
N14555 X-3.1139 Y2.9393
N14560 X-3.0878 Y2.9401
N14565 X-3.0616 Y2.9409
N14570 X-3.0354 Y2.9416
N14575 X-3.0093 Y2.9423
N14580 X-2.9831 Y2.9428
N14585 X-2.9569 Y2.9433
N14590 X-2.9307 Y2.9438
N14595 X-2.9045 Y2.9442
N14600 X-2.8784 Y2.9445
N14605 X-2.8522 Y2.9449
N14610 X-2.826 Y2.9451
N14615 X-2.7998 Y2.9454
N14620 X-2.7736 Y2.9456
N14625 X-2.7474 Y2.9458
N14630 X-2.7213 Y2.946
N14635 X-2.6951 Y2.9462
N14640 X-2.6689 Y2.9463
N14645 X-2.6427 Y2.9464
N14650 X-2.6165 Y2.9466
N14655 X-2.5903 Y2.9467
N14660 X-2.538 Y2.9468
N14665 X-2.4856 Y2.947
N14670 X-2.4332 Y2.9471
N14675 X-2.3547 Y2.9472
N14680 X-2.2761 Y2.9473
N14685 X-2.1714 Y2.9474
N14690 X-2.0405
N14695 X-1.9881
N14700 X-1.7525 Y2.9475
N14705 X-1.2288
N14710 X0.0018
N14715 X1.5693
N14720 X1.5854 Y2.9485
N14725 X1.6013 Y2.9515
N14730 X1.6166 Y2.9564
N14735 X1.6313 Y2.9632
N14740 X1.645 Y2.9718
N14745 X1.6485 Y2.9743
N14750 X1.6525 Y2.9772
N14755 X1.6635 Y2.9844
N14760 X1.6755 Y2.9922
N14765 X1.6785 Y2.994
N14770 X1.6934 Y3.0032
N14775 X1.7084 Y3.0116
N14780 X1.7234 Y3.0196
N14785 X1.7284 Y3.0222
N14790 X1.7384 Y3.027
N14795 X1.7534 Y3.0341
N14800 X1.7603 Y3.0371
N14805 X1.7684 Y3.0406
N14810 X1.7834 Y3.0468
N14815 X1.7983 Y3.0525
N14820 X1.8133 Y3.058
N14825 X1.8283 Y3.0627
N14830 X1.8433 Y3.0672
N14835 X1.8583 Y3.0714
N14840 X1.8733 Y3.0753
N14845 X1.8883 Y3.0786
N14850 X1.9032 Y3.0815
N14855 X1.9063 Y3.0821
N14860 X1.9182 Y3.0842
N14865 X1.9332 Y3.0866
N14870 X1.9482 Y3.0886
N14875 X1.9632 Y3.0901
N14880 X1.9782 Y3.0914
N14885 X1.9932 Y3.0923
N14890 X2.0082 Y3.0929
N14895 X2.0231 Y3.0932
N14900 X2.0381 Y3.0929
N14905 X2.0531 Y3.0925
N14910 X2.0681 Y3.0918
N14915 X2.0831 Y3.0907
N14920 X2.0981 Y3.0892
N14925 X2.1131 Y3.0872
N14930 X2.128 Y3.0852
N14935 X2.143 Y3.0827
N14940 X2.1461 Y3.0821
N14945 X2.158 Y3.0798
N14950 X2.173 Y3.0766
N14955 X2.188 Y3.0729
N14960 X2.203 Y3.069
N14965 X2.2097 Y3.0671
N14970 X2.218 Y3.0646
N14975 X2.2329 Y3.0598
N14980 X2.2479 Y3.0548
N14985 X2.2551 Y3.0521
N14990 X2.2629 Y3.0492
N14995 X2.2779 Y3.0432
N15000 X2.292 Y3.0371
N15005 X2.3079 Y3.0298
N15010 X2.3321 Y3.0198
N15015 X2.3567 Y3.0108
N15020 X2.3817 Y3.0031
N15025 X2.407 Y2.9963
N15030 X2.4325 Y2.9905
N15035 X2.4582 Y2.9853
N15040 X2.484 Y2.9808
N15045 X2.5099 Y2.9769
N15050 X2.5358 Y2.9734
N15055 X2.5618 Y2.9704
N15060 X2.5879 Y2.9677
N15065 X2.6139 Y2.9654
N15070 X2.64 Y2.9633
N15075 X2.6662 Y2.9615
N15080 X2.6923 Y2.9598
N15085 X2.7184 Y2.9584
N15090 X2.7446 Y2.9572
N15095 X2.7708 Y2.956
N15100 X2.7969 Y2.9551
N15105 X2.8231 Y2.9542
N15110 X2.8493 Y2.9534
N15115 X2.8754 Y2.9527
N15120 X2.9016 Y2.9521
N15125 X2.9278 Y2.9516
N15130 X2.954 Y2.9511
N15135 X2.9802 Y2.9507
N15140 X3.0063 Y2.9503
N15145 X3.0325 Y2.95
N15150 X3.0587 Y2.9497
N15155 X3.0849 Y2.9495
N15160 X3.1111 Y2.9492
N15165 X3.1372 Y2.949
N15170 X3.1634 Y2.9489
N15175 X3.1896 Y2.9487
N15180 X3.2158 Y2.9486
N15185 X3.242 Y2.9485
N15190 X3.2682 Y2.9483
N15195 X3.2943 Y2.9482
N15200 X3.3467 Y2.9481
N15205 X3.3991 Y2.948
N15210 X3.4514 Y2.9479
N15215 X3.53 Y2.9478
N15220 X3.5562 Y2.9477
N15225 X3.5823 Y2.9461
N15230 X3.6081 Y2.9416
N15235 X3.6333 Y2.9344
N15240 X3.6575 Y2.9246
N15245 X3.6807 Y2.9124
N15250 X3.7027 Y2.8982
N15255 X3.7235 Y2.8822
N15260 X3.7429 Y2.8646
N15265 X3.7609 Y2.8457
N15270 X3.7777 Y2.8256
N15275 X3.7932 Y2.8045
N15280 X3.8075 Y2.7826
N15285 X3.8207 Y2.7599
N15290 X3.8327 Y2.7367
N15295 X3.8437 Y2.7129
N15300 X3.8538 Y2.6887
N15305 X3.863 Y2.6642
N15310 X3.8713 Y2.6394
N15315 X3.8789 Y2.6143
N15320 X3.8857 Y2.589
N15325 X3.8919 Y2.5636
N15330 X3.8976 Y2.538
N15335 X3.9026 Y2.5124
N15340 X3.9072 Y2.4866
N15345 X3.9114 Y2.4607
N15350 X3.9151 Y2.4348
N15355 X3.9184 Y2.4088
N15360 X3.9215 Y2.3828
N15365 X3.9242 Y2.3568
N15370 X3.9266 Y2.3307
N15375 X3.9288 Y2.3046
N15380 X3.9308 Y2.2785
N15385 X3.9325 Y2.2524
N15390 X3.9341 Y2.2263
N15395 X3.9355 Y2.2001
N15400 X3.9368 Y2.174
N15405 X3.9379 Y2.1478
N15410 X3.939 Y2.1216
N15415 X3.9399 Y2.0955
N15420 X3.9407 Y2.0693
N15425 X3.9414 Y2.0431
N15430 X3.9421 Y2.0169
N15435 X3.9427 Y1.9908
N15440 X3.9432 Y1.9646
N15445 X3.9436 Y1.9384
N15450 X3.9441 Y1.9122
N15455 X3.9444 Y1.8861
N15460 X3.9448 Y1.8599
N15465 X3.9451 Y1.8337
N15470 X3.9453 Y1.8075
N15475 X3.9456 Y1.7813
N15480 X3.9458 Y1.7551
N15485 X3.946 Y1.729
N15490 X3.9461 Y1.7028
N15495 X3.9463 Y1.6766
N15500 X3.9464 Y1.6504
N15505 X3.9465 Y1.6242
N15510 X3.9466 Y1.598
N15515 X3.9467 Y1.5719
N15520 X3.9469 Y1.5195
N15525 X3.947 Y1.4671
N15530 X3.9471 Y1.4148
N15535 X3.9472 Y1.3362
N15540 X3.9473 Y1.2577
N15545 X3.9474 Y1.1529
N15550 Y1.022
N15555 X3.9475 Y0.8125
N15560 Y0.4198
N15565 Y0.3936
N15570 Y-1.5963
N15575 Y-2.5651
N15580 X3.9449 Y-2.5912
N15585 X3.9394 Y-2.6168
N15590 X3.9313 Y-2.6417
N15595 X3.9206 Y-2.6656
N15600 X3.9077 Y-2.6884
N15605 X3.8929 Y-2.71
N15610 X3.8763 Y-2.7302
N15615 X3.8582 Y-2.7492
N15620 X3.8389 Y-2.7668
N15625 X3.8184 Y-2.7831
N15630 X3.797 Y-2.7982
N15635 X3.7748 Y-2.8121
N15640 X3.752 Y-2.8249
N15645 X3.7285 Y-2.8366
N15650 X3.7046 Y-2.8473
N15655 X3.6803 Y-2.857
N15660 X3.6557 Y-2.8659
N15665 X3.6308 Y-2.874
N15670 X3.6056 Y-2.8813
N15675 X3.5803 Y-2.8879
N15680 X3.5548 Y-2.8939
N15685 X3.5292 Y-2.8993
N15690 X3.5035 Y-2.9043
N15695 X3.4777 Y-2.9087
N15700 X3.4518 Y-2.9127
N15705 X3.4259 Y-2.9163
N15710 X3.3999 Y-2.9195
N15715 X3.3739 Y-2.9224
N15720 X3.3478 Y-2.925
N15725 X3.3217 Y-2.9274
N15730 X3.2956 Y-2.9295
N15735 X3.2695 Y-2.9314
N15740 X3.2434 Y-2.9331
N15745 X3.2173 Y-2.9346
N15750 X3.1911 Y-2.936
N15755 X3.165 Y-2.9372
N15760 X3.1388 Y-2.9383
N15765 X3.1126 Y-2.9393
N15770 X3.0865 Y-2.9402
N15775 X3.0603 Y-2.9409
N15780 X3.0341 Y-2.9416
N15785 X3.0079 Y-2.9423
N15790 X2.9818 Y-2.9428
N15795 X2.9556 Y-2.9433
N15800 X2.9294 Y-2.9438
N15805 X2.9032 Y-2.9442
N15810 X2.877 Y-2.9445
N15815 X2.8509 Y-2.9449
N15820 X2.8247 Y-2.9451
N15825 X2.7985 Y-2.9454
N15830 X2.7723 Y-2.9456
N15835 X2.7461 Y-2.9458
N15840 X2.7199 Y-2.946
N15845 X2.6938 Y-2.9462
N15850 X2.6676 Y-2.9463
N15855 X2.6414 Y-2.9464
N15860 X2.6152 Y-2.9466
N15865 X2.589 Y-2.9467
N15870 X2.5367 Y-2.9468
N15875 X2.4843 Y-2.947
N15880 X2.4319 Y-2.9471
N15885 X2.3534 Y-2.9472
N15890 X2.2748 Y-2.9473
N15895 X2.1701 Y-2.9474
N15900 X2.0392
N15905 X1.8559 Y-2.9475
N15910 X1.5155
N15915 X1.0966
N15920 X-0.7985
N15925 X-0.8139 Y-2.9484
N15930 X-0.8291 Y-2.9512
N15935 X-0.8439 Y-2.9557
N15940 X-0.8525 Y-2.9589
N15945 X-0.8992 Y-2.9754
N15950 X-0.9142 Y-2.9806
N15955 X-0.9291 Y-2.9854
N15960 X-0.9921 Y-3.0039
N15965 X-1.0041 Y-3.0072
N15970 X-1.0191 Y-3.0108
N15975 X-1.034 Y-3.0144
N15980 X-1.064 Y-3.0215
N15985 X-1.079 Y-3.025
N15990 X-1.094 Y-3.028
N15995 X-1.109 Y-3.0308
N16000 X-1.1539 Y-3.0389
N16005 X-1.1689 Y-3.0414
N16010 X-1.1839 Y-3.0435
N16015 X-1.2289 Y-3.0491
N16020 X-1.2439 Y-3.051
N16025 X-1.2588 Y-3.0526
N16030 X-1.2738 Y-3.0538
N16035 X-1.3188 Y-3.057
N16040 X-1.3338 Y-3.058
N16045 X-1.3488 Y-3.0587
N16050 X-1.3637 Y-3.0589
N16055 X-1.4087 Y-3.0597
N16060 X-1.4237 Y-3.0599
N16065 X-1.4387 Y-3.0596
N16070 X-1.4537 Y-3.059
N16075 X-1.4986 Y-3.0574
N16080 X-1.5136 Y-3.0566
N16085 X-1.5286 Y-3.0555
N16090 X-1.5736 Y-3.0514
N16095 X-1.5885 Y-3.0499
N16100 X-1.5995 Y-3.0489
N16105 X-1.6035 Y-3.0483
N16110 X-1.6185 Y-3.0462
N16115 X-1.6635 Y-3.0396
N16120 X-1.6785 Y-3.0374
N16125 X-1.6934 Y-3.0347
N16130 X-1.698 Y-3.0339
N16135 X-1.7534 Y-3.0227
N16140 X-1.7713 Y-3.0189
N16145 X-1.7834 Y-3.0159
N16150 X-1.7983 Y-3.012
N16155 X-1.8298 Y-3.0039
N16160 X-1.8433 Y-3.0004
N16165 X-1.8688 Y-2.9944
N16170 X-1.8944 Y-2.9888
N16175 X-1.9201 Y-2.9839
N16180 X-1.9459 Y-2.9796
N16185 X-1.9718 Y-2.9758
N16190 X-1.9978 Y-2.9725
N16195 X-2.0238 Y-2.9695
N16200 X-2.0499 Y-2.967
N16205 X-2.076 Y-2.9647
N16210 X-2.1021 Y-2.9627
N16215 X-2.1282 Y-2.9609
N16220 X-2.1543 Y-2.9594
N16225 X-2.1805 Y-2.958
N16230 X-2.2066 Y-2.9568
N16235 X-2.2328 Y-2.9557
N16240 X-2.259 Y-2.9548
N16245 X-2.2851 Y-2.9539
N16250 X-2.3113 Y-2.9532
N16255 X-2.3375 Y-2.9525
N16260 X-2.3637 Y-2.952
N16265 X-2.3898 Y-2.9515
N16270 X-2.416 Y-2.951
N16275 X-2.4422 Y-2.9506
N16280 X-2.4684 Y-2.9502
N16285 X-2.4946 Y-2.9499
N16290 X-2.5207 Y-2.9496
N16295 X-2.5469 Y-2.9494
N16300 X-2.5731 Y-2.9492
N16305 X-2.5993 Y-2.949
N16310 X-2.6255 Y-2.9488
N16315 X-2.6517 Y-2.9487
N16320 X-2.6778 Y-2.9485
N16325 X-2.704 Y-2.9484
N16330 X-2.7302 Y-2.9483
N16335 X-2.7564 Y-2.9482
N16340 X-2.8088 Y-2.9481
N16345 X-2.8611 Y-2.9479
N16350 X-2.9135 Y-2.9478
N16355 X-2.992 Y-2.9477
N16360 X-3.0706
N16365 X-3.1753 Y-2.9476
N16370 X-3.3324 Y-2.9475
N16375 X-3.3848
N16380 X-3.411 Y-2.9474
N16385 X-3.437 Y-2.9448
N16390 X-3.4627 Y-2.9394
N16395 X-3.4876 Y-2.9314
N16400 X-3.5116 Y-2.921
N16405 X-3.5345 Y-2.9083
N16410 X-3.5562 Y-2.8936
N16415 X-3.5766 Y-2.8772
N16420 X-3.5957 Y-2.8593
N16425 X-3.6135 Y-2.8401
N16430 X-3.63 Y-2.8197
N16435 X-3.6452 Y-2.7985
N16440 X-3.6593 Y-2.7764
N16445 X-3.6722 Y-2.7536
N16450 X-3.6841 Y-2.7303
N16455 X-3.6949 Y-2.7064
N16460 X-3.7048 Y-2.6822
N16465 X-3.7138 Y-2.6576
N16470 X-3.7221 Y-2.6327
N16475 X-3.7295 Y-2.6076
N16480 X-3.7363 Y-2.5824
N16485 X-3.7424 Y-2.5569
N16490 X-3.7479 Y-2.5313
N16495 X-3.753 Y-2.5056
N16500 X-3.7575 Y-2.4798
N16505 X-3.7616 Y-2.454
N16510 X-3.7652 Y-2.428
N16515 X-3.7686 Y-2.4021
N16520 X-3.7715 Y-2.376
N16525 X-3.7742 Y-2.35
N16530 X-3.7767 Y-2.3239
N16535 X-3.7788 Y-2.2978
N16540 X-3.7808 Y-2.2717
N16545 X-3.7825 Y-2.2456
N16550 X-3.7841 Y-2.2195
N16555 X-3.7855 Y-2.1933
N16560 X-3.7868 Y-2.1672
N16565 X-3.7879 Y-2.141
N16570 X-3.7889 Y-2.1148
N16575 X-3.7898 Y-2.0887
N16580 X-3.7906 Y-2.0625
N16585 X-3.7914 Y-2.0363
N16590 X-3.792 Y-2.0102
N16595 X-3.7926 Y-1.984
N16600 X-3.7931 Y-1.9578
N16605 X-3.7936 Y-1.9316
N16610 X-3.794 Y-1.9054
N16615 X-3.7944 Y-1.8793
N16620 X-3.7947 Y-1.8531
N16625 X-3.795 Y-1.8269
N16630 X-3.7953 Y-1.8007
N16635 X-3.7955 Y-1.7745
N16640 X-3.7957 Y-1.7483
N16645 X-3.7959 Y-1.7222
N16650 X-3.7961 Y-1.696
N16655 X-3.7962 Y-1.6698
N16660 X-3.7964 Y-1.6436
N16665 X-3.7965 Y-1.6174
N16670 X-3.7966 Y-1.5912
N16675 X-3.7967 Y-1.5651
N16680 X-3.7969 Y-1.5127
N16685 X-3.797 Y-1.4603
N16690 X-3.7971 Y-1.408
N16695 X-3.7972 Y-1.3294
N16700 X-3.7973 Y-1.2509
N16705 X-3.7974 Y-1.1461
N16710 Y-1.0152
N16715 X-3.7975 Y-0.8057
N16720 Y-0.701
N16725 Y-0.0988
N16730 Y1.2889
N16735 Y2.3625
N16740 X-3.7962 Y2.3886
N16745 X-3.7929 Y2.4146
N16750 X-3.7872 Y2.4401
N16755 X-3.7792 Y2.4651
N16760 X-3.7691 Y2.4892
N16765 X-3.7568 Y2.5124
N16770 X-3.7427 Y2.5344
N16775 X-3.7269 Y2.5553
N16780 X-3.7097 Y2.575
N16785 X-3.6911 Y2.5935
N16790 X-3.6714 Y2.6107
N16795 X-3.6508 Y2.6268
N16800 X-3.6292 Y2.6417
N16805 X-3.607 Y2.6555
N16810 X-3.5841 Y2.6682
N16815 X-3.5607 Y2.6799
N16820 X-3.5368 Y2.6907
N16825 X-3.5125 Y2.7005
N16830 X-3.488 Y2.7096
N16835 X-3.4631 Y2.7178
N16840 X-3.438 Y2.7254
N16845 X-3.4128 Y2.7322
N16850 X-3.3874 Y2.7385
N16855 X-3.3618 Y2.7442
N16860 X-3.3361 Y2.7494
N16865 X-3.3104 Y2.754
N16870 X-3.2845 Y2.7583
N16875 X-3.2586 Y2.7621
N16880 X-3.2327 Y2.7656
N16885 X-3.2067 Y2.7688
N16890 X-3.1807 Y2.7716
N16895 X-3.1546 Y2.7742
N16900 X-3.1285 Y2.7765
N16905 X-3.1024 Y2.7786
N16910 X-3.0763 Y2.7805
N16915 X-3.0502 Y2.7823
N16920 X-3.024 Y2.7838
N16925 X-2.9979 Y2.7852
N16930 X-2.9717 Y2.7864
N16935 X-2.9456 Y2.7876
N16940 X-2.9194 Y2.7886
N16945 X-2.8933 Y2.7895
N16950 X-2.8671 Y2.7903
N16955 X-2.8409 Y2.791
N16960 X-2.8147 Y2.7917
N16965 X-2.7886 Y2.7923
N16970 X-2.7624 Y2.7928
N16975 X-2.7362 Y2.7933
N16980 X-2.71 Y2.7937
N16985 X-2.6838 Y2.7941
N16990 X-2.6577 Y2.7945
N16995 X-2.6315 Y2.7948
N17000 X-2.6053 Y2.7951
N17005 X-2.5791 Y2.7953
N17010 X-2.5529 Y2.7956
N17015 X-2.5267 Y2.7958
N17020 X-2.5006 Y2.7959
N17025 X-2.4744 Y2.7961
N17030 X-2.4482 Y2.7962
N17035 X-2.422 Y2.7964
N17040 X-2.3958 Y2.7965
N17045 X-2.3696 Y2.7966
N17050 X-2.3173 Y2.7968
N17055 X-2.2649 Y2.7969
N17060 X-2.2125 Y2.797
N17065 X-2.134 Y2.7972
N17070 X-2.0554 Y2.7973
N17075 X-1.9507
N17080 X-1.8198 Y2.7974
N17085 X-1.6365 Y2.7975
N17090 X-1.3223
N17095 X-1.0867
N17100 X0.9033
N17105 X1.3484
N17110 X1.3746
N17115 X1.3835 Y2.7976
N17120 X1.3995 Y2.7987
N17125 X1.4152 Y2.8018
N17130 X1.4305 Y2.8067
N17135 X1.445 Y2.8136
N17140 X1.4585 Y2.8221
N17145 X1.4657 Y2.8273
N17150 X1.4686 Y2.8296
N17155 X1.485 Y2.8423
N17160 X1.5136 Y2.8647
N17165 X1.523 Y2.8723
N17170 X1.5286 Y2.8768
N17175 X1.5413 Y2.8872
N17180 X1.5885 Y2.9273
N17185 X1.5943 Y2.9322
N17190 X1.6035 Y2.9399
N17195 X1.6124 Y2.9472
N17200 X1.6185 Y2.9521
N17205 X1.6317 Y2.9622
N17210 X1.644 Y2.9772
N17215 X1.6469 Y2.9883
N17220 X1.6832 Y3.1271
N17225 G2 X1.7384 Y3.1913 I0.095 J-0.0258
N17230 G1 X1.817 Y3.217
N17235 X1.9332 Y3.2406
N17240 X2.0381 Y3.2447
N17245 X2.128 Y3.239
N17250 X2.158 Y3.2343
N17255 G2 X2.2329 Y3.1741 I-0.0163 J-0.0971
N17260 G1 X2.2779 Y3.064
N17265 G3 X2.3079 Y3.0298 I0.0586 J0.0211
N17270 G1 X2.3229 Y3.0227
N17275 X2.3239 Y3.0222
N17280 X2.3378 Y3.0148
N17285 X2.3528 Y3.0065
N17290 X2.3678 Y2.9976
N17295 X2.3767 Y2.9922
N17300 X2.3828 Y2.9883
N17305 X2.3978 Y2.9783
N17310 X2.4128 Y2.9678
N17315 X2.4205 Y2.9622
N17320 X2.4278 Y2.9568
N17325 X2.44 Y2.9472
N17330 X2.4428 Y2.945
N17335 X2.451 Y2.938
N17340 X2.4614 Y2.93
N17345 X2.4771 Y2.9189
N17350 X2.4965 Y2.9071
N17355 X2.5196 Y2.8949
N17360 X2.5435 Y2.8841
N17365 X2.5679 Y2.8746
N17370 X2.5927 Y2.8663
N17375 X2.6179 Y2.8588
N17380 X2.6432 Y2.8522
N17385 X2.6687 Y2.8464
N17390 X2.6944 Y2.8412
N17395 X2.7201 Y2.8365
N17400 X2.746 Y2.8324
N17405 X2.7719 Y2.8287
N17410 X2.7979 Y2.8254
N17415 X2.8239 Y2.8224
N17420 X2.85 Y2.8198
N17425 X2.876 Y2.8174
N17430 X2.9021 Y2.8153
N17435 X2.9282 Y2.8135
N17440 X2.9544 Y2.8118
N17445 X2.9805 Y2.8103
N17450 X3.0067 Y2.8089
N17455 X3.0328 Y2.8077
N17460 X3.059 Y2.8066
N17465 X3.0852 Y2.8057
N17470 X3.1113 Y2.8048
N17475 X3.1375 Y2.8041
N17480 X3.1637 Y2.8034
N17485 X3.1898 Y2.8027
N17490 X3.216 Y2.8022
N17495 X3.2422 Y2.8017
N17500 X3.2684 Y2.8013
N17505 X3.2946 Y2.8009
N17510 X3.3207 Y2.8005
N17515 X3.3469 Y2.8002
N17520 X3.3731 Y2.7996
N17525 X3.3992 Y2.7973
N17530 X3.425 Y2.7929
N17535 X3.4503 Y2.7861
N17540 X3.4749 Y2.7771
N17545 X3.4986 Y2.766
N17550 X3.5213 Y2.7529
N17555 X3.5428 Y2.7381
N17560 X3.5632 Y2.7217
N17565 X3.5824 Y2.7038
N17570 X3.6004 Y2.6848
N17575 X3.6171 Y2.6647
N17580 X3.6327 Y2.6436
N17585 X3.6472 Y2.6218
N17590 X3.6605 Y2.5993
N17595 X3.6728 Y2.5762
N17600 X3.6841 Y2.5525
N17605 X3.6945 Y2.5285
N17610 X3.7041 Y2.5041
N17615 X3.7128 Y2.4794
N17620 X3.7208 Y2.4545
N17625 X3.728 Y2.4293
N17630 X3.7346 Y2.404
N17635 X3.7407 Y2.3785
N17640 X3.7462 Y2.3529
N17645 X3.7511 Y2.3272
N17650 X3.7557 Y2.3014
N17655 X3.7597 Y2.2756
N17660 X3.7635 Y2.2497
N17665 X3.7668 Y2.2237
N17670 X3.7699 Y2.1977
N17675 X3.7726 Y2.1716
N17680 X3.7751 Y2.1456
N17685 X3.7773 Y2.1195
N17690 X3.7794 Y2.0934
N17695 X3.7812 Y2.0673
N17700 X3.7828 Y2.0411
N17705 X3.7843 Y2.015
N17710 X3.7856 Y1.9888
N17715 X3.7868 Y1.9627
N17720 X3.7879 Y1.9365
N17725 X3.7889 Y1.9104
N17730 X3.7898 Y1.8842
N17735 X3.7906 Y1.858
N17740 X3.7913 Y1.8318
N17745 X3.7919 Y1.8057
N17750 X3.7925 Y1.7795
N17755 X3.793 Y1.7533
N17760 X3.7935 Y1.7271
N17765 X3.7939 Y1.701
N17770 X3.7943 Y1.6748
N17775 X3.7946 Y1.6486
N17780 X3.7949 Y1.6224
N17785 X3.7952 Y1.5962
N17790 X3.7954 Y1.57
N17795 X3.7956 Y1.5439
N17800 X3.7958 Y1.5177
N17805 X3.796 Y1.4915
N17810 X3.7962 Y1.4653
N17815 X3.7963 Y1.4391
N17820 X3.7964 Y1.4129
N17825 X3.7965 Y1.3868
N17830 X3.7966 Y1.3606
N17835 X3.7968 Y1.3082
N17840 X3.7969 Y1.2558
N17845 X3.7971 Y1.2035
N17850 X3.7972 Y1.1249
N17855 X3.7973 Y1.0464
N17860 X3.7974 Y0.9416
N17865 Y0.8107
N17870 X3.7975 Y0.6274
N17875 Y0.3132
N17880 Y-0.0533
N17885 Y-2.0433
N17890 Y-2.3575
N17895 X3.7966 Y-2.3837
N17900 X3.7936 Y-2.4097
N17905 X3.7884 Y-2.4353
N17910 X3.7808 Y-2.4604
N17915 X3.771 Y-2.4847
N17920 X3.7591 Y-2.508
N17925 X3.7454 Y-2.5303
N17930 X3.7299 Y-2.5514
N17935 X3.7129 Y-2.5713
N17940 X3.6946 Y-2.59
N17945 X3.6751 Y-2.6075
N17950 X3.6546 Y-2.6238
N17955 X3.6332 Y-2.6389
N17960 X3.6111 Y-2.6529
N17965 X3.5883 Y-2.6658
N17970 X3.565 Y-2.6777
N17975 X3.5412 Y-2.6887
N17980 X3.517 Y-2.6987
N17985 X3.4925 Y-2.7079
N17990 X3.4677 Y-2.7163
N17995 X3.4427 Y-2.7239
N18000 X3.4174 Y-2.7309
N18005 X3.392 Y-2.7373
N18010 X3.3665 Y-2.7431
N18015 X3.3408 Y-2.7484
N18020 X3.3151 Y-2.7531
N18025 X3.2893 Y-2.7575
N18030 X3.2634 Y-2.7614
N18035 X3.2374 Y-2.765
N18040 X3.2115 Y-2.7682
N18045 X3.1854 Y-2.7711
N18050 X3.1594 Y-2.7737
N18055 X3.1333 Y-2.7761
N18060 X3.1072 Y-2.7782
N18065 X3.0811 Y-2.7802
N18070 X3.055 Y-2.7819
N18075 X3.0288 Y-2.7835
N18080 X3.0027 Y-2.7849
N18085 X2.9765 Y-2.7862
N18090 X2.9504 Y-2.7873
N18095 X2.9242 Y-2.7884
N18100 X2.8981 Y-2.7893
N18105 X2.8719 Y-2.7901
N18110 X2.8457 Y-2.7909
N18115 X2.8195 Y-2.7916
N18120 X2.7934 Y-2.7922
N18125 X2.7672 Y-2.7927
N18130 X2.741 Y-2.7932
N18135 X2.7148 Y-2.7937
N18140 X2.6886 Y-2.7941
N18145 X2.6625 Y-2.7944
N18150 X2.6363 Y-2.7947
N18155 X2.6101 Y-2.795
N18160 X2.5839 Y-2.7953
N18165 X2.5577 Y-2.7955
N18170 X2.5316 Y-2.7957
N18175 X2.5054 Y-2.7959
N18180 X2.4792 Y-2.7961
N18185 X2.453 Y-2.7962
N18190 X2.4268 Y-2.7964
N18195 X2.4006 Y-2.7965
N18200 X2.3745 Y-2.7966
N18205 X2.3483 Y-2.7967
N18210 X2.3221 Y-2.7968
N18215 X2.2697 Y-2.7969
N18220 X2.2174 Y-2.797
N18225 X2.165 Y-2.7971
N18230 X2.0864 Y-2.7972
N18235 X2.0079 Y-2.7973
N18240 X1.9032 Y-2.7974
N18245 X1.7722
N18250 X1.5628 Y-2.7975
N18255 X1.17
N18260 X0.3321
N18265 X-0.4965
N18270 X-0.5144 Y-2.7987
N18275 X-0.532 Y-2.8025
N18280 X-0.549 Y-2.8086
N18285 X-0.5649 Y-2.817
N18290 X-0.6004 Y-2.839
N18295 X-0.6144 Y-2.847
N18300 X-0.6271 Y-2.854
N18305 X-0.6594 Y-2.8717
N18310 X-0.6744 Y-2.8799
N18315 X-0.6823 Y-2.884
N18320 X-0.6894 Y-2.8875
N18325 X-0.7044 Y-2.8948
N18330 X-0.7493 Y-2.9163
N18335 X-0.7643 Y-2.923
N18340 X-0.7782 Y-2.9289
N18345 X-0.8242 Y-2.948
N18350 G3 X-0.8533 Y-2.9887 I0.0208 J-0.0455
N18355 X-0.7751 Y-3.0712 I0.075 J-0.0073
N18360 X-0.587 Y-2.8618 I-0.0083 J0.1967
N18365 G2 X-0.5649 Y-2.817 I0.0499 J0.0032
N18370 G1 X-0.552 Y-2.809 F35.433
N18375 X-0.5395 Y-2.8012
N18380 X-0.5285 Y-2.794
N18385 X-0.5245 Y-2.7913
N18390 X-0.4945 Y-2.7704
N18395 X-0.4869 Y-2.7657
N18400 X-0.4745 Y-2.7587
N18405 X-0.459 Y-2.751
N18410 X-0.4397 Y-2.7428
N18415 X-0.4155 Y-2.7339
N18420 X-0.3904 Y-2.7263
N18425 X-0.365 Y-2.7198
N18430 X-0.3395 Y-2.7143
N18435 X-0.3137 Y-2.7095
N18440 X-0.2879 Y-2.7054
N18445 X-0.2619 Y-2.7018
N18450 X-0.2359 Y-2.6987
N18455 X-0.2099 Y-2.696
N18460 X-0.1838 Y-2.6937
N18465 X-0.1577 Y-2.6917
N18470 X-0.1316 Y-2.6899
N18475 X-0.1054 Y-2.6883
N18480 X-0.0793 Y-2.687
N18485 X-0.0531 Y-2.6858
N18490 X-0.027 Y-2.6848
N18495 X-0.0008 Y-2.6839
N18500 X0.0254 Y-2.6831
N18505 X0.0516 Y-2.6824
N18510 X0.0777 Y-2.6818
N18515 X0.1039 Y-2.6813
N18520 X0.1301 Y-2.6808
N18525 X0.1563 Y-2.6804
N18530 X0.1825 Y-2.68
N18535 X0.2086 Y-2.6797
N18540 X0.2348 Y-2.6795
N18545 X0.261 Y-2.6792
N18550 X0.2872 Y-2.679
N18555 X0.3134 Y-2.6788
N18560 X0.3395 Y-2.6787
N18565 X0.3657 Y-2.6785
N18570 X0.3919 Y-2.6784
N18575 X0.4181 Y-2.6783
N18580 X0.4443 Y-2.6782
N18585 X0.4705 Y-2.6781
N18590 X0.5228 Y-2.678
N18595 X0.5752 Y-2.6779
N18600 X0.6276 Y-2.6778
N18605 X0.7061 Y-2.6777
N18610 X0.8108 Y-2.6776
N18615 X0.9418
N18620 X1.1512 Y-2.6775
N18625 X1.4654
N18630 X1.7011 Y-2.6774
N18635 X1.832
N18640 X1.9367 Y-2.6773
N18645 X2.0153
N18650 X2.0938 Y-2.6772
N18655 X2.1462 Y-2.6771
N18660 X2.1986 Y-2.677
N18665 X2.2509 Y-2.6768
N18670 X2.3033 Y-2.6767
N18675 X2.3295 Y-2.6766
N18680 X2.3557 Y-2.6765
N18685 X2.3819 Y-2.6763
N18690 X2.408 Y-2.6762
N18695 X2.4342 Y-2.676
N18700 X2.4604 Y-2.6759
N18705 X2.4866 Y-2.6757
N18710 X2.5128 Y-2.6755
N18715 X2.539 Y-2.6752
N18720 X2.5651 Y-2.675
N18725 X2.5913 Y-2.6747
N18730 X2.6175 Y-2.6743
N18735 X2.6437 Y-2.674
N18740 X2.6699 Y-2.6736
N18745 X2.696 Y-2.6731
N18750 X2.7222 Y-2.6726
N18755 X2.7484 Y-2.6721
N18760 X2.7746 Y-2.6714
N18765 X2.8007 Y-2.6707
N18770 X2.8269 Y-2.6699
N18775 X2.8531 Y-2.6691
N18780 X2.8793 Y-2.6681
N18785 X2.9054 Y-2.667
N18790 X2.9316 Y-2.6658
N18795 X2.9577 Y-2.6645
N18800 X2.9839 Y-2.663
N18805 X3.01 Y-2.6613
N18810 X3.0361 Y-2.6595
N18815 X3.0622 Y-2.6574
N18820 X3.0883 Y-2.6552
N18825 X3.1144 Y-2.6526
N18830 X3.1404 Y-2.6498
N18835 X3.1664 Y-2.6466
N18840 X3.1923 Y-2.643
N18845 X3.2182 Y-2.6391
N18850 X3.244 Y-2.6347
N18855 X3.2697 Y-2.6298
N18860 X3.2953 Y-2.6243
N18865 X3.3208 Y-2.6182
N18870 X3.3461 Y-2.6113
N18875 X3.3711 Y-2.6036
N18880 X3.3958 Y-2.5949
N18885 X3.4201 Y-2.5851
N18890 X3.4437 Y-2.5739
N18895 X3.4665 Y-2.561
N18900 X3.4879 Y-2.5459
N18905 X3.5076 Y-2.5286
N18910 X3.5257 Y-2.5097
N18915 X3.5422 Y-2.4893
N18920 X3.5571 Y-2.4679
N18925 X3.5707 Y-2.4455
N18930 X3.5829 Y-2.4223
N18935 X3.5938 Y-2.3985
N18940 X3.6036 Y-2.3742
N18945 X3.6124 Y-2.3496
N18950 X3.6202 Y-2.3246
N18955 X3.6271 Y-2.2993
N18960 X3.6332 Y-2.2739
N18965 X3.6387 Y-2.2482
N18970 X3.6435 Y-2.2225
N18975 X3.6477 Y-2.1967
N18980 X3.6514 Y-2.1707
N18985 X3.6547 Y-2.1448
N18990 X3.6576 Y-2.1187
N18995 X3.6601 Y-2.0927
N19000 X3.6623 Y-2.0666
N19005 X3.6642 Y-2.0405
N19010 X3.6659 Y-2.0143
N19015 X3.6674 Y-1.9882
N19020 X3.6687 Y-1.9621
N19025 X3.6698 Y-1.9359
N19030 X3.6708 Y-1.9097
N19035 X3.6717 Y-1.8836
N19040 X3.6724 Y-1.8574
N19045 X3.6731 Y-1.8312
N19050 X3.6736 Y-1.805
N19055 X3.6741 Y-1.7789
N19060 X3.6746 Y-1.7527
N19065 X3.6749 Y-1.7265
N19070 X3.6753 Y-1.7003
N19075 X3.6756 Y-1.6741
N19080 X3.6758 Y-1.6479
N19085 X3.676 Y-1.6218
N19090 X3.6762 Y-1.5956
N19095 X3.6764 Y-1.5694
N19100 X3.6765 Y-1.5432
N19105 X3.6767 Y-1.517
N19110 X3.6768 Y-1.4909
N19115 X3.6769 Y-1.4647
N19120 Y-1.4385
N19125 X3.6771 Y-1.3861
N19130 X3.6772 Y-1.3338
N19135 X3.6773 Y-1.2814
N19140 Y-1.2028
N19145 X3.6774 Y-1.0981
N19150 X3.6775 Y-0.9672
N19155 Y-0.7315
N19160 Y-0.653
N19165 Y0.1063
N19170 Y0.4991
N19175 X3.6774 Y0.7086
N19180 Y0.8395
N19185 X3.6773 Y0.9442
N19190 X3.6772 Y1.0228
N19195 X3.6771 Y1.1013
N19200 Y1.1537
N19205 X3.6769 Y1.2061
N19210 X3.6768 Y1.2584
N19215 X3.6766 Y1.3108
N19220 X3.6765 Y1.337
N19225 X3.6764 Y1.3632
N19230 X3.6763 Y1.3893
N19235 X3.6762 Y1.4155
N19240 X3.676 Y1.4417
N19245 X3.6758 Y1.4679
N19250 X3.6756 Y1.4941
N19255 X3.6754 Y1.5203
N19260 X3.6752 Y1.5464
N19265 X3.6749 Y1.5726
N19270 X3.6746 Y1.5988
N19275 X3.6743 Y1.625
N19280 X3.6739 Y1.6512
N19285 X3.6735 Y1.6773
N19290 X3.673 Y1.7035
N19295 X3.6725 Y1.7297
N19300 X3.6719 Y1.7559
N19305 X3.6713 Y1.7821
N19310 X3.6705 Y1.8082
N19315 X3.6697 Y1.8344
N19320 X3.6688 Y1.8606
N19325 X3.6678 Y1.8867
N19330 X3.6667 Y1.9129
N19335 X3.6655 Y1.939
N19340 X3.6641 Y1.9652
N19345 X3.6626 Y1.9913
N19350 X3.6609 Y2.0175
N19355 X3.659 Y2.0436
N19360 X3.6569 Y2.0697
N19365 X3.6545 Y2.0957
N19370 X3.6519 Y2.1218
N19375 X3.649 Y2.1478
N19380 X3.6457 Y2.1738
N19385 X3.6421 Y2.1997
N19390 X3.6381 Y2.2256
N19395 X3.6336 Y2.2514
N19400 X3.6285 Y2.2771
N19405 X3.6229 Y2.3027
N19410 X3.6166 Y2.3281
N19415 X3.6095 Y2.3533
N19420 X3.6016 Y2.3782
N19425 X3.5927 Y2.4029
N19430 X3.5826 Y2.427
N19435 X3.5711 Y2.4505
N19440 X3.5578 Y2.4731
N19445 X3.5422 Y2.4941
N19450 X3.5247 Y2.5136
N19455 X3.5055 Y2.5314
N19460 X3.485 Y2.5477
N19465 X3.4634 Y2.5625
N19470 X3.441 Y2.576
N19475 X3.4178 Y2.5881
N19480 X3.394 Y2.5991
N19485 X3.3697 Y2.6089
N19490 X3.3451 Y2.6178
N19495 X3.3201 Y2.6258
N19500 X3.295 Y2.6329
N19505 X3.2696 Y2.6394
N19510 X3.244 Y2.6452
N19515 X3.2184 Y2.6504
N19520 X3.1926 Y2.6552
N19525 X3.1668 Y2.6595
N19530 X3.1409 Y2.6635
N19535 X3.115 Y2.6672
N19540 X3.0891 Y2.6707
N19545 X3.0631 Y2.674
N19550 X3.0371 Y2.6771
N19555 X3.0111 Y2.6801
N19560 X2.9591 Y2.6861
N19565 X2.9331 Y2.6892
N19570 X2.9071 Y2.6923
N19575 X2.8811 Y2.6956
N19580 X2.8551 Y2.699
N19585 X2.8292 Y2.7026
N19590 X2.8033 Y2.7066
N19595 X2.7775 Y2.7108
N19600 X2.7517 Y2.7153
N19605 X2.726 Y2.7202
N19610 X2.7003 Y2.7256
N19615 X2.6748 Y2.7315
N19620 X2.6569 Y2.7361
N19625 X2.6383 Y2.7424
N19630 X2.6208 Y2.7515
N19635 X2.6049 Y2.763
N19640 X2.5909 Y2.7769
N19645 X2.5792 Y2.7927
N19650 X2.5763 Y2.7973
N19655 X2.566 Y2.8123
N19660 X2.5626 Y2.817
N19665 X2.5552 Y2.8273
N19670 X2.5477 Y2.8371
N19675 X2.5436 Y2.8423
N19680 X2.5327 Y2.8561
N19685 X2.5185 Y2.8723
N19690 X2.5177 Y2.8732
N19695 X2.5027 Y2.8895
N19700 X2.4901 Y2.9022
N19705 X2.4877 Y2.9047
N19710 X2.4744 Y2.9172
N19715 X2.4727 Y2.9188
N19720 X2.4577 Y2.9322
N19725 X2.451 Y2.938
N19730 G2 X2.4359 Y2.9856 I0.0338 J0.0369 F39.37
N19735 X2.4786 Y3.0193 I0.0419 J-0.0092
N19740 X2.579 Y2.8426 I-0.0022 J-0.1181
N19745 G3 X2.5792 Y2.7927 I0.0434 J-0.0248
