%
(1001)
(T2 D=0.3937 CR=0. TAPER=118DEG - ZMIN=-1.9427 - DRILL)
(T3 D=0.315 CR=0. TAPER=118DEG - ZMIN=-1.919 - DRILL)
(T4 D=0.2362 CR=0. TAPER=118DEG - ZMIN=-1.8675 - DRILL)
(T131 D=0.5 CR=0. TAPER=45DEG - ZMIN=-0.4202 - CHAMFER MILL)
(T133 D=0.5 CR=0.02 - ZMIN=-1.6643 - BULLNOSE END MILL)
(T134 D=0.5 CR=0. - ZMIN=-0.7212 - FLAT END MILL)
(T135 D=0.5 CR=0. - ZMIN=-1.6744 - FLAT END MILL)
(T137 D=0.5 CR=0.25 - ZMIN=-0.5888 - BALL END MILL)
(T171 D=2. CR=0. - ZMIN=-0.2817 - FACE MILL)
N10 G90 G94 G17 G91.1 G64 P0.001
N15 G20
N20 G53 G0 Z0.

(2D CONTOUR - OUTER FINISH)
N99860 M9
N99865 M5
N99870 (M0)
(PAUSE PROGRAM FOR TOOL CHANGE)
N99875 (T135 M6)
(FLAT END MILL D=0.5 12 EM LONG)
N99880 S1200 M3
N99885 G54
N99890 M8
N99895 G0 X1.8148 Y3.2356
N99900 Z0.5906
N99905 G0 Z0.1969
N99910 G1 Z0.05 F12.
N99915 Z-1.6244
N99920 X1.8149 Y3.2353 Z-1.63 F60.
N99925 X1.8151 Y3.2344 Z-1.6355
N99930 X1.8154 Y3.2328 Z-1.6409
N99935 X1.8158 Y3.2307 Z-1.6461
N99940 X1.8164 Y3.2281 Z-1.651
N99945 X1.8171 Y3.2249 Z-1.6556
N99950 X1.8178 Y3.2213 Z-1.6598
N99955 X1.8187 Y3.2172 Z-1.6635
N99960 X1.8196 Y3.2127 Z-1.6667
N99965 X1.8206 Y3.2079 Z-1.6695
N99970 X1.8217 Y3.2028 Z-1.6716
N99975 X1.8228 Y3.1975 Z-1.6732
N99980 X1.824 Y3.1921 Z-1.6741
N99985 X1.8251 Y3.1867 Z-1.6744
N99990 X1.8413 Y3.1096
N99995 G3 X1.9005 Y3.0709 I0.0489 J0.0103
N10 G2 X1.912 Y3.0731 I0.0513 J-0.2447 F108.
N15 G1 X1.9348 Y3.0767
N20 G2 X1.9495 Y3.0787 I0.0398 J-0.2468
N25 G1 X1.9722 Y3.081
N30 G2 X1.987 Y3.082 I0.0251 J-0.2487
N35 G1 X2.0101 Y3.083
N40 G2 X2.0246 Y3.0831 I0.0103 J-0.2498
N45 G1 X2.048 Y3.0828
N50 G2 X2.0625 Y3.0821 I-0.0042 J-0.25
N55 G1 X2.0861 Y3.0803
N60 G2 X2.1005 Y3.0788 I-0.0187 J-0.2493
N65 G1 X2.1241 Y3.0757
N70 G2 X2.1386 Y3.0733 I-0.0331 J-0.2478
N75 G1 X2.1621 Y3.0688
N80 G2 X2.1768 Y3.0654 I-0.0475 J-0.2454
N85 G1 X2.2001 Y3.0595
N90 G2 X2.215 Y3.0551 I-0.0622 J-0.2421
N95 G1 X2.2379 Y3.0477
N100 G2 X2.2524 Y3.0425 I-0.0771 J-0.2378
N105 G1 X2.2748 Y3.0337
N110 G2 X2.2886 Y3.0277 I-0.0917 J-0.2326
N115 G1 X2.3103 Y3.0176
N120 G2 X2.3234 Y3.011 I-0.1055 J-0.2266
N125 G1 X2.3444 Y2.9997
N130 G2 X2.357 Y2.9925 I-0.1186 J-0.2201
N135 G1 X2.3771 Y2.9801
N140 G2 X2.3892 Y2.9721 I-0.1312 J-0.2128
N145 G1 X2.4084 Y2.9587
N150 G2 X2.4201 Y2.95 I-0.1432 J-0.2049
N155 G1 X2.4382 Y2.9357
N160 G2 X2.4496 Y2.9262 I-0.1549 J-0.1962
N165 G1 X2.4667 Y2.911
N170 G2 X2.4774 Y2.9008 I-0.1663 J-0.1866
N175 G1 X2.4938 Y2.8844
N180 G2 X2.5037 Y2.8738 I-0.1771 J-0.1764
N185 G1 X2.5193 Y2.8562
N190 G2 X2.5286 Y2.8451 I-0.1871 J-0.1658
N195 G1 X2.5432 Y2.8265
N200 G2 X2.5519 Y2.8149 I-0.1964 J-0.1547
N205 G1 X2.5655 Y2.7953
N210 G2 X2.5736 Y2.783 I-0.205 J-0.1431
N215 G1 X2.5861 Y2.7626
N220 G2 X2.5937 Y2.7495 I-0.213 J-0.1308
N225 G1 X2.605 Y2.7283
N230 G2 X2.6118 Y2.7144 I-0.2205 J-0.1177
N235 G1 X2.6218 Y2.6926
N240 X2.6249 Y2.6856
N245 X2.656 Y2.6117
N250 X2.6868 Y2.5383
N255 X2.7174 Y2.4656
N260 X2.7478 Y2.3935
N265 X2.7779 Y2.3219
N270 X2.8078 Y2.2509
N275 X2.8374 Y2.1804
N280 X2.8669 Y2.1103
N285 X2.8962 Y2.0408
N290 X2.9253 Y1.9716
N295 X2.9542 Y1.9029
N300 X2.983 Y1.8345
N305 X3.04 Y1.6989
N310 X3.0966 Y1.5646
N315 X3.0989 Y1.5588
N320 X3.1068 Y1.5386
N325 G2 X3.1105 Y1.5285 I-0.2328 J-0.0911
N330 G1 X3.1176 Y1.5079
N335 G2 X3.1209 Y1.4974 I-0.2365 J-0.0811
N340 G1 X3.1271 Y1.4765
N345 G2 X3.1301 Y1.4655 I-0.2398 J-0.0706
N350 G1 X3.1353 Y1.4442
N355 G2 X3.1378 Y1.4328 I-0.2428 J-0.0595
N360 G1 X3.142 Y1.4113
N365 G2 X3.144 Y1.3997 I-0.2453 J-0.0481
N370 G1 X3.1472 Y1.3781
N375 G2 X3.1486 Y1.3668 I-0.2473 J-0.0365
N380 G1 X3.1508 Y1.3451
N385 G2 X3.1516 Y1.3339 I-0.2487 J-0.0252
N390 G1 X3.1529 Y1.3122
N395 G2 X3.1532 Y1.3012 I-0.2496 J-0.0139
N400 G1 X3.1535 Y1.2796
N405 G2 X3.1534 Y1.2686 I-0.25 J-0.0029
N410 G1 X3.1527 Y1.2471
N415 G2 X3.1521 Y1.2362 I-0.2499 J0.0081
N420 G1 X3.1505 Y1.2149
N425 G2 X3.1494 Y1.204 I-0.2493 J0.019
N430 G1 X3.1469 Y1.183
N435 G2 X3.1453 Y1.1721 I-0.2482 J0.0298
N440 G1 X3.1419 Y1.1514
N445 G2 X3.1398 Y1.1403 I-0.2467 J0.0408
N450 G1 X3.1355 Y1.12
N455 G2 X3.1329 Y1.109 I-0.2446 J0.0519
N460 G1 X3.1276 Y1.0888
N465 G2 X3.1246 Y1.0781 I-0.242 J0.0629
N470 G1 X3.1184 Y1.058
N475 G2 X3.1149 Y1.0475 I-0.2389 J0.0736
N480 G1 X3.1078 Y1.0275
N485 G2 X3.1039 Y1.0173 I-0.2355 J0.084
N490 G1 X3.0958 Y0.9974
N495 G2 X3.0915 Y0.9874 I-0.2316 J0.0942
N500 G1 X3.0825 Y0.9678
N505 G2 X3.0777 Y0.9579 I-0.2273 J0.1042
N510 G1 X3.0678 Y0.9386
N515 G2 X3.0625 Y0.9288 I-0.2224 J0.1141
N520 G1 X3.0517 Y0.9099
N525 G2 X3.0458 Y0.9002 I-0.2171 J0.1239
N530 G1 X3.0342 Y0.8817
N535 G2 X3.0278 Y0.8721 I-0.2113 J0.1336
N540 G1 X3.0152 Y0.8542
N545 G2 X3.0082 Y0.8446 I-0.2048 J0.1433
N550 G1 X2.9949 Y0.8274
N555 G2 X2.9876 Y0.8184 I-0.1978 J0.1529
N560 G1 X2.9735 Y0.8017
N565 G2 X2.9659 Y0.7933 I-0.1905 J0.1619
N570 G1 X2.9511 Y0.7774
N575 G2 X2.9433 Y0.7694 I-0.183 J0.1704
N580 G1 X2.9279 Y0.7542
N585 G2 X2.9198 Y0.7466 I-0.1752 J0.1784
N590 G1 X2.9038 Y0.7322
N595 G2 X2.8955 Y0.7251 I-0.1672 J0.1859
N600 G1 X2.879 Y0.7115
N605 G2 X2.8704 Y0.7047 I-0.1589 J0.193
N610 G1 X2.8534 Y0.6919
N615 G2 X2.8445 Y0.6856 I-0.1503 J0.1998
N620 G1 X2.8271 Y0.6736
N625 G2 X2.8178 Y0.6676 I-0.1414 J0.2062
N630 G1 X2.8001 Y0.6565
N635 X2.7952 Y0.6535
N640 X2.7497 Y0.6267
N645 X2.7053 Y0.6004
N650 X2.6618 Y0.5747
N655 X2.6192 Y0.5496
N660 X2.5776 Y0.525
N665 X2.5369 Y0.5009
N670 X2.497 Y0.4774
N675 X2.4579 Y0.4543
N680 X2.4196 Y0.4317
N685 X2.3821 Y0.4095
N690 X2.3454 Y0.3878
N695 X2.3093 Y0.3665
N700 X2.274 Y0.3457
N705 X2.2394 Y0.3252
N710 X2.2055 Y0.3052
N715 X2.1722 Y0.2855
N720 X2.1395 Y0.2662
N725 X2.1074 Y0.2473
N730 X2.076 Y0.2287
N735 X2.0451 Y0.2104
N740 X2.0148 Y0.1925
N745 X1.985 Y0.1749
N750 X1.9557 Y0.1577
N755 X1.927 Y0.1407
N760 X1.8988 Y0.124
N765 X1.8711 Y0.1077
N770 X1.8438 Y0.0916
N775 X1.8171 Y0.0757
N780 X1.7908 Y0.0602
N785 X1.7649 Y0.0449
N790 X1.7394 Y0.0299
N795 X1.7144 Y0.0151
N800 X1.6898 Y0.0006
N805 X1.6656 Y-0.0137
N810 X1.6418 Y-0.0278
N815 X1.6183 Y-0.0417
N820 X1.5953 Y-0.0553
N825 X1.5726 Y-0.0687
N830 X1.5502 Y-0.0819
N835 X1.5282 Y-0.0949
N840 X1.4852 Y-0.1203
N845 X1.4435 Y-0.1449
N850 X1.4031 Y-0.1688
N855 X1.3638 Y-0.192
N860 X1.3257 Y-0.2145
N865 X1.2886 Y-0.2364
N870 X1.2526 Y-0.2577
N875 X1.2176 Y-0.2784
N880 X1.1836 Y-0.2985
N885 X1.1504 Y-0.3181
N890 X1.1182 Y-0.3371
N895 X1.0867 Y-0.3557
N900 X1.0561 Y-0.3737
N905 X1.0263 Y-0.3914
N910 X0.9972 Y-0.4085
N915 X0.9689 Y-0.4253
N920 X0.9412 Y-0.4416
N925 X0.9143 Y-0.4575
N930 X0.8879 Y-0.4731
N935 X0.8622 Y-0.4883
N940 X0.8371 Y-0.5031
N945 X0.8126 Y-0.5176
N950 X0.7886 Y-0.5318
N955 X0.7652 Y-0.5456
N960 X0.7423 Y-0.5591
N965 X0.7199 Y-0.5723
N970 X0.698 Y-0.5853
N975 X0.6766 Y-0.5979
N980 X0.6557 Y-0.6103
N985 X0.6351 Y-0.6224
N990 X0.615 Y-0.6343
N995 X0.5954 Y-0.6459
N1000 X0.5761 Y-0.6573
N1005 X0.5572 Y-0.6685
N1010 X0.5387 Y-0.6794
N1015 X0.5206 Y-0.6901
N1020 X0.5028 Y-0.7006
N1025 X0.4854 Y-0.7109
N1030 X0.4516 Y-0.7309
N1035 X0.419 Y-0.7501
N1040 X0.3898 Y-0.7674
N1045 X0.3738 Y-0.7773
N1050 X0.3595 Y-0.7868
N1055 X0.3453 Y-0.7971
N1060 X0.3314 Y-0.8079
N1065 X0.3178 Y-0.8192
N1070 X0.3047 Y-0.831
N1075 X0.2923 Y-0.8431
N1080 X0.2804 Y-0.8557
N1085 X0.2688 Y-0.8688
N1090 X0.2577 Y-0.8825
N1095 X0.247 Y-0.8966
N1100 X0.2369 Y-0.911
N1105 X0.2275 Y-0.9256
N1110 X0.2188 Y-0.9402
N1115 X0.2108 Y-0.9546
N1120 X0.2036 Y-0.969
N1125 X0.1968 Y-0.9839
N1130 X0.1902 Y-0.9996
N1135 X0.1842 Y-1.0159
N1140 X0.1786 Y-1.0326
N1145 X0.1736 Y-1.0495
N1150 X0.1693 Y-1.0667
N1155 X0.1656 Y-1.0838
N1160 X0.1626 Y-1.1009
N1165 X0.1603 Y-1.1181
N1170 X0.1586 Y-1.1357
N1175 X0.1576 Y-1.1533
N1180 X0.1572 Y-1.171
N1185 X0.1574 Y-1.1885
N1190 X0.1583 Y-1.2057
N1195 X0.1597 Y-1.2224
N1200 X0.162 Y-1.2408
N1205 G2 X-1.2996 Y-3.0461 I-1.5733 J-0.2205
N1210 X-3. Y-1.4613 I-0.1117 J1.5848
N1215 G1 Y-1.3482
N1220 Y-0.9343
N1225 Y0.0131
N1230 Y1.8539
N1235 Y1.8573
N1240 X-2.9998 Y1.8734
N1245 X-2.9996 Y1.8801
N1250 X-2.9989 Y1.8962
N1255 X-2.9986 Y1.903
N1260 X-2.9975 Y1.9191
N1265 X-2.9969 Y1.9258
N1270 X-2.9954 Y1.9418
N1275 X-2.9947 Y1.9484
N1280 X-2.9928 Y1.9644
N1285 X-2.9919 Y1.9711
N1290 X-2.9895 Y1.987
N1295 X-2.9884 Y1.9935
N1300 X-2.9856 Y2.0093
N1305 X-2.9844 Y2.0159
N1310 X-2.9812 Y2.0316
N1315 X-2.9798 Y2.0381
N1320 X-2.9761 Y2.0537
N1325 X-2.9745 Y2.0602
N1330 X-2.9705 Y2.0757
N1335 X-2.9687 Y2.0822
N1340 X-2.9643 Y2.0975
N1345 X-2.9624 Y2.1038
N1350 X-2.9576 Y2.1189
N1355 X-2.9555 Y2.1252
N1360 X-2.9503 Y2.1401
N1365 X-2.9481 Y2.1462
N1370 X-2.9425 Y2.1609
N1375 X-2.9402 Y2.167
N1380 X-2.9343 Y2.1815
N1385 X-2.9317 Y2.1875
N1390 X-2.9255 Y2.2017
N1395 X-2.9228 Y2.2076
N1400 X-2.9163 Y2.2216
N1405 X-2.9135 Y2.2274
N1410 X-2.9066 Y2.2412
N1415 X-2.9036 Y2.2469
N1420 X-2.8964 Y2.2605
N1425 X-2.8932 Y2.2662
N1430 X-2.8856 Y2.2796
N1435 X-2.8824 Y2.2852
N1440 X-2.8743 Y2.2985
N1445 X-2.8709 Y2.3041
N1450 X-2.8625 Y2.3173
N1455 X-2.8589 Y2.3227
N1460 X-2.8501 Y2.3357
N1465 X-2.8464 Y2.3411
N1470 X-2.8372 Y2.3539
N1475 X-2.8333 Y2.3592
N1480 X-2.8238 Y2.3719
N1485 X-2.8196 Y2.3772
N1490 X-2.8097 Y2.3896
N1495 X-2.8055 Y2.3948
N1500 X-2.7952 Y2.407
N1505 X-2.7908 Y2.4121
N1510 X-2.7801 Y2.4241
N1515 X-2.7756 Y2.429
N1520 X-2.7647 Y2.4407
N1525 X-2.7601 Y2.4455
N1530 X-2.7487 Y2.457
N1535 X-2.744 Y2.4617
N1540 X-2.7323 Y2.4728
N1545 X-2.7274 Y2.4774
N1550 X-2.7155 Y2.4882
N1555 X-2.7105 Y2.4926
N1560 X-2.6983 Y2.5031
N1565 X-2.6931 Y2.5075
N1570 X-2.6806 Y2.5177
N1575 X-2.6752 Y2.5219
N1580 X-2.6625 Y2.5317
N1585 X-2.6571 Y2.5358
N1590 X-2.644 Y2.5453
N1595 X-2.6385 Y2.5492
N1600 X-2.6252 Y2.5583
N1605 X-2.6196 Y2.5621
N1610 X-2.6061 Y2.5708
N1615 X-2.6004 Y2.5744
N1620 X-2.5867 Y2.5828
N1625 X-2.5809 Y2.5862
N1630 X-2.567 Y2.5942
N1635 X-2.5612 Y2.5974
N1640 X-2.5471 Y2.6051
N1645 X-2.5411 Y2.6082
N1650 X-2.5268 Y2.6154
N1655 X-2.5208 Y2.6184
N1660 X-2.5064 Y2.6252
N1665 X-2.5002 Y2.628
N1670 X-2.4856 Y2.6344
N1675 X-2.4795 Y2.637
N1680 X-2.4648 Y2.643
N1685 X-2.4587 Y2.6454
N1690 X-2.4439 Y2.651
N1695 X-2.4378 Y2.6533
N1700 X-2.4229 Y2.6585
N1705 X-2.4167 Y2.6605
N1710 X-2.4018 Y2.6653
N1715 X-2.3956 Y2.6672
N1720 X-2.3806 Y2.6716
N1725 X-2.3744 Y2.6733
N1730 X-2.3594 Y2.6772
N1735 X-2.3532 Y2.6788
N1740 X-2.3382 Y2.6823
N1745 X-2.3318 Y2.6837
N1750 X-2.3168 Y2.6869
N1755 X-2.3104 Y2.6881
N1760 X-2.2952 Y2.6909
N1765 X-2.2888 Y2.692
N1770 X-2.2734 Y2.6944
N1775 X-2.267 Y2.6953
N1780 X-2.2515 Y2.6973
N1785 X-2.2449 Y2.698
N1790 X-2.2293 Y2.6996
N1795 X-2.2228 Y2.7002
N1800 X-2.207 Y2.7014
N1805 X-2.2004 Y2.7018
N1810 X-2.1846 Y2.7026
N1815 X-2.1779 Y2.7029
N1820 X-2.162 Y2.7032
N1825 X-2.1553 Y2.7033
N1830 X-2.1393 Y2.7032
N1835 X-2.1326 Y2.7031
N1840 X-2.1166 Y2.7026
N1845 X-2.1099 Y2.7023
N1850 X-2.0938 Y2.7014
N1855 X-2.0872 Y2.7009
N1860 X-2.0712 Y2.6996
N1865 X-2.0646 Y2.6989
N1870 X-2.0486 Y2.6972
N1875 X-2.0452 Y2.6967
N1880 X-1.9774 Y2.6883
N1885 X-1.9101 Y2.6799
N1890 X-1.8433 Y2.6715
N1895 X-1.7769 Y2.6632
N1900 X-1.6451 Y2.6467
N1905 X-1.5147 Y2.6304
N1910 X-1.3853 Y2.6142
N1915 X-1.2568 Y2.5981
N1920 X-1.0013 Y2.5662
N1925 X-0.7464 Y2.5343
N1930 X-0.6186 Y2.5183
N1935 X-0.4904 Y2.5023
N1940 X-0.3614 Y2.4861
N1945 X-0.2315 Y2.4699
N1950 X-0.1004 Y2.4535
N1955 X0.0313 Y2.437
N1960 X0.0584 Y2.4338
N1965 X0.0848 Y2.431
N1970 X0.1114 Y2.4286
N1975 X0.138 Y2.4265
N1980 X0.1647 Y2.4248
N1985 X0.1914 Y2.4235
N1990 X0.2182 Y2.4225
N1995 X0.2451 Y2.4218
N2000 X0.2719 Y2.4215
N2005 X0.2987 Y2.4216
N2010 X0.3255 Y2.4221
N2015 X0.3523 Y2.4229
N2020 X0.3792 Y2.4241
N2025 X0.4059 Y2.4256
N2030 X0.4327 Y2.4275
N2035 X0.4594 Y2.4298
N2040 X0.486 Y2.4324
N2045 X0.5125 Y2.4353
N2050 X0.539 Y2.4386
N2055 X0.5653 Y2.4423
N2060 X0.5915 Y2.4463
N2065 X0.6175 Y2.4506
N2070 X0.6434 Y2.4552
N2075 X0.6691 Y2.4602
N2080 X0.6947 Y2.4655
N2085 X0.7202 Y2.4711
N2090 X0.7454 Y2.4771
N2095 X0.7704 Y2.4833
N2100 X0.7953 Y2.4898
N2105 X0.8199 Y2.4966
N2110 X0.8443 Y2.5036
N2115 X0.8676 Y2.5107
N2120 X0.9166 Y2.5266
N2125 X0.9395 Y2.5345
N2130 X0.9633 Y2.5431
N2135 X0.9871 Y2.552
N2140 X1.011 Y2.5613
N2145 X1.0348 Y2.5709
N2150 X1.0587 Y2.5809
N2155 X1.0825 Y2.5912
N2160 X1.1063 Y2.6019
N2165 X1.13 Y2.613
N2170 X1.1536 Y2.6243
N2175 X1.1772 Y2.6361
N2180 X1.2006 Y2.6482
N2185 X1.224 Y2.6606
N2190 X1.2473 Y2.6734
N2195 X1.2705 Y2.6865
N2200 X1.2935 Y2.7
N2205 X1.3164 Y2.7138
N2210 X1.3392 Y2.7279
N2215 X1.3617 Y2.7424
N2220 X1.3841 Y2.7571
N2225 X1.4063 Y2.7721
N2230 X1.4282 Y2.7875
N2235 X1.45 Y2.8031
N2240 X1.4715 Y2.819
N2245 X1.4928 Y2.8353
N2250 X1.5139 Y2.8518
N2255 X1.5348 Y2.8685
N2260 X1.5554 Y2.8856
N2265 X1.5757 Y2.9028
N2270 X1.5971 Y2.9214
N2275 X1.6019 Y2.9255
N2280 X1.6202 Y2.9407
N2285 G2 X1.6314 Y2.9495 I0.1595 J-0.1925
N2290 G1 X1.6506 Y2.9636
N2295 G2 X1.6628 Y2.972 I0.1483 J-0.2013
N2300 G1 X1.6829 Y2.9851
N2305 G2 X1.6961 Y2.9931 I0.1362 J-0.2096
N2310 G1 X1.717 Y3.0049
N2315 G2 X1.7307 Y3.0121 I0.123 J-0.2176
N2320 G1 X1.7523 Y3.0226
N2325 G2 X1.766 Y3.0288 I0.1093 J-0.2248
N2330 G1 X1.7881 Y3.0379
N2335 G2 X1.8018 Y3.0432 I0.0956 J-0.231
N2340 G1 X1.8243 Y3.051
N2345 G2 X1.8381 Y3.0553 I0.0819 J-0.2362
N2350 G1 X1.8608 Y3.0617
N2355 G2 X1.8748 Y3.0653 I0.0681 J-0.2405
N2360 G1 X1.8977 Y3.0703
N2365 G2 X1.912 Y3.0731 I0.0541 J-0.2441
N2370 G1 X1.9348 Y3.0767
N2375 G2 X1.9495 Y3.0787 I0.0398 J-0.2468
N2380 G1 X1.9722 Y3.081
N2385 G2 X1.987 Y3.082 I0.0251 J-0.2487
N2390 G1 X1.9997 Y3.0825
N2395 G3 X2.0476 Y3.1346 I-0.0021 J0.05 F60.
N2400 G1 X2.0443 Y3.2132
N2405 X2.0441 Y3.2188 Z-1.6741
N2410 X2.0439 Y3.2244 Z-1.6732
N2415 X2.0437 Y3.2297 Z-1.6716
N2420 X2.0434 Y3.2349 Z-1.6695
N2425 X2.0432 Y3.2398 Z-1.6667
N2430 X2.043 Y3.2444 Z-1.6635
N2435 X2.0429 Y3.2486 Z-1.6598
N2440 X2.0427 Y3.2523 Z-1.6556
N2445 X2.0426 Y3.2555 Z-1.651
N2450 X2.0425 Y3.2582 Z-1.6461
N2455 X2.0424 Y3.2604 Z-1.6409
N2460 X2.0423 Y3.2619 Z-1.6355
N2465 Y3.2629 Z-1.63
N2470 Y3.2632 Z-1.6244
N2475 G0 Z0.5906
(2D CONTOUR - COUNTERBORES FINISH)
N2480 G0 X-1.0133 Y-1.5113
N2485 Z0.5906
N2490 Z0.1969
N2495 G1 Z0.05 F12.
N2500 Z-1.5704
N2505 G18 G2 X-0.9633 Z-1.6204 I0.05 K0. F60.
N2510 G1 X-0.8845
N2515 G17 G3 X-0.8345 Y-1.4613 I0. J0.05
N2520 X-1.9881 I-0.5768 J0. F108.
N2525 X-0.8345 I0.5768 J0.
N2530 X-0.8845 Y-1.4113 I-0.05 J0. F60.
N2535 G1 X-0.9633
N2540 G18 G3 X-1.0133 Z-1.5704 I0. K0.05
N2545 G0 Z0.5906
N2550 G17
(2D CONTOUR - BORE FINISH)
N2565 M9
N2570 M5
N2575 (M0)
(PAUSE PROGRAM FOR TOOL CHANGE)
N2580 (T134 M6)
(FLAT END MILL D=0.5 12 EM SHORT)
N2585 S1200 M3
N2590 G54
N2595 M8
N2600 G0 X-0.5999 Y-1.5113
N2605 Z0.5906
N2610 G0 Z0.1969
N2615 G1 Z0.05 F12.
N2620 Z-0.4315
N2625 G18 G2 X-0.5499 Z-0.4815 I0.05 K0. F60.
N2630 G1 X-0.4712
N2635 G17 G3 X-0.4212 Y-1.4613 I0. J0.05
N2640 X-2.4015 I-0.9902 J0. F108.
N2645 X-0.4212 I0.9902 J0.
N2650 X-0.4712 Y-1.4113 I-0.05 J0. F60.
N2655 G1 X-0.5499
N2660 G18 G3 X-0.5999 Z-0.4315 I0. K0.05
N2665 G0 Z0.5906
N2670 X-0.7968 Y-1.5113
N2675 Z0.1969
N2680 G1 Z0.05 F12.
N2685 Z-0.6712
N2690 G2 X-0.7468 Z-0.7212 I0.05 K0. F60.
N2695 G1 X-0.668
N2700 G17 G3 X-0.618 Y-1.4613 I0. J0.05
N2705 X-2.2046 I-0.7933 J0. F108.
N2710 X-0.618 I0.7933 J0.
N2715 X-0.668 Y-1.4113 I-0.05 J0. F60.
N2720 G1 X-0.7468
N2725 G18 G3 X-0.7968 Z-0.6712 I0. K0.05
N2730 G0 Z0.5906
N2735 G17
N2740 M5
N2745 G53 G0 Z0.
(CHAMFER)
N2750 M9
N2755 M5
N2760 (M0)
(PAUSE PROGRAM FOR TOOL CHANGE)
N2765 (T131 M6)
(CHAMFER MILL D=0.5 12 DRILL MILL)
N2770 S1200 M3
N2775 G54
N2780 M8
N2785 G0 X-0.4499 Y-1.5113
N2790 Z0.5906
N2795 G0 Z0.1969
N2800 G1 Z0.05 F12.
N2805 Z-0.3702
N2810 G18 G2 X-0.3999 Z-0.4202 I0.05 K0. F20.628
N2815 G1 X-0.3212
N2820 G17 G3 X-0.2712 Y-1.4613 I0. J0.05
N2825 X-2.5515 I-1.1402 J0. F72.
N2830 X-0.2712 I1.1402 J0.
N2835 X-0.3212 Y-1.4113 I-0.05 J0. F20.628
N2840 G1 X-0.3999
N2845 G18 G3 X-0.4499 Z-0.3702 I0. K0.05
N2850 G0 Z0.5906
N2855 G17
N2860 M9
N2865 M5
N2870 G53 G0 Z0.
(10 MM DRILL)
N2875 M5
N2880 (M0)
(PAUSE PROGRAM FOR TOOL CHANGE)
N2885 (T2 M6)
(DRILL D=0.3937)
N2890 S291 M3
N2895 G54
N2900 G0 X-2.1506 Y1.8539
N2905 Z0.6
N2910 G0 Z0.2
N2915 Z-0.2121
N2920 Z-0.3321
N2925 G1 Z-0.5106 F22.913
N2930 G0 Z-0.5027
N2935 G1 Z-0.609 F22.913
N2940 G0 Z-0.6011
N2945 G1 Z-0.7074 F22.913
N2950 G0 Z-0.6995
N2955 G1 Z-0.8058 F22.913
N2960 G0 Z-0.798
N2965 G1 Z-0.9043 F22.913
N2970 G0 Z-0.8964
N2975 G1 Z-1.0027 F22.913
N2980 G0 Z-0.9948
N2985 G1 Z-1.1011 F22.913
N2990 G0 Z-1.0932
N2995 G1 Z-1.1995 F22.913
N3000 G0 Z-1.1917
N3005 G1 Z-1.298 F22.913
N3010 G0 Z-1.2901
N3015 G1 Z-1.3964 F22.913
N3020 G0 Z0.2
N3025 Z-1.3164
N3030 G1 Z-1.4948 F22.913
N3035 G0 Z-1.4869
N3040 G1 Z-1.5932 F22.913
N3045 G0 Z-1.5854
N3050 G1 Z-1.6917 F22.913
N3055 G0 Z-1.6838
N3060 G1 Z-1.7901 F22.913
N3065 G0 Z-1.7822
N3070 G1 Z-1.8885 F22.913
N3075 G0 Z-1.8806
N3080 G1 Z-1.9427 F22.913
N3085 G0 Z0.2
N3090 Z0.6
N3095 M5
N3100 G53 G0 Z0.
(8 MM DRILL)
N3105 M5
N3110 (M0)
(PAUSE PROGRAM FOR TOOL CHANGE)
N3115 (T3 M6)
(DRILL D=0.315)
N3120 S364 M3
N3125 G54
N3130 G0 X2.4241 Y1.2816
N3135 Z0.6
N3140 G0 Z0.2
N3145 Z-0.3115
N3150 Z-0.4315
N3155 G1 Z-0.5902 F22.913
N3160 G0 Z-0.5839
N3165 G1 Z-0.669 F22.913
N3170 G0 Z-0.6627
N3175 G1 Z-0.7477 F22.913
N3180 G0 Z-0.7414
N3185 G1 Z-0.8265 F22.913
N3190 G0 Z-0.8202
N3195 G1 Z-0.9052 F22.913
N3200 G0 Z-0.8989
N3205 G1 Z-0.9839 F22.913
N3210 G0 Z-0.9776
N3215 G1 Z-1.0627 F22.913
N3220 G0 Z-1.0564
N3225 G1 Z-1.1414 F22.913
N3230 G0 Z-1.1351
N3235 G1 Z-1.2202 F22.913
N3240 G0 Z-1.2139
N3245 G1 Z-1.2989 F22.913
N3250 G0 Z0.2
N3255 Z-1.2189
N3260 G1 Z-1.3776 F22.913
N3265 G0 Z-1.3713
N3270 G1 Z-1.4564 F22.913
N3275 G0 Z-1.4501
N3280 G1 Z-1.5351 F22.913
N3285 G0 Z-1.5288
N3290 G1 Z-1.6139 F22.913
N3295 G0 Z-1.6076
N3300 G1 Z-1.6926 F22.913
N3305 G0 Z-1.6863
N3310 G1 Z-1.7713 F22.913
N3315 G0 Z-1.765
N3320 G1 Z-1.8501 F22.913
N3325 G0 Z-1.8438
N3330 G1 Z-1.919 F22.913
N3335 G0 Z0.2
N3340 Z0.6
N3345 M5
N3350 G53 G0 Z0.
(6 MM DRILL)
N3355 M5
N3360 (M0)
(PAUSE PROGRAM FOR TOOL CHANGE)
N3365 (T4 M6)
(DRILL D=0.2362)
N3370 S485 M3
N3375 G54
N3380 G0 X2.0261 Y2.4337
N3385 Z0.6
N3390 G0 Z0.2
N3395 Z-0.3452
N3400 Z-0.4652
N3405 G1 Z-0.6042 F22.913
N3410 G0 Z-0.5995
N3415 G1 Z-0.6633 F22.913
N3420 G0 Z-0.6585
N3425 G1 Z-0.7223 F22.913
N3430 G0 Z-0.7176
N3435 G1 Z-0.7814 F22.913
N3440 G0 Z-0.7767
N3445 G1 Z-0.8404 F22.913
N3450 G0 Z-0.8357
N3455 G1 Z-0.8995 F22.913
N3460 G0 Z-0.8948
N3465 G1 Z-0.9585 F22.913
N3470 G0 Z-0.9538
N3475 G1 Z-1.0176 F22.913
N3480 G0 Z-1.0129
N3485 G1 Z-1.0767 F22.913
N3490 G0 Z-1.0719
N3495 G1 Z-1.1357 F22.913
N3500 G0 Z0.2
N3505 Z-1.0557
N3510 G1 Z-1.1948 F22.913
N3515 G0 Z-1.19
N3520 G1 Z-1.2538 F22.913
N3525 G0 Z-1.2491
N3530 G1 Z-1.3129 F22.913
N3535 G0 Z-1.3081
N3540 G1 Z-1.3719 F22.913
N3545 G0 Z-1.3672
N3550 G1 Z-1.431 F22.913
N3555 G0 Z-1.4263
N3560 G1 Z-1.49 F22.913
N3565 G0 Z-1.4853
N3570 G1 Z-1.5491 F22.913
N3575 G0 Z-1.5444
N3580 G1 Z-1.6081 F22.913
N3585 G0 Z-1.6034
N3590 G1 Z-1.6672 F22.913
N3595 G0 Z-1.6625
N3600 G1 Z-1.7263 F22.913
N3605 G0 Z0.2
N3610 Z-1.6463
N3615 G1 Z-1.7853 F22.913
N3620 G0 Z-1.7806
N3625 G1 Z-1.8444 F22.913
N3630 G0 Z-1.8396
N3635 G1 Z-1.8675 F22.913
N3640 G0 Z0.2
N3645 Z0.6
N3650 M5
N3655 G53 G0 Z0.

N53525 M9
N53530 G53 G0 Z0.
N53535 G53 G0 X0. Y0.
N53540 M30
%
