%
(1001)
(T2 D=0.3937 CR=0. TAPER=118DEG - ZMIN=-1.9427 - DRILL)
(T3 D=0.315 CR=0. TAPER=118DEG - ZMIN=-1.919 - DRILL)
(T4 D=0.2362 CR=0. TAPER=118DEG - ZMIN=-1.8675 - DRILL)
(T131 D=0.5 CR=0. TAPER=45DEG - ZMIN=-0.4202 - CHAMFER MILL)
(T133 D=0.5 CR=0.02 - ZMIN=-1.6643 - BULLNOSE END MILL)
(T134 D=0.5 CR=0. - ZMIN=-0.7212 - FLAT END MILL)
(T135 D=0.5 CR=0. - ZMIN=-1.6744 - FLAT END MILL)
(T137 D=0.5 CR=0.25 - ZMIN=-0.5888 - BALL END MILL)
(T171 D=2. CR=0. - ZMIN=-0.2817 - FACE MILL)
N10 G90 G94 G17 G91.1 G64 P0.01
N15 G20
N20 G53 G0 Z0.

(SCALLOP3)
N3660 M5
N3665 (M0)
(PAUSE PROGRAM FOR TOOL CHANGE)
N3670 (T137 M6)
(BALL END MILL D=0.5 12 BALL EM SHORT)
N3675 S500 M3
N3680 G54
N3685 M8
N3690 G0 X-2.7508 Y-1.5059
N3695 Z0.6
N3700 G0 Z-0.2017
N3705 G1 Z-0.2317 F39.37
N3710 Y-1.5056 Z-0.2373
N3715 X-2.7507 Y-1.5046 Z-0.2428
N3720 Y-1.5031 Z-0.2482
N3725 Y-1.5009 Z-0.2533
N3730 X-2.7506 Y-1.4982 Z-0.2583
N3735 Y-1.495 Z-0.2628
N3740 X-2.7505 Y-1.4913 Z-0.267
N3745 X-2.7504 Y-1.4871 Z-0.2707
N3750 Y-1.4825 Z-0.274
N3755 X-2.7503 Y-1.4776 Z-0.2767
N3760 X-2.7502 Y-1.4724 Z-0.2788
N3765 X-2.7501 Y-1.467 Z-0.2804
N3770 X-2.75 Y-1.4615 Z-0.2813
N3775 X-2.7499 Y-1.4559 Z-0.2817
N3780 X-2.7494 Y-1.4252
N3785 X-2.7491 Y-1.4126
N3790 X-2.7471 Y-1.3746
N3795 X-2.7462 Y-1.362
N3800 X-2.7429 Y-1.3241
N3805 X-2.7384 Y-1.2861
N3810 X-2.7367 Y-1.2735
N3815 X-2.7308 Y-1.2356
N3820 X-2.7285 Y-1.2229
N3825 X-2.7212 Y-1.185
N3830 X-2.7125 Y-1.1471
N3835 X-2.7094 Y-1.1344
N3840 X-2.6993 Y-1.0965
N3845 X-2.6879 Y-1.0586
N3850 X-2.6838 Y-1.046
N3855 X-2.6709 Y-1.008
N3860 X-2.6565 Y-0.9701
N3865 X-2.6512 Y-0.9568
N3870 X-2.6385 Y-0.9267
N3875 X-2.6354 Y-0.9195
N3880 X-2.618 Y-0.8816
N3885 X-2.5989 Y-0.8437
N3890 X-2.5922 Y-0.831
N3895 X-2.5754 Y-0.8003
N3900 X-2.5562 Y-0.7678
N3905 X-2.5501 Y-0.7577
N3910 X-2.5324 Y-0.7299
N3915 X-2.5241 Y-0.7173
N3920 X-2.4996 Y-0.6818
N3925 X-2.4743 Y-0.6477
N3930 X-2.4694 Y-0.6414
N3935 X-2.4491 Y-0.6159
N3940 X-2.4389 Y-0.6035
N3945 X-2.4173 Y-0.5782
N3950 X-2.4112 Y-0.5713
N3955 X-2.3828 Y-0.5403
N3960 X-2.358 Y-0.515
N3965 X-2.3481 Y-0.505
N3970 X-2.3186 Y-0.4771
N3975 X-2.3045 Y-0.4644
N3980 X-2.2849 Y-0.447
N3985 X-2.2723 Y-0.4364
N3990 X-2.247 Y-0.4155
N3995 X-2.2121 Y-0.3886
N4000 X-2.2091 Y-0.3864
N4005 X-2.177 Y-0.3633
N4010 X-2.1712 Y-0.3593
N4015 X-2.1334 Y-0.3341
N4020 X-2.0955 Y-0.3107
N4025 X-2.0548 Y-0.2875
N4030 X-2.0197 Y-0.269
N4035 X-2.0061 Y-0.2622
N4040 X-1.9799 Y-0.2495
N4045 X-1.9692 Y-0.2445
N4050 X-1.9313 Y-0.2278
N4055 X-1.891 Y-0.2116
N4060 X-1.8808 Y-0.2078
N4065 X-1.8429 Y-0.1941
N4070 X-1.805 Y-0.1819
N4075 X-1.7924 Y-0.1781
N4080 X-1.7545 Y-0.1674
N4085 X-1.7166 Y-0.158
N4090 X-1.704 Y-0.1551
N4095 X-1.6661 Y-0.1471
N4100 X-1.6282 Y-0.1404
N4105 X-1.6156 Y-0.1384
N4110 X-1.5777 Y-0.1331
N4115 X-1.565 Y-0.1316
N4120 X-1.5272 Y-0.1277
N4125 X-1.4893 Y-0.125
N4130 X-1.4766 Y-0.1243
N4135 X-1.4387 Y-0.123
N4140 X-1.4261 Y-0.1229
N4145 X-1.4009 Y-0.1228
N4150 X-1.3882 Y-0.1229
N4155 X-1.3503 Y-0.1241
N4160 X-1.3377 Y-0.1248
N4165 X-1.2998 Y-0.1273
N4170 X-1.2746 Y-0.1298
N4175 X-1.2619 Y-0.1311
N4180 X-1.2493 Y-0.1325
N4185 X-1.2114 Y-0.1377
N4190 X-1.1988 Y-0.1397
N4195 X-1.1609 Y-0.1463
N4200 X-1.123 Y-0.1542
N4205 X-1.1104 Y-0.157
N4210 X-1.0725 Y-0.1663
N4215 X-1.0459 Y-0.1737
N4220 X-1.0346 Y-0.1769
N4225 X-1.022 Y-0.1806
N4230 X-0.9841 Y-0.1927
N4235 X-0.9588 Y-0.2016
N4240 X-0.9462 Y-0.2062
N4245 X-0.9318 Y-0.2116
N4250 X-0.8957 Y-0.2259
N4255 X-0.8578 Y-0.2425
N4260 X-0.8428 Y-0.2495
N4265 X-0.8164 Y-0.2622
N4270 X-0.8073 Y-0.2668
N4275 X-0.7694 Y-0.2866
N4280 X-0.7315 Y-0.3081
N4285 X-0.6936 Y-0.3313
N4290 X-0.681 Y-0.3396
N4295 X-0.6557 Y-0.3563
N4300 X-0.6431 Y-0.3652
N4305 X-0.6178 Y-0.3832
N4310 X-0.6107 Y-0.3886
N4315 X-0.5777 Y-0.4139
N4320 X-0.5421 Y-0.4433
N4325 X-0.5168 Y-0.4656
N4330 X-0.5041 Y-0.4771
N4335 X-0.4773 Y-0.5024
N4340 X-0.4647 Y-0.515
N4345 X-0.441 Y-0.5391
N4350 X-0.4158 Y-0.5665
N4355 X-0.4054 Y-0.5782
N4360 X-0.3837 Y-0.6035
N4365 X-0.3779 Y-0.6105
N4370 X-0.3526 Y-0.642
N4375 X-0.3248 Y-0.6793
N4380 X-0.2985 Y-0.7173
N4385 X-0.274 Y-0.7552
N4390 X-0.2514 Y-0.7931
N4395 X-0.2443 Y-0.8058
N4400 X-0.2304 Y-0.831
N4405 X-0.2263 Y-0.8386
N4410 X-0.211 Y-0.869
N4415 X-0.2047 Y-0.8816
N4420 X-0.1872 Y-0.9195
N4425 X-0.1712 Y-0.9575
N4430 X-0.1661 Y-0.9701
N4435 X-0.1565 Y-0.9954
N4440 X-0.1518 Y-1.008
N4445 X-0.1379 Y-1.0484
N4450 X-0.1253 Y-1.0897
N4455 X-0.1234 Y-1.0965
N4460 X-0.1127 Y-1.1365
N4465 X-0.1043 Y-1.1724
N4470 X-0.1015 Y-1.185
N4475 X-0.0941 Y-1.2229
N4480 X-0.0919 Y-1.2356
N4485 X-0.0859 Y-1.2735
N4490 X-0.089 Y-1.2482
N4495 X-0.0912 Y-1.2229
N4500 X-0.0924 Y-1.1977
N4505 X-0.0928 Y-1.1724 Z-0.2819
N4510 X-0.0926 Y-1.1597 Z-0.2821
N4515 X-0.0923 Y-1.1471 Z-0.2823
N4520 X-0.0917 Y-1.1344 Z-0.2825
N4525 X-0.091 Y-1.1218 Z-0.2828
N4530 X-0.09 Y-1.1092 Z-0.2831
N4535 X-0.0888 Y-1.0965 Z-0.2834
N4540 X-0.0874 Y-1.0839 Z-0.2837
N4545 X-0.0857 Y-1.0712 Z-0.2841
N4550 X-0.0838 Y-1.0586 Z-0.2844
N4555 X-0.0816 Y-1.046 Z-0.2849
N4560 X-0.0793 Y-1.0333 Z-0.2853
N4565 X-0.0748 Y-1.0124 Z-0.286
N4570 X-0.0738 Y-1.008 Z-0.2862
N4575 X-0.0673 Y-0.9827 Z-0.2872
N4580 X-0.0599 Y-0.9575 Z-0.2883
N4585 X-0.0514 Y-0.9322 Z-0.2895
N4590 X-0.042 Y-0.9069 Z-0.2907
N4595 X-0.0367 Y-0.8943 Z-0.2914
N4600 X-0.0314 Y-0.8816 Z-0.2921
N4605 X-0.0243 Y-0.8661 Z-0.293
N4610 X-0.0196 Y-0.8563 Z-0.2936
N4615 X-0.0116 Y-0.8405 Z-0.2945
N4620 X-0.0065 Y-0.831 Z-0.2951
N4625 X0.001 Y-0.8174 Z-0.296
N4630 X0.0136 Y-0.7961 Z-0.2974
N4635 X0.0154 Y-0.7931 Z-0.2976
N4640 X0.0263 Y-0.7764 Z-0.2988
N4645 X0.032 Y-0.7678 Z-0.2994
N4650 X0.0409 Y-0.7552 Z-0.3003
N4655 X0.0515 Y-0.7407 Z-0.3015
N4660 X0.0596 Y-0.7299 Z-0.3023
N4665 X0.0641 Y-0.7243 Z-0.3028
N4670 X0.0768 Y-0.7087 Z-0.304
N4675 X0.0803 Y-0.7046 Z-0.3044
N4680 X0.0914 Y-0.692 Z-0.3055
N4685 X0.1031 Y-0.6793 Z-0.3066
N4690 X0.1151 Y-0.6667 Z-0.3078
N4695 X0.1281 Y-0.6541 Z-0.309
N4700 X0.1417 Y-0.6414 Z-0.3102
N4705 X0.1525 Y-0.6316 Z-0.3112
N4710 X0.1558 Y-0.6288 Z-0.3115
N4715 X0.1709 Y-0.6161 Z-0.3129
N4720 X0.1778 Y-0.6106 Z-0.3135
N4725 X0.1904 Y-0.6008 Z-0.3146
N4730 X0.2038 Y-0.5909 Z-0.3157
N4735 X0.2157 Y-0.5823 Z-0.3167
N4740 X0.2283 Y-0.5738 Z-0.3178
N4745 X0.241 Y-0.5655 Z-0.3189
N4750 X0.2613 Y-0.5529 Z-0.3205
N4755 X2.6658 Y0.8674 Z-0.5158
N4760 X2.679 Y0.8756 Z-0.5168
N4765 X2.691 Y0.8834 Z-0.5178
N4770 X2.7037 Y0.8921 Z-0.5189
N4775 X2.7163 Y0.9016 Z-0.52
N4780 X2.731 Y0.9135 Z-0.5213
N4785 X2.7416 Y0.9225 Z-0.5223
N4790 X2.7542 Y0.934 Z-0.5234
N4795 X2.7668 Y0.9464 Z-0.5246
N4800 X2.7716 Y0.9514 Z-0.5251
N4805 X2.7833 Y0.9641 Z-0.5263
N4810 X2.7941 Y0.9767 Z-0.5273
N4815 X2.8047 Y0.9901 Z-0.5285
N4820 X2.8136 Y1.002 Z-0.5294
N4825 X2.8224 Y1.0146 Z-0.5304
N4830 X2.8304 Y1.0273 Z-0.5313
N4835 X2.8381 Y1.0399 Z-0.5322
N4840 X2.8453 Y1.0526 Z-0.5331
N4845 X2.8552 Y1.0719 Z-0.5344
N4850 X2.8637 Y1.0905 Z-0.5356
N4855 X2.8689 Y1.1031 Z-0.5363
N4860 X2.8739 Y1.1158 Z-0.5371
N4865 X2.8784 Y1.1284 Z-0.5378
N4870 X2.8805 Y1.1348 Z-0.5382
N4875 X2.8862 Y1.1537 Z-0.5392
N4880 X2.8895 Y1.1663 Z-0.5399
N4885 X2.8924 Y1.179 Z-0.5405
N4890 X2.8951 Y1.1916 Z-0.5411
N4895 X2.8972 Y1.2043 Z-0.5417
N4900 X2.8991 Y1.2169 Z-0.5423
N4905 X2.9007 Y1.2295 Z-0.5429
N4910 X2.9018 Y1.2422 Z-0.5434
N4915 X2.9028 Y1.2548 Z-0.5439
N4920 X2.9032 Y1.2675 Z-0.5444
N4925 X2.9035 Y1.2801 Z-0.5449
N4930 X2.9033 Y1.2928 Z-0.5454
N4935 X2.9028 Y1.3054 Z-0.5458
N4940 X2.9021 Y1.318 Z-0.5463
N4945 X2.9009 Y1.3307 Z-0.5467
N4950 X2.8996 Y1.3433 Z-0.5471
N4955 X2.8977 Y1.356 Z-0.5474
N4960 X2.8956 Y1.3686 Z-0.5478
N4965 X2.8931 Y1.3814 Z-0.5481
N4970 X2.8902 Y1.3939 Z-0.5485
N4975 X2.8871 Y1.4065 Z-0.5488
N4980 X2.8833 Y1.4192 Z-0.549
N4985 X2.8805 Y1.4286 Z-0.5492
N4990 X2.8751 Y1.4445 Z-0.5495
N4995 X2.8702 Y1.4571 Z-0.5498
N5000 X2.8652 Y1.4697 Z-0.55
N5005 X2.8014 Y1.6214 Z-0.5525
N5010 X2.7376 Y1.7731 Z-0.5553
N5015 X2.6784 Y1.9138 Z-0.5582
N5020 X2.6205 Y2.0513 Z-0.5614
N5025 X2.562 Y2.1903 Z-0.5648
N5030 X2.4982 Y2.342 Z-0.5688
N5035 X2.4344 Y2.4937 Z-0.5732
N5040 X2.3971 Y2.5822 Z-0.5759
N5045 X2.3916 Y2.5949 Z-0.5762
N5050 X2.3858 Y2.6075 Z-0.5766
N5055 X2.3793 Y2.6201 Z-0.5769
N5060 X2.3753 Y2.6276 Z-0.5771
N5065 X2.3725 Y2.6328 Z-0.5773
N5070 X2.3627 Y2.6487 Z-0.5776
N5075 X2.3565 Y2.6581 Z-0.5778
N5080 X2.3476 Y2.6707 Z-0.578
N5085 X2.3374 Y2.6838 Z-0.5782
N5090 X2.3272 Y2.696 Z-0.5784
N5095 X2.316 Y2.7086 Z-0.5785
N5100 X2.3034 Y2.7213 Z-0.5786
N5105 X2.2995 Y2.725
N5110 X2.2869 Y2.7363
N5115 X2.2743 Y2.7466
N5120 X2.2616 Y2.7563 Z-0.5785
N5125 X2.249 Y2.7651 Z-0.5784
N5130 X2.2364 Y2.7731 Z-0.5783
N5135 X2.2238 Y2.7808 Z-0.5781
N5140 X2.2111 Y2.7876 Z-0.5779
N5145 X2.1985 Y2.7939 Z-0.5776
N5150 X2.1859 Y2.7998 Z-0.5774
N5155 X2.1732 Y2.805 Z-0.5771
N5160 X2.1606 Y2.8099 Z-0.5768
N5165 X2.148 Y2.814 Z-0.5764
N5170 X2.1353 Y2.818 Z-0.5761
N5175 X2.1181 Y2.8224 Z-0.5756
N5180 X2.1101 Y2.8242 Z-0.5753
N5185 X2.0975 Y2.8266 Z-0.5749
N5190 X2.0848 Y2.8287 Z-0.5744
N5195 X2.0722 Y2.8304 Z-0.574
N5200 X2.0596 Y2.8316 Z-0.5735
N5205 X2.0469 Y2.8326 Z-0.573
N5210 X2.0343 Y2.8329 Z-0.5724
N5215 X2.0217 Y2.8332 Z-0.5719
N5220 X2.0091 Y2.8327 Z-0.5713
N5225 X1.9964 Y2.8321 Z-0.5707
N5230 X1.9838 Y2.8309 Z-0.5701
N5235 X1.9712 Y2.8294 Z-0.5695
N5240 X1.9585 Y2.8273 Z-0.5688
N5245 X1.9459 Y2.825 Z-0.5682
N5250 X1.9333 Y2.8221 Z-0.5675
N5255 X1.9206 Y2.8188 Z-0.5667
N5260 X1.908 Y2.8153 Z-0.566
N5265 X1.8918 Y2.8098 Z-0.565
N5270 X1.8828 Y2.8066 Z-0.5644
N5275 X1.8701 Y2.8013 Z-0.5636
N5280 X1.8602 Y2.7971 Z-0.5629
N5285 X1.8449 Y2.7897 Z-0.5619
N5290 X1.835 Y2.7845 Z-0.5612
N5295 X1.8196 Y2.7758 Z-0.56
N5300 X1.807 Y2.7676 Z-0.559
N5305 X1.7944 Y2.759 Z-0.558
N5310 X1.7817 Y2.7497 Z-0.557
N5315 X1.7777 Y2.7466 Z-0.5566
N5320 X1.7625 Y2.7339 Z-0.5553
N5325 X1.7438 Y2.7177 Z-0.5536
N5330 X1.7312 Y2.7069 Z-0.5525
N5335 X1.7184 Y2.696 Z-0.5513
N5340 X1.6933 Y2.6752 Z-0.5491
N5345 X1.6681 Y2.6549 Z-0.5469
N5350 X1.6428 Y2.6352 Z-0.5447
N5355 X1.6229 Y2.6201 Z-0.5431
N5360 X1.6049 Y2.6068 Z-0.5416
N5365 X1.5886 Y2.5949 Z-0.5402
N5370 X1.5709 Y2.5822 Z-0.5388
N5375 X1.5528 Y2.5696 Z-0.5373
N5380 X1.5343 Y2.5569 Z-0.5358
N5385 X1.5155 Y2.5443 Z-0.5343
N5390 X1.4963 Y2.5316 Z-0.5328
N5395 X1.4765 Y2.519 Z-0.5313
N5400 X1.4534 Y2.5046 Z-0.5295
N5405 X1.4356 Y2.4937 Z-0.5282
N5410 X1.4144 Y2.4811 Z-0.5266
N5415 X1.3902 Y2.467 Z-0.5248
N5420 X1.3704 Y2.4558 Z-0.5234
N5425 X1.3397 Y2.439 Z-0.5212
N5430 X1.3144 Y2.4256 Z-0.5194
N5435 X1.2892 Y2.4126 Z-0.5176
N5440 X1.2639 Y2.4 Z-0.5159
N5445 X1.2387 Y2.3878 Z-0.5142
N5450 X1.2134 Y2.376 Z-0.5125
N5455 X1.1881 Y2.3646 Z-0.5109
N5460 X1.1629 Y2.3536 Z-0.5092
N5465 X1.1503 Y2.3482 Z-0.5084
N5470 X1.125 Y2.3377 Z-0.5069
N5475 X1.0997 Y2.3275 Z-0.5053
N5480 X1.0718 Y2.3167 Z-0.5036
N5485 X1.0492 Y2.3083 Z-0.5022
N5490 X1.024 Y2.2992 Z-0.5007
N5495 X0.9987 Y2.2905 Z-0.4992
N5500 X0.9482 Y2.274 Z-0.4964
N5505 X0.9356 Y2.2701 Z-0.4957
N5510 X0.9103 Y2.2625 Z-0.4943
N5515 X0.885 Y2.2552 Z-0.4929
N5520 X0.8598 Y2.2483 Z-0.4916
N5525 X0.8316 Y2.2409 Z-0.4901
N5530 X0.8093 Y2.2353 Z-0.489
N5535 X0.7794 Y2.2282 Z-0.4875
N5540 X0.7461 Y2.2209 Z-0.4859
N5545 X0.7207 Y2.2156 Z-0.4846
N5550 X0.6956 Y2.2107 Z-0.4835
N5555 X0.683 Y2.2083 Z-0.4829
N5560 X0.6577 Y2.2038 Z-0.4817
N5565 X0.6325 Y2.1996 Z-0.4806
N5570 X0.6072 Y2.1958 Z-0.4795
N5575 X0.5819 Y2.1922 Z-0.4785
N5580 X0.568 Y2.1903 Z-0.4779
N5585 X0.5441 Y2.1873 Z-0.4769
N5590 X0.5188 Y2.1845 Z-0.4759
N5595 X0.5062 Y2.1831 Z-0.4754
N5600 X0.4809 Y2.1807 Z-0.4744
N5605 X0.4556 Y2.1786 Z-0.4735
N5610 X0.4304 Y2.1767 Z-0.4726
N5615 X0.4178 Y2.1759 Z-0.4721
N5620 X0.3925 Y2.1744 Z-0.4712
N5625 X0.3672 Y2.1733 Z-0.4704
N5630 X0.342 Y2.1725 Z-0.4696
N5635 X0.3294 Y2.1721 Z-0.4692
N5640 X0.3041 Y2.1717 Z-0.4684
N5645 X0.2788 Y2.1716 Z-0.4676
N5650 X0.2662 Z-0.4672
N5655 X0.241 Y2.1719 Z-0.4665
N5660 X0.2157 Y2.1725 Z-0.4658
N5665 X0.1904 Y2.1733 Z-0.4652
N5670 X0.1778 Y2.1738 Z-0.4649
N5675 X0.1525 Y2.1751 Z-0.4642
N5680 X0.1273 Y2.1767 Z-0.4636
N5685 X0.1138 Y2.1777 Z-0.4633
N5690 X0.0894 Y2.1796 Z-0.4628
N5695 X0.0641 Y2.1819 Z-0.4623
N5700 X0.0389 Y2.1845 Z-0.4618
N5705 X0.0263 Y2.1859 Z-0.4616
N5710 X0.001 Y2.1888 Z-0.4611
N5715 X-0.1506 Y2.2078 Z-0.4587
N5720 X-0.2769 Y2.2236 Z-0.4571
N5725 X-0.4031 Y2.2394 Z-0.4557
N5730 X-0.5421 Y2.2568 Z-0.4545
N5735 X-0.6684 Y2.2726 Z-0.4537
N5740 X-0.782 Y2.2868 Z-0.4532
N5745 X-1.0346 Y2.3184 Z-0.453
N5750 X-1.1735 Y2.3358 Z-0.4535
N5755 X-1.2998 Y2.3516 Z-0.4542
N5760 X-1.4261 Y2.3674 Z-0.4552
N5765 X-1.565 Y2.3847 Z-0.4566
N5770 X-1.6913 Y2.4005 Z-0.4582
N5775 X-1.8303 Y2.4179 Z-0.4603
N5780 X-1.9565 Y2.4337 Z-0.4625
N5785 X-2.0702 Y2.4479 Z-0.4647
N5790 X-2.0828 Y2.4494 Z-0.4649
N5795 X-2.0955 Y2.4507 Z-0.4651
N5800 X-2.1081 Y2.4518 Z-0.4654
N5805 X-2.1207 Y2.4525 Z-0.4656
N5810 X-2.1334 Y2.453 Z-0.4658
N5815 X-2.146 Y2.4533 Z-0.4659
N5820 X-2.1586 Y2.4532 Z-0.4661
N5825 X-2.1712 Y2.4529 Z-0.4663
N5830 X-2.1839 Y2.4523 Z-0.4664
N5835 X-2.1965 Y2.4515 Z-0.4665
N5840 X-2.2091 Y2.4504 Z-0.4666
N5845 X-2.2218 Y2.449 Z-0.4667
N5850 X-2.2344 Y2.4474 Z-0.4668
N5855 X-2.247 Y2.4455
N5860 X-2.2602 Y2.4432
N5865 X-2.2723 Y2.4407 Z-0.4669
N5870 X-2.2975 Y2.435 Z-0.4668
N5875 X-2.3102 Y2.4317
N5880 X-2.3228 Y2.428
N5885 X-2.3354 Y2.424 Z-0.4667
N5890 X-2.3481 Y2.4198 Z-0.4666
N5895 X-2.3536 Y2.4179
N5900 X-2.3607 Y2.4152 Z-0.4665
N5905 X-2.3733 Y2.4104 Z-0.4664
N5910 X-2.3859 Y2.4052 Z-0.4663
N5915 X-2.3986 Y2.3996 Z-0.4661
N5920 X-2.4135 Y2.3926 Z-0.4659
N5925 X-2.4238 Y2.3874 Z-0.4657
N5930 X-2.4378 Y2.3799 Z-0.4655
N5935 X-2.4491 Y2.3736 Z-0.4652
N5940 X-2.4617 Y2.3662 Z-0.465
N5945 X-2.4743 Y2.3583 Z-0.4647
N5950 X-2.48 Y2.3547 Z-0.4645
N5955 X-2.487 Y2.35 Z-0.4644
N5960 X-2.4996 Y2.3412 Z-0.464
N5965 X-2.5122 Y2.3319 Z-0.4636
N5970 X-2.5249 Y2.3221 Z-0.4632
N5975 X-2.5375 Y2.3117 Z-0.4628
N5980 X-2.5463 Y2.3041 Z-0.4624
N5985 X-2.5602 Y2.2915 Z-0.4619
N5990 X-2.5733 Y2.2788 Z-0.4613
N5995 X-2.5856 Y2.2662 Z-0.4607
N6000 X-2.5973 Y2.2535 Z-0.4601
N6005 X-2.6006 Y2.2497 Z-0.4599
N6010 X-2.6083 Y2.2409 Z-0.4595
N6015 X-2.6133 Y2.235 Z-0.4592
N6020 X-2.6187 Y2.2282 Z-0.4589
N6025 X-2.6259 Y2.2191 Z-0.4584
N6030 X-2.6378 Y2.203 Z-0.4576
N6035 X-2.6466 Y2.1903 Z-0.457
N6040 X-2.6512 Y2.1836 Z-0.4567
N6045 X-2.655 Y2.1777 Z-0.4563
N6050 X-2.6638 Y2.1635 Z-0.4556
N6055 X-2.6703 Y2.1524 Z-0.455
N6060 X-2.6774 Y2.1398 Z-0.4544
N6065 X-2.6841 Y2.1271 Z-0.4537
N6070 X-2.6904 Y2.1145 Z-0.453
N6075 X-2.6963 Y2.1018 Z-0.4523
N6080 X-2.7019 Y2.0892 Z-0.4516
N6085 X-2.7071 Y2.0765 Z-0.4509
N6090 X-2.7119 Y2.0639 Z-0.4502
N6095 X-2.7143 Y2.0576 Z-0.4498
N6100 X-2.7208 Y2.0386 Z-0.4487
N6105 X-2.7247 Y2.026 Z-0.448
N6110 X-2.7284 Y2.0133 Z-0.4473
N6115 X-2.7317 Y2.0007 Z-0.4465
N6120 X-2.7347 Y1.9881 Z-0.4458
N6125 X-2.7375 Y1.9754 Z-0.445
N6130 X-2.7396 Y1.9652 Z-0.4444
N6135 X-2.7422 Y1.9501 Z-0.4435
N6140 X-2.7441 Y1.9375 Z-0.4427
N6145 X-2.7457 Y1.9248 Z-0.4419
N6150 X-2.7471 Y1.9122 Z-0.4412
N6155 X-2.7482 Y1.8996 Z-0.4404
N6160 X-2.7491 Y1.8869 Z-0.4396
N6165 X-2.7496 Y1.8743 Z-0.4388
N6170 X-2.7499 Y1.8616 Z-0.4379
N6175 X-2.75 Y1.849 Z-0.4371
N6180 Y1.5329 Z-0.4168
N6185 Y1.2422 Z-0.3984
N6190 Y1.002 Z-0.3835
N6195 Y0.7744 Z-0.3697
N6200 Y0.5722 Z-0.3577
N6205 Y0.3952 Z-0.3475
N6210 Y0.2309 Z-0.3383
N6215 Y0.0792 Z-0.3301
N6220 Y-0.0599 Z-0.323
N6225 Y-0.1863 Z-0.3167
N6230 Y-0.3127 Z-0.3108
N6235 Y-0.4265 Z-0.3058
N6240 Y-0.5276 Z-0.3016
N6245 Y-0.6288 Z-0.2977
N6250 Y-0.7299 Z-0.2941
N6255 Y-0.8184 Z-0.2913
N6260 Y-0.9069 Z-0.2888
N6265 Y-0.9954 Z-0.2866
N6270 Y-1.0712 Z-0.2849
N6275 Y-1.1471 Z-0.2836
N6280 Y-1.2229 Z-0.2825
N6285 Y-1.2735 Z-0.282
N6290 Y-1.3367 Z-0.2817
N6295 Y-1.4586
N6300 X-2.7499 Y-1.4559
N6305 X-2.7483 Y-1.3444
N6310 X-2.7475 Y-1.3073
N6315 X-2.7466 Y-1.2794 Z-0.2818
N6320 X-2.7456 Y-1.2516 Z-0.2819
N6325 X-2.7441 Y-1.2237 Z-0.2821
N6330 X-2.743 Y-1.2052 Z-0.2823
N6335 X-2.7417 Y-1.1867 Z-0.2824
N6340 X-2.7401 Y-1.1682 Z-0.2826
N6345 X-2.7384 Y-1.1498 Z-0.2828
N6350 X-2.7364 Y-1.1315 Z-0.2829
N6355 X-2.7342 Y-1.1133 Z-0.283
N6360 X-2.7316 Y-1.0951 Z-0.2832
N6365 X-2.7288 Y-1.077 Z-0.2833
N6370 X-2.7257 Y-1.0589 Z-0.2835
N6375 X-2.724 Y-1.0499 Z-0.2836
N6380 X-2.7223 Y-1.0409 Z-0.2837
N6385 X-2.7204 Y-1.0319
N6390 X-2.7185 Y-1.0229 Z-0.2838
N6395 X-2.7164 Y-1.014 Z-0.2839
N6400 X-2.7143 Y-1.0051
N6405 X-2.7121 Y-0.9962 Z-0.284
N6410 X-2.7098 Y-0.9873 Z-0.2841
N6415 X-2.7074 Y-0.9785
N6420 X-2.7049 Y-0.9697 Z-0.2842
N6425 X-2.7023 Y-0.9609
N6430 X-2.6995 Y-0.9522 Z-0.2843
N6435 X-2.6967 Y-0.9435
N6440 X-2.6938 Y-0.9348 Z-0.2844
N6445 X-2.6907 Y-0.9262
N6450 X-2.6876 Y-0.9176
N6455 X-2.6843 Y-0.909 Z-0.2845
N6460 X-2.6809 Y-0.9005
N6465 X-2.6774 Y-0.8921
N6470 X-2.6738 Y-0.8837
N6475 X-2.67 Y-0.8753
N6480 X-2.6638 Y-0.8618
N6485 X-2.6611 Y-0.8563
N6490 X-2.6484 Y-0.831
N6495 X-2.642 Y-0.8184
N6500 X-2.6353 Y-0.8058
N6505 X-2.6214 Y-0.7805
N6510 X-2.6133 Y-0.7662
N6515 X-2.5993 Y-0.7426
N6520 X-2.5916 Y-0.7299
N6525 X-2.5754 Y-0.7045
N6530 X-2.5672 Y-0.692
N6535 X-2.5499 Y-0.6667
N6540 X-2.5411 Y-0.6541
N6545 X-2.5318 Y-0.6414
N6550 X-2.5122 Y-0.6151
N6555 X-2.493 Y-0.5909
N6560 X-2.487 Y-0.5834
N6565 X-2.4721 Y-0.5656
N6570 X-2.4613 Y-0.5529
N6575 X-2.4491 Y-0.5388
N6580 X-2.4238 Y-0.5112
N6585 X-2.4155 Y-0.5024
N6590 X-2.3907 Y-0.4771
N6595 X-2.3859 Y-0.4723
N6600 X-2.3733 Y-0.4602
N6605 X-2.3511 Y-0.4392
N6610 X-2.3354 Y-0.4251
N6615 X-2.3227 Y-0.4139
N6620 X-2.308 Y-0.4012
N6625 X-2.2774 Y-0.3759
N6630 X-2.2446 Y-0.3507
N6635 X-2.2344 Y-0.3431
N6640 X-2.2091 Y-0.3249
N6645 X-2.1965 Y-0.3161
N6650 X-2.1712 Y-0.2993
N6655 X-2.1586 Y-0.291
N6660 X-2.1207 Y-0.2676
N6665 X-2.0828 Y-0.246
N6670 X-2.0659 Y-0.2369
N6675 X-2.0419 Y-0.2242
N6680 X-2.0323 Y-0.2195
N6685 X-2.0071 Y-0.2072
N6690 X-1.9897 Y-0.199
N6695 X-1.9565 Y-0.1844
N6700 X-1.9439 Y-0.179
N6705 X-1.9187 Y-0.1689
N6710 X-1.906 Y-0.1639
N6715 X-1.8934 Y-0.1593
N6720 X-1.8632 Y-0.1484
N6725 X-1.8555 Y-0.1458
N6730 X-1.8245 Y-0.1358
N6735 X-1.8176 Y-0.1336
N6740 X-1.805 Y-0.1298
N6745 X-1.7671 Y-0.1191
N6750 X-1.7292 Y-0.1097
N6755 X-1.7166 Y-0.1068
N6760 X-1.6787 Y-0.0988
N6765 X-1.674 Y-0.0978
N6770 X-1.6408 Y-0.092
N6775 X-1.6282 Y-0.0899
N6780 X-1.6156 Y-0.088
N6785 X-1.5903 Y-0.0844
N6790 X-1.5777 Y-0.0828
N6795 X-1.5524 Y-0.0801
N6800 X-1.5398 Y-0.0788
N6805 X-1.5272 Y-0.0776
N6810 X-1.4893 Y-0.075
N6815 X-1.4766 Y-0.0744
N6820 X-1.4387 Y-0.073
N6825 X-1.4261 Y-0.0729
N6830 X-1.4009
N6835 X-1.3882 Y-0.073
N6840 X-1.3503 Y-0.0742
N6845 X-1.3377 Y-0.0748
N6850 X-1.2998 Y-0.0773
N6855 X-1.2872 Y-0.0784
N6860 X-1.2619 Y-0.081
N6865 X-1.2493 Y-0.0823
N6870 X-1.2367 Y-0.0839
N6875 X-1.2114 Y-0.0873
N6880 X-1.1988 Y-0.0892
N6885 X-1.1862 Y-0.0913
N6890 X-1.1609 Y-0.0956
N6895 X-1.1483 Y-0.0979
N6900 X-1.1104 Y-0.1058
N6905 X-1.0978 Y-0.1087
N6910 X-1.0599 Y-0.118
N6915 X-1.0346 Y-0.125
N6920 X-1.022 Y-0.1286
N6925 X-1.0093 Y-0.1323
N6930 X-0.9715 Y-0.1443
N6935 X-0.9588 Y-0.1486
N6940 X-0.9336 Y-0.1577
N6945 X-0.9209 Y-0.1623
N6950 X-0.9083 Y-0.1672
N6955 X-0.8831 Y-0.1772
N6960 X-0.8704 Y-0.1825
N6965 X-0.8452 Y-0.1936
N6970 X-0.8325 Y-0.1992
N6975 X-0.8199 Y-0.2051
N6980 X-0.7947 Y-0.2173
N6985 X-0.7808 Y-0.2242
N6990 X-0.7567 Y-0.2369
N6995 X-0.7441 Y-0.2436
N7000 X-0.7062 Y-0.2651
N7005 X-0.6684 Y-0.2883
N7010 X-0.6557 Y-0.2965
N7015 X-0.6305 Y-0.3132
N7020 X-0.6178 Y-0.3219
N7025 X-0.5926 Y-0.3399
N7030 X-0.5781 Y-0.3507
N7035 X-0.5547 Y-0.3686
N7040 X-0.5453 Y-0.3759
N7045 X-0.5146 Y-0.4012
N7050 X-0.5042 Y-0.4101
N7055 X-0.4856 Y-0.4265
N7060 X-0.4716 Y-0.4392
N7065 X-0.4448 Y-0.4644
N7070 X-0.441 Y-0.4681
N7075 X-0.4284 Y-0.4807
N7080 X-0.4071 Y-0.5024
N7085 X-0.4031 Y-0.5065
N7090 X-0.3779 Y-0.534
N7095 X-0.3653 Y-0.5484
N7100 X-0.3505 Y-0.5656
N7105 X-0.3398 Y-0.5782
N7110 X-0.3147 Y-0.6095
N7115 X-0.3097 Y-0.6161
N7120 X-0.2895 Y-0.6432
N7125 X-0.2816 Y-0.6541
N7130 X-0.264 Y-0.6793
N7135 X-0.2554 Y-0.692
N7140 X-0.231 Y-0.7299
N7145 X-0.2084 Y-0.7678
N7150 X-0.2011 Y-0.7808
N7155 X-0.1873 Y-0.8058
N7160 X-0.1806 Y-0.8184
N7165 X-0.1678 Y-0.8437
N7170 X-0.1616 Y-0.8563
N7175 X-0.1556 Y-0.869
N7180 X-0.1439 Y-0.8943
N7185 X-0.1379 Y-0.9078
N7190 X-0.1253 Y-0.9378
N7195 X-0.1175 Y-0.9575
N7200 X-0.1147 Y-0.9649
N7205 X-0.1137 Y-0.9634 Z-0.2846
N7210 X-0.1082 Y-0.9448 Z-0.2855
N7215 X-0.1041 Y-0.9322 Z-0.2861
N7220 X-0.0999 Y-0.9195 Z-0.2867
N7225 X-0.0953 Y-0.9069 Z-0.2873
N7230 X-0.0905 Y-0.8943 Z-0.2879
N7235 X-0.0874 Y-0.8861 Z-0.2884
N7240 X-0.0802 Y-0.869 Z-0.2893
N7245 X-0.0747 Y-0.8563 Z-0.29
N7250 X-0.0689 Y-0.8437 Z-0.2908
N7255 X-0.0622 Y-0.8298 Z-0.2916
N7260 X-0.0564 Y-0.8184 Z-0.2923
N7265 X-0.0495 Y-0.8056 Z-0.2931
N7270 X-0.0427 Y-0.7931 Z-0.2939
N7275 X-0.0352 Y-0.7805 Z-0.2948
N7280 X-0.0277 Y-0.7678 Z-0.2957
N7285 X-0.0195 Y-0.7552 Z-0.2966
N7290 X-0.0112 Y-0.7426 Z-0.2975
N7295 X-0.0024 Y-0.7299 Z-0.2984
N7300 X0.001 Y-0.7251 Z-0.2988
N7305 X0.0067 Y-0.7173 Z-0.2994
N7310 X0.0161 Y-0.7046 Z-0.3004
N7315 X0.0263 Y-0.6916 Z-0.3015
N7320 X0.0389 Y-0.6762 Z-0.3028
N7325 X0.0515 Y-0.6617 Z-0.304
N7330 X0.0641 Y-0.6478 Z-0.3053
N7335 X0.0768 Y-0.6345 Z-0.3065
N7340 X0.0824 Y-0.6288 Z-0.307
N7345 X0.0955 Y-0.6161 Z-0.3082
N7350 X0.1091 Y-0.6035 Z-0.3095
N7355 X0.1147 Y-0.5985 Z-0.31
N7360 X0.1233 Y-0.5909 Z-0.3108
N7365 X0.1399 Y-0.5769 Z-0.3123
N7370 X0.1543 Y-0.5656 Z-0.3136
N7375 X0.1652 Y-0.5573 Z-0.3145
N7380 X0.171 Y-0.5529 Z-0.315
N7385 X0.1778 Y-0.548 Z-0.3156
N7390 X0.1904 Y-0.539 Z-0.3167
N7395 X0.2075 Y-0.5276 Z-0.3181
N7400 X0.2157 Y-0.5223 Z-0.3188
N7405 X0.2283 Y-0.5145 Z-0.3198
N7410 X0.241 Y-0.5069 Z-0.3209
N7415 X2.6405 Y0.9106 Z-0.5157
N7420 X2.6531 Y0.9184 Z-0.5168
N7425 X2.6658 Y0.9267 Z-0.5178
N7430 X2.6784 Y0.9357 Z-0.5189
N7435 X2.6825 Y0.9388 Z-0.5193
N7440 X2.691 Y0.9455 Z-0.52
N7445 X2.6985 Y0.9514 Z-0.5207
N7450 X2.7037 Y0.9559 Z-0.5212
N7455 X2.713 Y0.9641 Z-0.522
N7460 X2.7163 Y0.9671 Z-0.5223
N7465 X2.7289 Y0.9793 Z-0.5235
N7470 X2.7386 Y0.9894 Z-0.5244
N7475 X2.7416 Y0.9925 Z-0.5247
N7480 X2.75 Y1.002 Z-0.5256
N7485 X2.7542 Y1.007 Z-0.526
N7490 X2.7604 Y1.0146 Z-0.5267
N7495 X2.7668 Y1.0229 Z-0.5273
N7500 X2.7701 Y1.0273 Z-0.5277
N7505 X2.7794 Y1.0404 Z-0.5287
N7510 X2.7873 Y1.0526 Z-0.5296
N7515 X2.795 Y1.0652 Z-0.5305
N7520 X2.8021 Y1.0778 Z-0.5314
N7525 X2.8086 Y1.0905 Z-0.5323
N7530 X2.8146 Y1.1031 Z-0.5331
N7535 X2.8173 Y1.1092 Z-0.5335
N7540 X2.8201 Y1.1158 Z-0.5339
N7545 X2.8252 Y1.1284 Z-0.5346
N7550 X2.83 Y1.1414 Z-0.5354
N7555 X2.834 Y1.1537 Z-0.5361
N7560 X2.8378 Y1.1663 Z-0.5368
N7565 X2.8412 Y1.179 Z-0.5375
N7570 X2.8441 Y1.1916 Z-0.5381
N7575 X2.8466 Y1.2043 Z-0.5387
N7580 X2.8486 Y1.2169 Z-0.5393
N7585 X2.8504 Y1.2295 Z-0.5399
N7590 X2.8517 Y1.2422 Z-0.5404
N7595 X2.8527 Y1.2548 Z-0.541
N7600 X2.8533 Y1.2675 Z-0.5415
N7605 X2.8535 Y1.2801 Z-0.542
N7610 X2.8534 Y1.2928 Z-0.5424
N7615 X2.8529 Y1.3054 Z-0.5429
N7620 X2.852 Y1.318 Z-0.5433
N7625 X2.8508 Y1.3307 Z-0.5437
N7630 X2.8492 Y1.3433 Z-0.5441
N7635 X2.8471 Y1.356 Z-0.5445
N7640 X2.8448 Y1.3686 Z-0.5448
N7645 X2.8419 Y1.3812 Z-0.5452
N7650 X2.8388 Y1.3939 Z-0.5455
N7655 X2.8351 Y1.4065 Z-0.5457
N7660 X2.831 Y1.4192 Z-0.546
N7665 X2.8265 Y1.4318 Z-0.5462
N7670 X2.8216 Y1.4445 Z-0.5465
N7675 X2.8164 Y1.4571 Z-0.5467
N7680 X2.7579 Y1.5962 Z-0.549
N7685 X2.6994 Y1.7352 Z-0.5516
N7690 X2.6405 Y1.8752 Z-0.5545
N7695 X2.5824 Y2.0133 Z-0.5576
N7700 X2.5185 Y2.165 Z-0.5614
N7705 X2.4547 Y2.3167 Z-0.5654
N7710 X2.3909 Y2.4684 Z-0.5698
N7715 X2.35 Y2.5654 Z-0.5727
N7720 X2.3425 Y2.5822 Z-0.5732
N7725 X2.3362 Y2.5949 Z-0.5736
N7730 X2.3294 Y2.6075 Z-0.5739
N7735 X2.3217 Y2.6201 Z-0.5742
N7740 X2.3122 Y2.6344 Z-0.5745
N7745 X2.3041 Y2.6454 Z-0.5747
N7750 X2.2995 Y2.6513 Z-0.5748
N7755 X2.2939 Y2.6581 Z-0.5749
N7760 X2.2869 Y2.6663 Z-0.575
N7765 X2.283 Y2.6707
N7770 X2.2743 Y2.6798 Z-0.5751
N7775 X2.2707 Y2.6833
N7780 X2.2616 Y2.692
N7785 X2.2572 Y2.696
N7790 X2.249 Y2.7028
N7795 X2.2419 Y2.7086
N7800 X2.2364 Y2.7128
N7805 X2.2238 Y2.7219 Z-0.575
N7810 X2.2111 Y2.7301 Z-0.5748
N7815 X2.1985 Y2.7377 Z-0.5746
N7820 X2.1859 Y2.7444 Z-0.5744
N7825 X2.1732 Y2.7507 Z-0.5742
N7830 X2.1606 Y2.7562 Z-0.5739
N7835 X2.148 Y2.7613 Z-0.5736
N7840 X2.1353 Y2.7657 Z-0.5733
N7845 X2.1227 Y2.7697 Z-0.5729
N7850 X2.1101 Y2.7729 Z-0.5725
N7855 X2.0975 Y2.7758 Z-0.5721
N7860 X2.0848 Y2.7781 Z-0.5717
N7865 X2.0722 Y2.78 Z-0.5712
N7870 X2.0596 Y2.7815 Z-0.5708
N7875 X2.0469 Y2.7825 Z-0.5703
N7880 X2.0343 Y2.783 Z-0.5697
N7885 X2.0217 Y2.7832 Z-0.5692
N7890 X2.0091 Y2.7827 Z-0.5686
N7895 X1.9964 Y2.782 Z-0.568
N7900 X1.9838 Y2.7806 Z-0.5674
N7905 X1.9712 Y2.7788 Z-0.5667
N7910 X1.9585 Y2.7765 Z-0.566
N7915 X1.9459 Y2.7738 Z-0.5653
N7920 X1.9333 Y2.7705 Z-0.5646
N7925 X1.9206 Y2.7668 Z-0.5639
N7930 X1.908 Y2.7625 Z-0.5631
N7935 X1.899 Y2.7592 Z-0.5625
N7940 X1.8828 Y2.7524 Z-0.5614
N7945 X1.8701 Y2.7464 Z-0.5606
N7950 X1.8575 Y2.7398 Z-0.5597
N7955 X1.8449 Y2.7326 Z-0.5587
N7960 X1.8322 Y2.7243 Z-0.5577
N7965 X1.8277 Y2.7213 Z-0.5574
N7970 X1.8196 Y2.7155 Z-0.5567
N7975 X1.8104 Y2.7086 Z-0.5559
N7980 X1.7944 Y2.6954 Z-0.5545
N7985 X1.7658 Y2.6707 Z-0.5519
N7990 X1.7509 Y2.6581 Z-0.5506
N7995 X1.7312 Y2.6417 Z-0.5488
N8000 X1.7186 Y2.6314 Z-0.5477
N8005 X1.7046 Y2.6201 Z-0.5465
N8010 X1.6885 Y2.6075 Z-0.5451
N8015 X1.6723 Y2.5949 Z-0.5437
N8020 X1.6554 Y2.582 Z-0.5423
N8025 X1.6387 Y2.5696 Z-0.5409
N8030 X1.6175 Y2.5541 Z-0.5391
N8035 X1.6038 Y2.5443 Z-0.538
N8040 X1.5797 Y2.5274 Z-0.5361
N8045 X1.567 Y2.5187 Z-0.535
N8050 X1.5418 Y2.5018 Z-0.533
N8055 X1.5291 Y2.4934 Z-0.532
N8060 X1.5039 Y2.4772 Z-0.5301
N8065 X1.4786 Y2.4614 Z-0.5281
N8070 X1.4534 Y2.4461 Z-0.5262
N8075 X1.4407 Y2.4386 Z-0.5253
N8080 X1.4155 Y2.4239 Z-0.5234
N8085 X1.3902 Y2.4096 Z-0.5216
N8090 X1.365 Y2.3958 Z-0.5198
N8095 X1.335 Y2.3799 Z-0.5176
N8100 X1.3104 Y2.3673 Z-0.5159
N8105 X1.285 Y2.3547 Z-0.5142
N8110 X1.2587 Y2.342 Z-0.5124
N8115 X1.2315 Y2.3294 Z-0.5106
N8120 X1.2034 Y2.3167 Z-0.5087
N8125 X1.1881 Y2.3101 Z-0.5077
N8130 X1.1629 Y2.2993 Z-0.5061
N8135 X1.1439 Y2.2915 Z-0.5049
N8140 X1.125 Y2.2838 Z-0.5037
N8145 X1.0997 Y2.274 Z-0.5022
N8150 X1.0792 Y2.2662 Z-0.5009
N8155 X1.0619 Y2.2598 Z-0.4999
N8160 X1.0366 Y2.2507 Z-0.4984
N8165 X1.0113 Y2.242 Z-0.4969
N8170 X0.9608 Y2.2257 Z-0.494
N8175 X0.9482 Y2.2217 Z-0.4933
N8180 X0.9229 Y2.2141 Z-0.4919
N8185 X0.8977 Y2.2069 Z-0.4905
N8190 X0.8724 Y2.1999 Z-0.4892
N8195 X0.8472 Y2.1933 Z-0.4879
N8200 X0.8219 Y2.187 Z-0.4866
N8205 X0.7966 Y2.181 Z-0.4853
N8210 X0.7821 Y2.1777 Z-0.4845
N8215 X0.7588 Y2.1725 Z-0.4834
N8220 X0.7335 Y2.1673 Z-0.4822
N8225 X0.7082 Y2.1623 Z-0.481
N8230 X0.683 Y2.1576 Z-0.4798
N8235 X0.6703 Y2.1554 Z-0.4792
N8240 X0.6451 Y2.1511 Z-0.4781
N8245 X0.6198 Y2.1472 Z-0.477
N8250 X0.5946 Y2.1435 Z-0.4759
N8255 X0.5819 Y2.1418 Z-0.4754
N8260 X0.5567 Y2.1386 Z-0.4743
N8265 X0.5314 Y2.1357 Z-0.4733
N8270 X0.5062 Y2.133 Z-0.4723
N8275 X0.4809 Y2.1306 Z-0.4713
N8280 X0.4556 Y2.1285 Z-0.4704
N8285 X0.4304 Y2.1267 Z-0.4695
N8290 X0.4178 Y2.1259 Z-0.469
N8295 X0.3925 Y2.1245 Z-0.4681
N8300 X0.3672 Y2.1234 Z-0.4673
N8305 X0.342 Y2.1225 Z-0.4664
N8310 X0.3294 Y2.1222 Z-0.466
N8315 X0.3041 Y2.1218 Z-0.4652
N8320 X0.2788 Y2.1217 Z-0.4645
N8325 X0.2662 Z-0.4641
N8330 X0.241 Y2.122 Z-0.4634
N8335 X0.2157 Y2.1225 Z-0.4627
N8340 X0.1904 Y2.1234 Z-0.462
N8345 X0.1778 Y2.1239 Z-0.4617
N8350 X0.1525 Y2.1252 Z-0.461
N8355 X0.1216 Y2.1271 Z-0.4603
N8360 X0.0894 Y2.1295 Z-0.4596
N8365 X0.0641 Y2.1318 Z-0.459
N8370 X0.0389 Y2.1343 Z-0.4585
N8375 X0.0263 Y2.1357 Z-0.4583
N8380 X-0.0084 Y2.1398 Z-0.4577
N8385 X-0.1632 Y2.1591 Z-0.4552
N8390 X-0.2895 Y2.1749 Z-0.4535
N8395 X-0.4158 Y2.1907 Z-0.4521
N8400 X-0.5547 Y2.2081 Z-0.4509
N8405 X-0.681 Y2.2239 Z-0.4502
N8410 X-0.7947 Y2.2381 Z-0.4497
N8415 X-1.0472 Y2.2697 Z-0.4496
N8420 X-1.1735 Y2.2855 Z-0.45
N8425 X-1.2998 Y2.3013 Z-0.4507
N8430 X-1.4261 Y2.3171 Z-0.4517
N8435 X-1.565 Y2.3345 Z-0.4531
N8440 X-1.6913 Y2.3503 Z-0.4547
N8445 X-1.8303 Y2.3677 Z-0.4568
N8450 X-1.9565 Y2.3834 Z-0.459
N8455 X-2.0702 Y2.3977 Z-0.4612
N8460 X-2.0828 Y2.3992 Z-0.4614
N8465 X-2.0955 Y2.4006 Z-0.4617
N8470 X-2.1081 Y2.4017 Z-0.4619
N8475 X-2.1207 Y2.4026 Z-0.4621
N8480 X-2.1334 Y2.4031 Z-0.4623
N8485 X-2.146 Y2.4034 Z-0.4625
N8490 X-2.1586 Y2.4033 Z-0.4627
N8495 X-2.1712 Y2.403 Z-0.4628
N8500 X-2.1839 Y2.4024 Z-0.463
N8505 X-2.1965 Y2.4014 Z-0.4631
N8510 X-2.2091 Y2.4002 Z-0.4632
N8515 X-2.2218 Y2.3987
N8520 X-2.2344 Y2.3969 Z-0.4633
N8525 X-2.247 Y2.3948
N8530 X-2.2596 Y2.3924 Z-0.4634
N8535 X-2.2723 Y2.3896
N8540 X-2.2849 Y2.3867
N8545 X-2.2975 Y2.3834 Z-0.4633
N8550 X-2.3102 Y2.3797
N8555 X-2.3228 Y2.3757 Z-0.4632
N8560 X-2.3354 Y2.3714 Z-0.4631
N8565 X-2.3481 Y2.3666 Z-0.463
N8570 X-2.3607 Y2.3616 Z-0.4629
N8575 X-2.3769 Y2.3547 Z-0.4627
N8580 X-2.3859 Y2.3504 Z-0.4626
N8585 X-2.3986 Y2.3442 Z-0.4624
N8590 X-2.4112 Y2.3376 Z-0.4621
N8595 X-2.4238 Y2.3306 Z-0.4619
N8600 X-2.4365 Y2.3231 Z-0.4616
N8605 X-2.4491 Y2.3152 Z-0.4613
N8610 X-2.4617 Y2.3068 Z-0.461
N8615 X-2.4656 Y2.3041 Z-0.4609
N8620 X-2.4743 Y2.2978 Z-0.4606
N8625 X-2.483 Y2.2915 Z-0.4603
N8630 X-2.4996 Y2.2783 Z-0.4598
N8635 X-2.5139 Y2.2662 Z-0.4592
N8640 X-2.5249 Y2.2562 Z-0.4588
N8645 X-2.5277 Y2.2535 Z-0.4587
N8650 X-2.5375 Y2.244 Z-0.4582
N8655 X-2.5406 Y2.2409 Z-0.4581
N8660 X-2.5501 Y2.2311 Z-0.4576
N8665 X-2.5628 Y2.2172 Z-0.457
N8670 X-2.5754 Y2.2024 Z-0.4562
N8675 X-2.585 Y2.1903 Z-0.4556
N8680 X-2.588 Y2.1864 Z-0.4555
N8685 X-2.5944 Y2.1777 Z-0.455
N8690 X-2.6006 Y2.169 Z-0.4546
N8695 X-2.6034 Y2.165 Z-0.4544
N8700 X-2.6119 Y2.1524 Z-0.4537
N8705 X-2.6198 Y2.1398 Z-0.453
N8710 X-2.6273 Y2.1271 Z-0.4524
N8715 X-2.6343 Y2.1145 Z-0.4517
N8720 X-2.6409 Y2.1018 Z-0.451
N8725 X-2.6471 Y2.0892 Z-0.4503
N8730 X-2.6512 Y2.0805 Z-0.4498
N8735 X-2.6583 Y2.0639 Z-0.4489
N8740 X-2.6638 Y2.05 Z-0.4481
N8745 X-2.668 Y2.0386 Z-0.4475
N8750 X-2.6723 Y2.026 Z-0.4467
N8755 X-2.6764 Y2.0132 Z-0.446
N8760 X-2.6801 Y2.0007 Z-0.4453
N8765 X-2.6834 Y1.9881 Z-0.4445
N8770 X-2.6864 Y1.9754 Z-0.4438
N8775 X-2.6891 Y1.9628 Z-0.443
N8780 X-2.6915 Y1.9501 Z-0.4422
N8785 X-2.6936 Y1.9375 Z-0.4415
N8790 X-2.6953 Y1.9248 Z-0.4407
N8795 X-2.6968 Y1.9122 Z-0.4399
N8800 X-2.6981 Y1.8996 Z-0.4391
N8805 X-2.699 Y1.8869 Z-0.4383
N8810 X-2.6996 Y1.8743 Z-0.4375
N8815 X-2.6999 Y1.8616 Z-0.4367
N8820 X-2.7 Y1.849 Z-0.4358
N8825 Y1.5203 Z-0.4146
N8830 Y1.2295 Z-0.3961
N8835 Y0.9767 Z-0.3803
N8840 Y0.7492 Z-0.3664
N8845 Y0.5469 Z-0.3543
N8850 Y0.3699 Z-0.344
N8855 Y0.2056 Z-0.3348
N8860 X-2.7001 Y0.0539 Z-0.3265
N8865 Y-0.0852 Z-0.3193
N8870 Y-0.2116 Z-0.313
N8875 Y-0.3254 Z-0.3076
N8880 Y-0.4392 Z-0.3025
N8885 Y-0.5529 Z-0.2977
N8890 Y-0.6541 Z-0.2938
N8895 Y-0.7426 Z-0.2906
N8900 Y-0.831 Z-0.2878
N8905 Y-0.9195 Z-0.2852
N8910 Y-0.942 Z-0.2846
N8915 X-2.6999 Y-0.9441 Z-0.2845
N8920 X-2.695 Y-0.9322
N8925 X-2.6844 Y-0.9069
N8930 X-2.6787 Y-0.8943
N8935 X-2.67 Y-0.8753
N8940 X-2.6672 Y-0.869
N8945 X-2.6647 Y-0.8625 Z-0.2846
N8950 X-2.6623 Y-0.8559
N8955 X-2.6601 Y-0.8493 Z-0.2847
N8960 X-2.6582 Y-0.8426 Z-0.2848
N8965 X-2.6563 Y-0.8359 Z-0.2849
N8970 X-2.6547 Y-0.8291 Z-0.285
N8975 X-2.6531 Y-0.8223 Z-0.2851
N8980 X-2.6516 Y-0.8155 Z-0.2852
N8985 X-2.649 Y-0.8017 Z-0.2855
N8990 X-2.6418 Y-0.7604 Z-0.2864
N8995 X-2.6392 Y-0.7468 Z-0.2867
N9000 X-2.6378 Y-0.74 Z-0.2869
N9005 X-2.6363 Y-0.7333 Z-0.2871
N9010 X-2.6346 Y-0.7265 Z-0.2872
N9015 X-2.6328 Y-0.7198 Z-0.2873
N9020 X-2.6309 Y-0.7132 Z-0.2875
N9025 X-2.6288 Y-0.7067 Z-0.2876
N9030 X-2.6265 Y-0.7002 Z-0.2877
N9035 X-2.6241 Y-0.6938 Z-0.2878
N9040 X-2.6214 Y-0.6875 Z-0.2879
N9045 X-2.6184 Y-0.6813
N9050 X-2.6153 Y-0.6752 Z-0.288
N9055 X-2.6118 Y-0.6693
N9060 X-2.6081 Y-0.6635
N9065 X-2.6006 Y-0.6525
N9070 X-2.5843 Y-0.6288
N9075 X-2.5751 Y-0.6161
N9080 X-2.5564 Y-0.5909
N9085 X-2.5501 Y-0.5826
N9090 X-2.5265 Y-0.5529
N9095 X-2.5122 Y-0.5357
N9100 X-2.4945 Y-0.515
N9105 X-2.487 Y-0.5063
N9110 X-2.4602 Y-0.4771
N9115 X-2.4482 Y-0.4644
N9120 X-2.4233 Y-0.4392
N9125 X-2.4103 Y-0.4265
N9130 X-2.397 Y-0.4139
N9135 X-2.3835 Y-0.4012
N9140 X-2.3607 Y-0.3809
N9145 X-2.3481 Y-0.3699
N9150 X-2.3404 Y-0.3633
N9155 X-2.3098 Y-0.338
N9160 X-2.2771 Y-0.3127
N9165 X-2.2723 Y-0.3091
N9170 X-2.2596 Y-0.2998
N9175 X-2.2344 Y-0.2817
N9180 X-2.2245 Y-0.2748
N9185 X-2.1965 Y-0.2562
N9190 X-2.1839 Y-0.248
N9195 X-2.1453 Y-0.2242
N9200 X-2.1081 Y-0.203
N9205 X-2.0955 Y-0.1961
N9210 X-2.0702 Y-0.1828
N9215 X-2.0576 Y-0.1763
N9220 X-2.0323 Y-0.164
N9225 X-2.0197 Y-0.158
N9230 X-2.0071 Y-0.1521
N9235 X-1.9818 Y-0.141
N9240 X-1.9692 Y-0.1355
N9245 X-1.9565 Y-0.1303
N9250 X-1.9313 Y-0.1203
N9255 X-1.9187 Y-0.1154
N9260 X-1.8808 Y-0.1017
N9265 X-1.8681 Y-0.0974
N9270 X-1.8429 Y-0.0893
N9275 X-1.8298 Y-0.0852
N9280 X-1.8176 Y-0.0816
N9285 X-1.7797 Y-0.0708
N9290 X-1.7418 Y-0.0614
N9295 X-1.7292 Y-0.0585
N9300 X-1.6913 Y-0.0505
N9305 X-1.6787 Y-0.048
N9310 X-1.6534 Y-0.0436
N9315 X-1.6408 Y-0.0414
N9320 X-1.6282 Y-0.0394
N9325 X-1.6029 Y-0.0358
N9330 X-1.5903 Y-0.0342
N9335 X-1.5777 Y-0.0326
N9340 X-1.5524 Y-0.03
N9345 X-1.5398 Y-0.0287
N9350 X-1.5272 Y-0.0276
N9355 X-1.5019 Y-0.0259
N9360 X-1.4893 Y-0.0251
N9365 X-1.4766 Y-0.0245
N9370 X-1.4387 Y-0.0232
N9375 X-1.4135 Y-0.023
N9380 X-1.3882 Y-0.0231
N9385 X-1.3503 Y-0.0243
N9390 X-1.3377 Y-0.0248
N9395 X-1.3251 Y-0.0256
N9400 X-1.2998 Y-0.0273
N9405 X-1.2872 Y-0.0283
N9410 X-1.2619 Y-0.0308
N9415 X-1.2493 Y-0.0322
N9420 X-1.2367 Y-0.0336
N9425 X-1.224 Y-0.0353
N9430 X-1.1988 Y-0.0388
N9435 X-1.1862 Y-0.0407
N9440 X-1.1609 Y-0.045
N9445 X-1.1481 Y-0.0473
N9450 X-1.1356 Y-0.0496
N9455 X-1.0978 Y-0.0576
N9460 X-1.0851 Y-0.0604
N9465 X-1.0472 Y-0.0697
N9470 X-1.022 Y-0.0768
N9475 X-1.0093 Y-0.0803
N9480 X-0.9928 Y-0.0852
N9485 X-0.9588 Y-0.096
N9490 X-0.9462 Y-0.1002
N9495 X-0.9174 Y-0.1105
N9500 X-0.9083 Y-0.1138
N9505 X-0.8957 Y-0.1186
N9510 X-0.8704 Y-0.1286
N9515 X-0.853 Y-0.1358
N9520 X-0.824 Y-0.1484
N9525 X-0.8073 Y-0.156
N9530 X-0.7947 Y-0.1619
N9535 X-0.7694 Y-0.1741
N9540 X-0.7568 Y-0.1806
N9545 X-0.7315 Y-0.1938
N9550 X-0.7189 Y-0.2005
N9555 X-0.681 Y-0.2221
N9560 X-0.6431 Y-0.2453
N9565 X-0.6305 Y-0.2534
N9570 X-0.6052 Y-0.2701
N9575 X-0.5926 Y-0.2787
N9580 X-0.5625 Y-0.3001
N9585 X-0.5547 Y-0.3059
N9590 X-0.5421 Y-0.3154
N9595 X-0.5291 Y-0.3254
N9600 X-0.5129 Y-0.338
N9605 X-0.4822 Y-0.3633
N9610 X-0.4663 Y-0.3771
N9615 X-0.4532 Y-0.3886
N9620 X-0.4392 Y-0.4012
N9625 X-0.4257 Y-0.4139
N9630 X-0.4123 Y-0.4265
N9635 X-0.4031 Y-0.4354
N9640 X-0.3869 Y-0.4518
N9645 X-0.3745 Y-0.4644
N9650 X-0.3653 Y-0.4741
N9655 X-0.34 Y-0.5016
N9660 X-0.3274 Y-0.5159
N9665 X-0.3147 Y-0.5306
N9670 X-0.3021 Y-0.5456
N9675 X-0.2759 Y-0.5782
N9680 X-0.2642 Y-0.5937
N9685 X-0.2475 Y-0.6161
N9690 X-0.2384 Y-0.6288
N9695 X-0.2209 Y-0.6541
N9700 X-0.2137 Y-0.6646
N9705 X-0.1884 Y-0.7039
N9710 X-0.1654 Y-0.7426
N9715 X-0.1583 Y-0.7552
N9720 X-0.1443 Y-0.7805
N9725 X-0.1376 Y-0.7931
N9730 X-0.1247 Y-0.8184
N9735 X-0.1184 Y-0.831
N9740 X-0.1181
N9745 X-0.1121 Y-0.8184 Z-0.2888
N9750 X-0.106 Y-0.8058 Z-0.2896
N9755 X-0.0995 Y-0.7931 Z-0.2904
N9760 X-0.0927 Y-0.7805 Z-0.2912
N9765 X-0.0858 Y-0.7678 Z-0.292
N9770 X-0.0748 Y-0.7493 Z-0.2933
N9775 X-0.0708 Y-0.7426 Z-0.2938
N9780 X-0.0622 Y-0.7291 Z-0.2948
N9785 X-0.0544 Y-0.7173 Z-0.2957
N9790 X-0.0457 Y-0.7046 Z-0.2966
N9795 X-0.0367 Y-0.692 Z-0.2976
N9800 X-0.0243 Y-0.6752 Z-0.2989
N9805 X-0.0116 Y-0.659 Z-0.3002
N9810 X0.001 Y-0.6436 Z-0.3016
N9815 X0.0139 Y-0.6288 Z-0.3029
N9820 X0.0263 Y-0.6152 Z-0.3041
N9825 X0.0389 Y-0.6018 Z-0.3053
N9830 X0.0515 Y-0.5891 Z-0.3065
N9835 X0.0641 Y-0.577 Z-0.3077
N9840 X0.0768 Y-0.5653 Z-0.3089
N9845 X0.0907 Y-0.5529 Z-0.3102
N9850 X0.1058 Y-0.5403 Z-0.3115
N9855 X0.1216 Y-0.5276 Z-0.313
N9860 X0.1399 Y-0.5137 Z-0.3145
N9865 X0.1556 Y-0.5024 Z-0.3159
N9870 X0.1652 Y-0.4958 Z-0.3167
N9875 X0.1778 Y-0.4873 Z-0.3178
N9880 X0.1904 Y-0.4791 Z-0.3188
N9885 X0.2031 Y-0.4713 Z-0.3199
N9890 X0.2157 Y-0.4637 Z-0.3209
N9895 X2.6113 Y0.9514 Z-0.5154
N9900 X2.6153 Y0.9538 Z-0.5158
N9905 X2.6279 Y0.9617 Z-0.5168
N9910 X2.6405 Y0.9701 Z-0.5179
N9915 X2.6498 Y0.9767 Z-0.5187
N9920 X2.6531 Y0.9793 Z-0.519
N9925 X2.6658 Y0.9894 Z-0.5201
N9930 X2.6804 Y1.002 Z-0.5214
N9935 X2.691 Y1.0121 Z-0.5224
N9940 X2.6936 Y1.0146 Z-0.5226
N9945 X2.7037 Y1.0252 Z-0.5236
N9950 X2.7056 Y1.0273 Z-0.5238
N9955 X2.7165 Y1.0399 Z-0.5249
N9960 X2.7265 Y1.0526 Z-0.526
N9965 X2.7289 Y1.0557 Z-0.5263
N9970 X2.7357 Y1.0652 Z-0.527
N9975 X2.7416 Y1.0739 Z-0.5277
N9980 X2.7441 Y1.0778 Z-0.528
N9985 X2.7519 Y1.0905 Z-0.5289
N9990 X2.7589 Y1.1031 Z-0.5298
N9995 X2.7653 Y1.1158 Z-0.5306
N10000 X2.7712 Y1.1284 Z-0.5314
N10005 X2.7764 Y1.1411 Z-0.5322
N10010 X2.7794 Y1.1487 Z-0.5327
N10015 X2.7813 Y1.1537 Z-0.533
N10020 X2.7856 Y1.1663 Z-0.5337
N10025 X2.7895 Y1.179 Z-0.5344
N10030 X2.7928 Y1.1916 Z-0.5351
N10035 X2.7957 Y1.2043 Z-0.5357
N10040 X2.7981 Y1.2169 Z-0.5363
N10045 X2.8 Y1.2295 Z-0.5369
N10050 X2.8015 Y1.2422 Z-0.5375
N10055 X2.8026 Y1.2548 Z-0.538
N10060 X2.8033 Y1.2675 Z-0.5385
N10065 X2.8036 Y1.2801 Z-0.539
N10070 X2.8034 Y1.2928 Z-0.5395
N10075 X2.8028 Y1.3054 Z-0.5399
N10080 X2.8019 Y1.318 Z-0.5404
N10085 X2.8005 Y1.3307 Z-0.5408
N10090 X2.7986 Y1.3433 Z-0.5412
N10095 X2.7964 Y1.356 Z-0.5415
N10100 X2.7936 Y1.3686 Z-0.5419
N10105 X2.7905 Y1.3812 Z-0.5422
N10110 X2.7867 Y1.3939 Z-0.5425
N10115 X2.7826 Y1.4065 Z-0.5427
N10120 X2.7794 Y1.4152 Z-0.5429
N10125 X2.7729 Y1.4318 Z-0.5432
N10130 X2.7542 Y1.4764 Z-0.5439
N10135 X2.7144 Y1.5709 Z-0.5455
N10140 X2.6559 Y1.7099 Z-0.5481
N10145 X2.5974 Y1.849 Z-0.551
N10150 X2.5389 Y1.9881 Z-0.5542
N10155 X2.4763 Y2.1367 Z-0.5579
N10160 X2.4112 Y2.2915 Z-0.562
N10165 X2.3474 Y2.4432 Z-0.5664
N10170 X2.3101 Y2.5316 Z-0.5691
N10175 X2.3048 Y2.5443 Z-0.5695
N10180 X2.2992 Y2.5569 Z-0.5699
N10185 X2.2931 Y2.5696 Z-0.5703
N10190 X2.2864 Y2.5822 Z-0.5706
N10195 X2.2786 Y2.5949 Z-0.5709
N10200 X2.2743 Y2.6013 Z-0.571
N10205 X2.27 Y2.6075 Z-0.5711
N10210 X2.2605 Y2.6201 Z-0.5713
N10215 X2.249 Y2.6338 Z-0.5715
N10220 X2.2381 Y2.6454 Z-0.5716
N10225 X2.2364 Y2.6472
N10230 X2.2248 Y2.6581 Z-0.5717
N10235 X2.2111 Y2.6693 Z-0.5716
N10240 X2.2093 Y2.6707
N10245 X2.1985 Y2.6787 Z-0.5715
N10250 X2.1916 Y2.6833
N10255 X2.1859 Y2.6871 Z-0.5714
N10260 X2.1732 Y2.6947 Z-0.5712
N10265 X2.1606 Y2.7013 Z-0.571
N10270 X2.148 Y2.7073 Z-0.5707
N10275 X2.1449 Y2.7086
N10280 X2.1353 Y2.7127 Z-0.5704
N10285 X2.1227 Y2.7173 Z-0.5701
N10290 X2.1101 Y2.7213 Z-0.5698
N10295 X2.0975 Y2.7246 Z-0.5694
N10300 X2.0848 Y2.7274 Z-0.569
N10305 X2.0722 Y2.7296 Z-0.5685
N10310 X2.0596 Y2.7312 Z-0.568
N10315 X2.0469 Y2.7324 Z-0.5675
N10320 X2.0343 Y2.733 Z-0.567
N10325 X2.0217 Y2.7332 Z-0.5665
N10330 X2.0091 Y2.7327 Z-0.5659
N10335 X1.9964 Y2.7317 Z-0.5653
N10340 X1.9838 Y2.7301 Z-0.5646
N10345 X1.9712 Y2.728 Z-0.564
N10350 X1.9585 Y2.7254 Z-0.5633
N10355 X1.9459 Y2.7222 Z-0.5625
N10360 X1.9333 Y2.7183 Z-0.5618
N10365 X1.9206 Y2.7139 Z-0.561
N10370 X1.9076 Y2.7086 Z-0.5601
N10375 X1.8954 Y2.7031 Z-0.5593
N10380 X1.8816 Y2.696 Z-0.5583
N10385 X1.8701 Y2.6894 Z-0.5574
N10390 X1.8575 Y2.6811 Z-0.5564
N10395 X1.8449 Y2.672 Z-0.5554
N10400 X1.8431 Y2.6707 Z-0.5552
N10405 X1.8322 Y2.6619 Z-0.5543
N10410 X1.8276 Y2.6581 Z-0.5539
N10415 X1.7984 Y2.6328 Z-0.5512
N10420 X1.7817 Y2.6186 Z-0.5497
N10425 X1.7565 Y2.5978 Z-0.5475
N10430 X1.7372 Y2.5822 Z-0.5458
N10435 X1.7186 Y2.5675 Z-0.5442
N10440 X1.7049 Y2.5569 Z-0.543
N10445 X1.6884 Y2.5443 Z-0.5416
N10450 X1.6681 Y2.5291 Z-0.5399
N10455 X1.6543 Y2.519 Z-0.5387
N10460 X1.6367 Y2.5064 Z-0.5373
N10465 X1.6175 Y2.4928 Z-0.5357
N10470 X1.6006 Y2.4811 Z-0.5344
N10475 X1.5797 Y2.4669 Z-0.5327
N10480 X1.5544 Y2.4502 Z-0.5307
N10485 X1.5291 Y2.434 Z-0.5287
N10490 X1.5039 Y2.4183 Z-0.5268
N10495 X1.4786 Y2.403 Z-0.5249
N10500 X1.4611 Y2.3926 Z-0.5235
N10505 X1.4392 Y2.3799 Z-0.5219
N10510 X1.4155 Y2.3665 Z-0.5202
N10515 X1.3902 Y2.3527 Z-0.5184
N10520 X1.365 Y2.3392 Z-0.5165
N10525 X1.3397 Y2.3262 Z-0.5148
N10530 X1.321 Y2.3167 Z-0.5135
N10535 X1.3018 Y2.3073 Z-0.5122
N10540 X1.2766 Y2.2952 Z-0.5104
N10545 X1.2513 Y2.2835 Z-0.5087
N10550 X1.226 Y2.2721 Z-0.5071
N10555 X1.2008 Y2.2611 Z-0.5054
N10560 X1.1755 Y2.2505 Z-0.5038
N10565 X1.1629 Y2.2452 Z-0.503
N10570 X1.1376 Y2.2351 Z-0.5014
N10575 X1.1124 Y2.2253 Z-0.4998
N10580 X1.0997 Y2.2205 Z-0.4991
N10585 X1.0745 Y2.2112 Z-0.4975
N10590 X1.0513 Y2.203 Z-0.4962
N10595 X1.0366 Y2.1979 Z-0.4953
N10600 X1.024 Y2.1936 Z-0.4945
N10605 X0.9861 Y2.1813 Z-0.4924
N10610 X0.9735 Y2.1773 Z-0.4916
N10615 X0.9608 Y2.1734 Z-0.4909
N10620 X0.9329 Y2.165 Z-0.4894
N10625 X0.9103 Y2.1586 Z-0.4881
N10630 X0.885 Y2.1516 Z-0.4868
N10635 X0.8598 Y2.145 Z-0.4855
N10640 X0.8345 Y2.1387 Z-0.4841
N10645 X0.8093 Y2.1327 Z-0.4829
N10650 X0.7848 Y2.1271 Z-0.4816
N10655 X0.7714 Y2.1242 Z-0.481
N10660 X0.7461 Y2.1189 Z-0.4797
N10665 X0.7209 Y2.1139 Z-0.4785
N10670 X0.7082 Y2.1115 Z-0.4779
N10675 X0.683 Y2.1069 Z-0.4768
N10680 X0.6577 Y2.1026 Z-0.4756
N10685 X0.6325 Y2.0986 Z-0.4745
N10690 X0.6072 Y2.0949 Z-0.4734
N10695 X0.5819 Y2.0915 Z-0.4723
N10700 X0.5638 Y2.0892 Z-0.4715
N10705 X0.5441 Y2.0869 Z-0.4707
N10710 X0.5188 Y2.0841 Z-0.4697
N10715 X0.4935 Y2.0816 Z-0.4687
N10720 X0.4683 Y2.0795 Z-0.4678
N10725 X0.443 Y2.0775 Z-0.4668
N10730 X0.4178 Y2.0759 Z-0.4659
N10735 X0.3925 Y2.0745 Z-0.465
N10740 X0.3672 Y2.0734 Z-0.4641
N10745 X0.342 Y2.0726 Z-0.4633
N10750 X0.3294 Y2.0723 Z-0.4629
N10755 X0.3041 Y2.0719 Z-0.4621
N10760 X0.2788 Y2.0718 Z-0.4613
N10765 X0.2662 Z-0.4609
N10770 X0.241 Y2.0721 Z-0.4602
N10775 X0.2157 Y2.0726 Z-0.4595
N10780 X0.1904 Y2.0735 Z-0.4588
N10785 X0.1778 Y2.074 Z-0.4585
N10790 X0.1525 Y2.0752 Z-0.4578
N10795 X0.1273 Y2.0767 Z-0.4572
N10800 X0.1147 Y2.0776 Z-0.4569
N10805 X0.0894 Y2.0795 Z-0.4564
N10810 X0.0641 Y2.0817 Z-0.4558
N10815 X0.0389 Y2.0842 Z-0.4553
N10820 X0.0136 Y2.0869 Z-0.4548
N10825 X-0.0116 Y2.0899 Z-0.4544
N10830 X-0.1758 Y2.1104 Z-0.4517
N10835 X-0.3147 Y2.1278 Z-0.4499
N10840 X-0.441 Y2.1436 Z-0.4485
N10845 X-0.5547 Y2.1578 Z-0.4475
N10850 X-0.681 Y2.1736 Z-0.4467
N10855 X-0.8073 Y2.1894 Z-0.4462
N10860 X-1.0472 Y2.2194 Z-0.4461
N10865 X-1.1862 Y2.2368 Z-0.4465
N10870 X-1.3125 Y2.2526 Z-0.4472
N10875 X-1.4261 Y2.2668 Z-0.4481
N10880 X-1.5524 Y2.2826 Z-0.4494
N10885 X-1.6913 Y2.3 Z-0.4512
N10890 X-1.8303 Y2.3174 Z-0.4533
N10895 X-1.9565 Y2.3332 Z-0.4555
N10900 X-2.0828 Y2.3489 Z-0.458
N10905 X-2.0955 Y2.3504 Z-0.4582
N10910 X-2.1081 Y2.3516 Z-0.4585
N10915 X-2.1207 Y2.3526 Z-0.4587
N10920 X-2.1334 Y2.3532 Z-0.4589
N10925 X-2.146 Y2.3535 Z-0.4591
N10930 X-2.1586 Z-0.4593
N10935 X-2.1712 Y2.3531 Z-0.4594
N10940 X-2.1839 Y2.3523 Z-0.4595
N10945 X-2.1965 Y2.3513 Z-0.4596
N10950 X-2.2091 Y2.35 Z-0.4597
N10955 X-2.2218 Y2.3484 Z-0.4598
N10960 X-2.2344 Y2.3464
N10965 X-2.247 Y2.344 Z-0.4599
N10970 X-2.2596 Y2.3413
N10975 X-2.2723 Y2.3384
N10980 X-2.2849 Y2.3351 Z-0.4598
N10985 X-2.2975 Y2.3314
N10990 X-2.3102 Y2.3273 Z-0.4597
N10995 X-2.3228 Y2.3229 Z-0.4596
N11000 X-2.3386 Y2.3167 Z-0.4595
N11005 X-2.3481 Y2.3128 Z-0.4594
N11010 X-2.3607 Y2.3072 Z-0.4592
N11015 X-2.3733 Y2.3011 Z-0.459
N11020 X-2.3859 Y2.2946 Z-0.4588
N11025 X-2.3986 Y2.2876 Z-0.4585
N11030 X-2.4112 Y2.2801 Z-0.4582
N11035 X-2.4238 Y2.2721 Z-0.4579
N11040 X-2.4365 Y2.2636 Z-0.4576
N11045 X-2.4504 Y2.2535 Z-0.4572
N11050 X-2.4665 Y2.2409 Z-0.4566
N11055 X-2.4743 Y2.2343 Z-0.4563
N11060 X-2.4814 Y2.2282 Z-0.4561
N11065 X-2.487 Y2.2232 Z-0.4558
N11070 X-2.4951 Y2.2156 Z-0.4555
N11075 X-2.4996 Y2.2113 Z-0.4553
N11080 X-2.5079 Y2.203 Z-0.4549
N11085 X-2.5122 Y2.1985 Z-0.4547
N11090 X-2.5198 Y2.1903 Z-0.4543
N11095 X-2.5249 Y2.1847 Z-0.454
N11100 X-2.5375 Y2.1699 Z-0.4533
N11105 X-2.5413 Y2.165 Z-0.453
N11110 X-2.5511 Y2.1524 Z-0.4524
N11115 X-2.5602 Y2.1398 Z-0.4518
N11120 X-2.5687 Y2.1271 Z-0.4511
N11125 X-2.5767 Y2.1145 Z-0.4504
N11130 X-2.5842 Y2.1018 Z-0.4497
N11135 X-2.5912 Y2.0892 Z-0.4491
N11140 X-2.5977 Y2.0765 Z-0.4484
N11145 X-2.6038 Y2.0639 Z-0.4477
N11150 X-2.6094 Y2.0513 Z-0.447
N11155 X-2.6146 Y2.0386 Z-0.4462
N11160 X-2.6194 Y2.026 Z-0.4455
N11165 X-2.6239 Y2.0133 Z-0.4448
N11170 X-2.628 Y2.0007 Z-0.444
N11175 X-2.6317 Y1.9881 Z-0.4433
N11180 X-2.635 Y1.9754 Z-0.4425
N11185 X-2.6385 Y1.9602 Z-0.4416
N11190 X-2.6406 Y1.9501 Z-0.441
N11195 X-2.6429 Y1.9375 Z-0.4402
N11200 X-2.6449 Y1.9248 Z-0.4394
N11205 X-2.6465 Y1.9122 Z-0.4386
N11210 X-2.6478 Y1.8996 Z-0.4379
N11215 X-2.6489 Y1.8869 Z-0.437
N11220 X-2.6496 Y1.8743 Z-0.4362
N11225 X-2.6499 Y1.8616 Z-0.4354
N11230 X-2.65 Y1.849 Z-0.4346
N11235 Y1.5077 Z-0.4124
N11240 Y1.2043 Z-0.393
N11245 X-2.6501 Y0.9388 Z-0.3763
N11250 Y0.7112 Z-0.3623
N11255 Y0.509 Z-0.3502
N11260 Y0.3193 Z-0.3391
N11265 Y0.155 Z-0.3298
N11270 Y0.0033 Z-0.3216
N11275 Y-0.1358 Z-0.3143
N11280 Y-0.2622 Z-0.308
N11285 X-2.6502 Y-0.3759 Z-0.3026
N11290 Y-0.4771 Z-0.2981
N11295 Y-0.5782 Z-0.2938
N11300 Y-0.6667 Z-0.2904
N11305 Y-0.7299 Z-0.288
N11310 X-2.6497
N11315 X-2.6385 Y-0.7111
N11320 X-2.6346 Y-0.7046
N11325 X-2.6133 Y-0.6713
N11330 X-2.6103 Y-0.6667
N11335 X-2.6081 Y-0.6635
N11340 X-2.6043 Y-0.6577
N11345 X-2.6008 Y-0.6517 Z-0.2881
N11350 X-2.5974 Y-0.6456
N11355 X-2.5942 Y-0.6394 Z-0.2882
N11360 X-2.5912 Y-0.6331
N11365 X-2.5884 Y-0.6268 Z-0.2883
N11370 X-2.5856 Y-0.6204 Z-0.2884
N11375 X-2.5831 Y-0.6139 Z-0.2886
N11380 X-2.5806 Y-0.6074 Z-0.2887
N11385 X-2.5759 Y-0.5942 Z-0.289
N11390 X-2.5692 Y-0.5742 Z-0.2894
N11395 X-2.5626 Y-0.5544 Z-0.2899
N11400 X-2.558 Y-0.5413 Z-0.2902
N11405 X-2.5556 Y-0.5348 Z-0.2904
N11410 X-2.5531 Y-0.5283 Z-0.2905
N11415 X-2.5505 Y-0.5219 Z-0.2907
N11420 X-2.5478 Y-0.5156 Z-0.2908
N11425 X-2.5449 Y-0.5093 Z-0.2909
N11430 X-2.5419 Y-0.5031 Z-0.2911
N11435 X-2.5387 Y-0.497 Z-0.2912
N11440 X-2.5353 Y-0.491 Z-0.2913
N11445 X-2.5318 Y-0.4851
N11450 X-2.528 Y-0.4794 Z-0.2914
N11455 X-2.524 Y-0.4739 Z-0.2915
N11460 X-2.5197 Y-0.4685
N11465 X-2.5152 Y-0.4633
N11470 X-2.4996 Y-0.4462
N11475 X-2.487 Y-0.4328
N11480 X-2.4684 Y-0.4139
N11485 X-2.4558 Y-0.4012
N11490 X-2.4428 Y-0.3886
N11495 X-2.4238 Y-0.3706
N11500 X-2.4159 Y-0.3633
N11505 X-2.3986 Y-0.3478
N11510 X-2.3859 Y-0.3367
N11515 X-2.3728 Y-0.3254
N11520 X-2.3422 Y-0.3001
N11525 X-2.3228 Y-0.285
N11530 X-2.3096 Y-0.2748
N11535 X-2.2975 Y-0.2657
N11540 X-2.2849 Y-0.2565
N11545 X-2.2723 Y-0.2475
N11550 X-2.2572 Y-0.2369
N11555 X-2.247 Y-0.2299
N11560 X-2.2194 Y-0.2116
N11565 X-2.2091 Y-0.205
N11570 X-2.1712 Y-0.1816
N11575 X-2.1334 Y-0.1599
N11580 X-2.1207 Y-0.1531
N11585 X-2.0955 Y-0.1397
N11590 X-2.0828 Y-0.1332
N11595 X-2.0702 Y-0.127
N11600 X-2.045 Y-0.1148
N11605 X-2.0323 Y-0.1089
N11610 X-2.0197 Y-0.1032
N11615 X-1.9944 Y-0.0921
N11620 X-1.9779 Y-0.0852
N11625 X-1.9565 Y-0.0766
N11630 X-1.9439 Y-0.0717
N11635 X-1.9313 Y-0.0669
N11640 X-1.906 Y-0.0578
N11645 X-1.8934 Y-0.0533
N11650 X-1.8808 Y-0.0491
N11655 X-1.8555 Y-0.041
N11660 X-1.8429 Y-0.037
N11665 X-1.8303 Y-0.0333
N11670 X-1.7924 Y-0.0226
N11675 X-1.7545 Y-0.0132
N11680 X-1.7377 Y-0.0093
N11685 X-1.704 Y-0.0021
N11690 X-1.6913 Y0.0004
N11695 X-1.6661 Y0.0049
N11700 X-1.6534 Y0.007
N11705 X-1.6408 Y0.0091
N11710 X-1.6282 Y0.011
N11715 X-1.6029 Y0.0145
N11720 X-1.5903 Y0.0161
N11725 X-1.5777 Y0.0175
N11730 X-1.5524 Y0.0202
N11735 X-1.5398 Y0.0213
N11740 X-1.5272 Y0.0224
N11745 X-1.5019 Y0.0241
N11750 X-1.4893 Y0.0249
N11755 X-1.4766 Y0.0254
N11760 X-1.4514 Y0.0263
N11765 X-1.4387 Y0.0267
N11770 X-1.4135 Y0.0268
N11775 X-1.3882
N11780 X-1.3503 Y0.0256
N11785 X-1.3377 Y0.0251
N11790 X-1.3251 Y0.0244
N11795 X-1.2998 Y0.0227
N11800 X-1.2872 Y0.0217
N11805 X-1.2746 Y0.0206
N11810 X-1.2493 Y0.018
N11815 X-1.2311 Y0.0159
N11820 X-1.2114 Y0.0133
N11825 X-1.1988 Y0.0116
N11830 X-1.1862 Y0.0097
N11835 X-1.1735 Y0.0077
N11840 X-1.1476 Y0.0033
N11845 X-1.1356 Y0.0012
N11850 X-1.123 Y-0.0013
N11855 X-1.0851 Y-0.0093
N11860 X-1.0725 Y-0.0122
N11865 X-1.0346 Y-0.0215
N11870 X-1.0093 Y-0.0285
N11875 X-0.9967 Y-0.032
N11880 X-0.9841 Y-0.0357
N11885 X-0.9715 Y-0.0396
N11890 X-0.9462 Y-0.0477
N11895 X-0.9336 Y-0.0518
N11900 X-0.9083 Y-0.0608
N11905 X-0.8957 Y-0.0653
N11910 X-0.8766 Y-0.0725
N11915 X-0.8578 Y-0.0799
N11920 X-0.8448 Y-0.0852
N11925 X-0.8325 Y-0.0902
N11930 X-0.8073 Y-0.1013
N11935 X-0.7868 Y-0.1105
N11940 X-0.7603 Y-0.1231
N11945 X-0.7441 Y-0.131
N11950 X-0.7315 Y-0.1375
N11955 X-0.7062 Y-0.1507
N11960 X-0.6936 Y-0.1575
N11965 X-0.6557 Y-0.179
N11970 X-0.6178 Y-0.2022
N11975 X-0.6032 Y-0.2116
N11980 X-0.58 Y-0.227
N11985 X-0.5654 Y-0.2369
N11990 X-0.5421 Y-0.2534
N11995 X-0.5294 Y-0.2625
N12000 X-0.5131 Y-0.2748
N12005 X-0.4915 Y-0.2914
N12010 X-0.4789 Y-0.3014
N12015 X-0.4498 Y-0.3254
N12020 X-0.4351 Y-0.338
N12025 X-0.4158 Y-0.3552
N12030 X-0.4067 Y-0.3633
N12035 X-0.3905 Y-0.3785
N12040 X-0.3779 Y-0.3904
N12045 X-0.3653 Y-0.4028
N12050 X-0.3418 Y-0.4265
N12055 X-0.3274 Y-0.4416
N12060 X-0.3021 Y-0.4691
N12065 X-0.2895 Y-0.4835
N12070 X-0.2733 Y-0.5024
N12075 X-0.2627 Y-0.515
N12080 X-0.239 Y-0.5446
N12085 X-0.2325 Y-0.5529
N12090 X-0.223 Y-0.5656
N12095 X-0.2135 Y-0.5782
N12100 X-0.2011 Y-0.5952
N12105 X-0.1952 Y-0.6035
N12110 X-0.1758 Y-0.6316
N12115 X-0.1693 Y-0.6414
N12120 X-0.1506 Y-0.6706
N12125 X-0.145 Y-0.6793
N12130 X-0.1181 Y-0.7244
N12135 X-0.1127 Y-0.7154 Z-0.2922
N12140 X-0.1058 Y-0.7046 Z-0.293
N12145 X-0.0976 Y-0.692 Z-0.2939
N12150 X-0.0874 Y-0.677 Z-0.295
N12155 X-0.0801 Y-0.6667 Z-0.2959
N12160 X-0.0709 Y-0.6541 Z-0.2969
N12165 X-0.0613 Y-0.6414 Z-0.2979
N12170 X-0.0495 Y-0.6264 Z-0.2991
N12175 X-0.0369 Y-0.611 Z-0.3005
N12180 X-0.0243 Y-0.5965 Z-0.3017
N12185 X-0.0116 Y-0.5825 Z-0.303
N12190 X0.001 Y-0.5691 Z-0.3043
N12195 X0.0044 Y-0.5656 Z-0.3046
N12200 X0.0136 Y-0.5563 Z-0.3055
N12205 X0.0263 Y-0.5441 Z-0.3067
N12210 X0.0389 Y-0.5323 Z-0.3079
N12215 X0.0439 Y-0.5276 Z-0.3083
N12220 X0.0581 Y-0.515 Z-0.3097
N12225 X0.0732 Y-0.5024 Z-0.311
N12230 X0.0894 Y-0.4894 Z-0.3125
N12235 X0.1055 Y-0.4771 Z-0.3139
N12240 X0.1147 Y-0.4703 Z-0.3147
N12245 X0.1273 Y-0.4612 Z-0.3158
N12250 X0.141 Y-0.4518 Z-0.3169
N12255 X0.1525 Y-0.4441 Z-0.3179
N12260 X0.1652 Y-0.436 Z-0.3189
N12265 X0.1806 Y-0.4265 Z-0.3202
N12270 X0.2031 Y-0.4131 Z-0.322
N12275 X2.5344 Y0.9641 Z-0.5113
N12280 X2.59 Y0.997 Z-0.5158
N12285 X2.6026 Y1.0049 Z-0.5169
N12290 X2.6153 Y1.0135 Z-0.5179
N12295 X2.6168 Y1.0146 Z-0.5181
N12300 X2.6279 Y1.0231 Z-0.519
N12305 X2.6332 Y1.0273 Z-0.5195
N12310 X2.6405 Y1.0336 Z-0.5202
N12315 X2.6477 Y1.0399 Z-0.5208
N12320 X2.6531 Y1.0451 Z-0.5213
N12325 X2.6607 Y1.0526 Z-0.5221
N12330 X2.6658 Y1.0579 Z-0.5226
N12335 X2.6723 Y1.0652 Z-0.5232
N12340 X2.6784 Y1.0723 Z-0.5238
N12345 X2.6828 Y1.0778 Z-0.5243
N12350 X2.691 Y1.0886 Z-0.5252
N12355 X2.6924 Y1.0905 Z-0.5253
N12360 X2.701 Y1.1031 Z-0.5263
N12365 X2.7087 Y1.1158 Z-0.5273
N12370 X2.7157 Y1.1284 Z-0.5281
N12375 X2.722 Y1.1411 Z-0.529
N12380 X2.7276 Y1.1537 Z-0.5298
N12385 X2.7327 Y1.1663 Z-0.5306
N12390 X2.7371 Y1.179 Z-0.5313
N12395 X2.7416 Y1.193 Z-0.5321
N12400 X2.7445 Y1.2043 Z-0.5327
N12405 X2.7473 Y1.2169 Z-0.5333
N12410 X2.7495 Y1.2295 Z-0.5339
N12415 X2.7512 Y1.2422 Z-0.5345
N12420 X2.7525 Y1.2548 Z-0.5351
N12425 X2.7533 Y1.2675 Z-0.5356
N12430 X2.7537 Y1.2801 Z-0.5361
N12435 X2.7535 Y1.2928 Z-0.5366
N12440 X2.7528 Y1.3054 Z-0.537
N12445 X2.7517 Y1.318 Z-0.5375
N12450 X2.75 Y1.3307 Z-0.5379
N12455 X2.7479 Y1.3433 Z-0.5382
N12460 X2.7453 Y1.356 Z-0.5386
N12465 X2.7422 Y1.3686 Z-0.5389
N12470 X2.7384 Y1.3812 Z-0.5392
N12475 X2.7341 Y1.3939 Z-0.5394
N12480 X2.7289 Y1.4074 Z-0.5397
N12485 X2.7241 Y1.4192 Z-0.5399
N12490 X2.6763 Y1.5329 Z-0.5418
N12495 X2.6153 Y1.678 Z-0.5445
N12500 X2.5539 Y1.8237 Z-0.5475
N12505 X2.4954 Y1.9628 Z-0.5507
N12510 X2.4316 Y2.1145 Z-0.5545
N12515 X2.3677 Y2.2662 Z-0.5586
N12520 X2.3039 Y2.4179 Z-0.563
N12525 X2.2942 Y2.4409 Z-0.5637
N12530 X2.2937 Y2.4372 Z-0.5635
N12535 X2.2939 Y2.4305 Z-0.5632
N12540 X2.2932 Y2.4179 Z-0.5625
N12545 X2.2921 Y2.4052 Z-0.5618
N12550 X2.2905 Y2.3926 Z-0.5611
N12555 X2.2883 Y2.3799 Z-0.5604
N12560 X2.2857 Y2.3673 Z-0.5596
N12565 X2.282 Y2.3547 Z-0.5588
N12570 X2.2776 Y2.342 Z-0.5579
N12575 X2.2743 Y2.3333 Z-0.5573
N12580 X2.2726 Y2.3294 Z-0.5571
N12585 X2.2669 Y2.3167 Z-0.5562
N12590 X2.2616 Y2.3061 Z-0.5554
N12595 X2.2605 Y2.3041 Z-0.5552
N12600 X2.253 Y2.2915 Z-0.5542
N12605 X2.249 Y2.2855 Z-0.5537
N12610 X2.2444 Y2.2788 Z-0.5532
N12615 X2.2364 Y2.268 Z-0.5522
N12620 X2.2238 Y2.2528 Z-0.5508
N12625 X2.2119 Y2.2409 Z-0.5497
N12630 X2.1981 Y2.2282 Z-0.5484
N12635 X2.1859 Y2.2189 Z-0.5473
N12640 X2.1814 Y2.2156 Z-0.5469
N12645 X2.1732 Y2.2099 Z-0.5462
N12650 X2.1606 Y2.2019 Z-0.5452
N12655 X2.148 Y2.1953 Z-0.5443
N12660 X2.1353 Y2.1892 Z-0.5433
N12665 X2.1227 Y2.184 Z-0.5425
N12670 X2.1101 Y2.1796 Z-0.5416
N12675 X2.1043 Y2.1777 Z-0.5412
N12680 X2.0975 Y2.1756 Z-0.5408
N12685 X2.0848 Y2.1725 Z-0.5401
N12690 X2.0722 Y2.1701 Z-0.5393
N12695 X2.0596 Y2.1681 Z-0.5386
N12700 X2.0469 Y2.1668 Z-0.5379
N12705 X2.0343 Y2.1662 Z-0.5373
N12710 X2.0217 Y2.166 Z-0.5367
N12715 X2.0091 Y2.1666 Z-0.5361
N12720 X1.9964 Y2.1678 Z-0.5356
N12725 X1.9838 Y2.1696 Z-0.535
N12730 X1.9712 Y2.1718 Z-0.5345
N12735 X1.9585 Y2.1745 Z-0.5341
N12740 X1.9459 Y2.1785 Z-0.5337
N12745 X1.9333 Y2.1828 Z-0.5333
N12750 X1.9206 Y2.188 Z-0.533
N12755 X1.9154 Y2.1903 Z-0.5329
N12760 X1.908 Y2.1938 Z-0.5327
N12765 X1.8954 Y2.2002 Z-0.5324
N12770 X1.8828 Y2.2079 Z-0.5322
N12775 X1.8714 Y2.2156 Z-0.5321
N12780 X1.8575 Y2.226 Z-0.532
N12785 X1.8546 Y2.2282
N12790 X1.8406 Y2.2409
N12795 X1.8322 Y2.2493 Z-0.5321
N12800 X1.8196 Y2.2635 Z-0.5322
N12805 X1.8175 Y2.2662 Z-0.5323
N12810 X1.807 Y2.2804 Z-0.5325
N12815 X1.7996 Y2.2915 Z-0.5328
N12820 X1.7921 Y2.3041 Z-0.5331
N12825 X1.7856 Y2.3167 Z-0.5335
N12830 X1.7817 Y2.3252 Z-0.5338
N12835 X1.7799 Y2.3294 Z-0.5339
N12840 X1.7748 Y2.342 Z-0.5344
N12845 X1.7705 Y2.3547 Z-0.5349
N12850 X1.7667 Y2.3673 Z-0.5354
N12855 X1.7639 Y2.3799 Z-0.5359
N12860 X1.7617 Y2.3926 Z-0.5365
N12865 X1.76 Y2.4052 Z-0.5371
N12870 X1.7589 Y2.4179 Z-0.5378
N12875 X1.7582 Y2.4305 Z-0.5384
N12880 X1.7586 Y2.4432 Z-0.5391
N12885 X1.7595 Y2.4558 Z-0.5398
N12890 X1.7609 Y2.4684 Z-0.5406
N12895 X1.7627 Y2.4811 Z-0.5414
N12900 X1.7652 Y2.4937 Z-0.5422
N12905 X1.7683 Y2.5064 Z-0.543
N12910 X1.7691 Y2.509 Z-0.5432
N12915 X1.7724 Y2.519 Z-0.5438
N12920 X1.7771 Y2.5316 Z-0.5447
N12925 X1.7817 Y2.5429 Z-0.5456
N12930 X1.7883 Y2.5569 Z-0.5466
N12935 X1.7898 Y2.5596 Z-0.5468
N12940 X1.7895 Y2.5602
N12945 X1.7691 Y2.5437 Z-0.5451
N12950 X1.7538 Y2.5316 Z-0.5437
N12955 X1.7376 Y2.519 Z-0.5423
N12960 X1.7186 Y2.5045 Z-0.5407
N12965 X1.7042 Y2.4937 Z-0.5395
N12970 X1.6807 Y2.4764 Z-0.5375
N12975 X1.6681 Y2.4673 Z-0.5365
N12980 X1.6518 Y2.4558 Z-0.5351
N12985 X1.6302 Y2.4408 Z-0.5334
N12990 X1.6151 Y2.4305 Z-0.5322
N12995 X1.5923 Y2.4153 Z-0.5304
N13000 X1.5768 Y2.4052 Z-0.5291
N13005 X1.5544 Y2.3909 Z-0.5274
N13010 X1.5369 Y2.3799 Z-0.526
N13015 X1.5163 Y2.3673 Z-0.5245
N13020 X1.4952 Y2.3547 Z-0.5229
N13025 X1.4735 Y2.342 Z-0.5212
N13030 X1.4514 Y2.3294 Z-0.5196
N13035 X1.4407 Y2.3234 Z-0.5188
N13040 X1.4155 Y2.3095 Z-0.517
N13045 X1.3902 Y2.2961 Z-0.5152
N13050 X1.365 Y2.283 Z-0.5134
N13055 X1.3523 Y2.2766 Z-0.5125
N13060 X1.3271 Y2.264 Z-0.5107
N13065 X1.3018 Y2.2519 Z-0.509
N13070 X1.2782 Y2.2409 Z-0.5074
N13075 X1.2639 Y2.2344 Z-0.5065
N13080 X1.2387 Y2.2231 Z-0.5048
N13085 X1.2214 Y2.2156 Z-0.5037
N13090 X1.2008 Y2.2069 Z-0.5023
N13095 X1.1881 Y2.2016 Z-0.5015
N13100 X1.1602 Y2.1903 Z-0.4997
N13105 X1.1376 Y2.1815 Z-0.4983
N13110 X1.1124 Y2.1719 Z-0.4968
N13115 X1.0871 Y2.1627 Z-0.4952
N13120 X1.0745 Y2.1582 Z-0.4945
N13125 X1.0492 Y2.1494 Z-0.493
N13130 X1.0366 Y2.1452 Z-0.4922
N13135 X0.9987 Y2.1329 Z-0.49
N13140 X0.9803 Y2.1271 Z-0.489
N13145 X0.9608 Y2.1212 Z-0.4879
N13150 X0.9482 Y2.1175 Z-0.4872
N13155 X0.9229 Y2.1102 Z-0.4858
N13160 X0.8977 Y2.1033 Z-0.4844
N13165 X0.8724 Y2.0967 Z-0.4831
N13170 X0.8472 Y2.0904 Z-0.4818
N13175 X0.8219 Y2.0843 Z-0.4805
N13180 X0.7966 Y2.0786 Z-0.4792
N13185 X0.784 Y2.0758 Z-0.4785
N13190 X0.7588 Y2.0705 Z-0.4773
N13195 X0.7335 Y2.0655 Z-0.4761
N13200 X0.7082 Y2.0607 Z-0.4749
N13205 X0.683 Y2.0562 Z-0.4737
N13210 X0.6577 Y2.052 Z-0.4725
N13215 X0.6325 Y2.0481 Z-0.4714
N13220 X0.6072 Y2.0445 Z-0.4703
N13225 X0.5819 Y2.0412 Z-0.4692
N13230 X0.5567 Y2.0381 Z-0.4682
N13235 X0.5314 Y2.0353 Z-0.4671
N13240 X0.5062 Y2.0327 Z-0.4661
N13245 X0.4809 Y2.0304 Z-0.4651
N13250 X0.4556 Y2.0284 Z-0.4642
N13255 X0.4304 Y2.0267 Z-0.4633
N13260 X0.4051 Y2.0252 Z-0.4623
N13265 X0.3925 Y2.0246 Z-0.4619
N13270 X0.3672 Y2.0235 Z-0.461
N13275 X0.342 Y2.0227 Z-0.4602
N13280 X0.3294 Y2.0224 Z-0.4598
N13285 X0.3041 Y2.022 Z-0.4589
N13290 X0.2788 Y2.0219 Z-0.4582
N13295 X0.2662 Z-0.4578
N13300 X0.241 Y2.0222 Z-0.457
N13305 X0.2157 Y2.0227 Z-0.4563
N13310 X0.1904 Y2.0236 Z-0.4556
N13315 X0.1778 Y2.0241 Z-0.4553
N13320 X0.1525 Y2.0253 Z-0.4546
N13325 X0.1273 Y2.0267 Z-0.454
N13330 X0.102 Y2.0285 Z-0.4534
N13335 X0.0768 Y2.0305 Z-0.4529
N13340 X0.0515 Y2.0328 Z-0.4523
N13345 X0.0263 Y2.0353 Z-0.4518
N13350 X-0.003 Y2.0386 Z-0.4512
N13355 X-0.0495 Y2.0443 Z-0.4504
N13360 X-0.2011 Y2.0633 Z-0.448
N13365 X-0.3274 Y2.0791 Z-0.4464
N13370 X-0.4537 Y2.0949 Z-0.445
N13375 X-0.5673 Y2.1091 Z-0.444
N13380 X-0.6936 Y2.1249 Z-0.4432
N13385 X-0.812 Y2.1398 Z-0.4427
N13390 X-1.0472 Y2.1692 Z-0.4426
N13395 X-1.1862 Y2.1866 Z-0.443
N13400 X-1.3125 Y2.2024 Z-0.4437
N13405 X-1.4261 Y2.2166 Z-0.4446
N13410 X-1.5524 Y2.2324 Z-0.4459
N13415 X-1.6787 Y2.2482 Z-0.4475
N13420 X-1.8227 Y2.2662 Z-0.4497
N13425 X-1.9439 Y2.2813 Z-0.4518
N13430 X-2.0702 Y2.2971 Z-0.4543
N13435 X-2.0828 Y2.2987 Z-0.4545
N13440 X-2.0955 Y2.3002 Z-0.4548
N13445 X-2.1081 Y2.3015 Z-0.455
N13450 X-2.1207 Y2.3026 Z-0.4553
N13455 X-2.1334 Y2.3032 Z-0.4555
N13460 X-2.146 Y2.3036 Z-0.4557
N13465 X-2.1586 Z-0.4558
N13470 X-2.1712 Y2.3031 Z-0.456
N13475 X-2.1839 Y2.3023 Z-0.4561
N13480 X-2.1965 Y2.3012 Z-0.4562
N13485 X-2.2091 Y2.2997 Z-0.4563
N13490 X-2.2218 Y2.2979
N13495 X-2.2344 Y2.2956 Z-0.4564
N13500 X-2.247 Y2.293
N13505 X-2.2596 Y2.2902
N13510 X-2.2723 Y2.2869
N13515 X-2.2849 Y2.283 Z-0.4563
N13520 X-2.2977 Y2.2788 Z-0.4562
N13525 X-2.3102 Y2.2743 Z-0.4561
N13530 X-2.3228 Y2.2693 Z-0.456
N13535 X-2.3301 Y2.2662 Z-0.4559
N13540 X-2.3354 Y2.2638 Z-0.4558
N13545 X-2.3481 Y2.2579 Z-0.4556
N13550 X-2.3607 Y2.2515 Z-0.4554
N13555 X-2.3733 Y2.2446 Z-0.4552
N13560 X-2.3859 Y2.237 Z-0.4549
N13565 X-2.3997 Y2.2282 Z-0.4545
N13570 X-2.4112 Y2.2203 Z-0.4542
N13575 X-2.4177 Y2.2156 Z-0.454
N13580 X-2.4238 Y2.2109 Z-0.4538
N13585 X-2.434 Y2.203 Z-0.4535
N13590 X-2.4365 Y2.201 Z-0.4534
N13595 X-2.4491 Y2.1902 Z-0.4529
N13600 X-2.4626 Y2.1777 Z-0.4523
N13605 X-2.4752 Y2.165 Z-0.4517
N13610 X-2.487 Y2.1522 Z-0.4511
N13615 X-2.4976 Y2.1398 Z-0.4505
N13620 X-2.4996 Y2.1373 Z-0.4503
N13625 X-2.5076 Y2.1271 Z-0.4498
N13630 X-2.5122 Y2.1209 Z-0.4495
N13635 X-2.5169 Y2.1145 Z-0.4492
N13640 X-2.5256 Y2.1018 Z-0.4485
N13645 X-2.5336 Y2.0892 Z-0.4478
N13650 X-2.5411 Y2.0765 Z-0.4471
N13655 X-2.548 Y2.0639 Z-0.4464
N13660 X-2.5545 Y2.0513 Z-0.4457
N13665 X-2.5603 Y2.0386 Z-0.445
N13670 X-2.5628 Y2.0332 Z-0.4447
N13675 X-2.5658 Y2.026 Z-0.4443
N13680 X-2.5708 Y2.0133 Z-0.4436
N13685 X-2.5754 Y2.0007 Z-0.4428
N13690 X-2.5796 Y1.9881 Z-0.4421
N13695 X-2.5833 Y1.9754 Z-0.4413
N13700 X-2.5867 Y1.9628 Z-0.4406
N13705 X-2.5896 Y1.9501 Z-0.4398
N13710 X-2.5921 Y1.9375 Z-0.439
N13715 X-2.5943 Y1.9248 Z-0.4383
N13720 X-2.5961 Y1.9122 Z-0.4375
N13725 X-2.5976 Y1.8996 Z-0.4367
N13730 X-2.5987 Y1.8869 Z-0.4359
N13735 X-2.5995 Y1.8743 Z-0.435
N13740 X-2.5999 Y1.8616 Z-0.4342
N13745 X-2.6 Y1.849 Z-0.4334
N13750 X-2.6001 Y1.5077 Z-0.4111
N13755 Y1.2043 Z-0.3915
N13760 Y0.9388 Z-0.3747
N13765 Y0.6986 Z-0.3598
N13770 Y0.4963 Z-0.3476
N13775 Y0.3193 Z-0.3372
N13780 Y0.155 Z-0.3277
N13785 X-2.6002 Y0.0033 Z-0.3193
N13790 Y-0.1358 Z-0.3119
N13795 Y-0.2622 Z-0.3055
N13800 Y-0.3759 Z-0.3
N13805 Y-0.4897 Z-0.2948
N13810 Y-0.5656 Z-0.2915
N13815 X-2.5997
N13820 X-2.5902 Y-0.5529
N13825 X-2.5701 Y-0.5276
N13830 X-2.5628 Y-0.5185
N13835 X-2.5493 Y-0.5024
N13840 X-2.5276 Y-0.4771
N13845 X-2.5249 Y-0.4739
N13850 X-2.5152 Y-0.4633
N13855 X-2.5106 Y-0.4581
N13860 X-2.5062 Y-0.4527
N13865 X-2.502 Y-0.4472 Z-0.2916
N13870 X-2.498 Y-0.4415
N13875 X-2.4941 Y-0.4357 Z-0.2917
N13880 X-2.4904 Y-0.4298 Z-0.2918
N13885 X-2.4867 Y-0.4239 Z-0.2919
N13890 X-2.4832 Y-0.4179 Z-0.292
N13895 X-2.4798 Y-0.4118 Z-0.2922
N13900 X-2.4733 Y-0.3994 Z-0.2925
N13905 X-2.4638 Y-0.3807 Z-0.2929
N13910 X-2.4543 Y-0.362 Z-0.2934
N13915 X-2.4479 Y-0.3497 Z-0.2937
N13920 X-2.4446 Y-0.3436 Z-0.2939
N13925 X-2.4412 Y-0.3376 Z-0.294
N13930 X-2.4377 Y-0.3316 Z-0.2942
N13935 X-2.4341 Y-0.3257 Z-0.2943
N13940 X-2.4303 Y-0.3199 Z-0.2944
N13945 X-2.4265 Y-0.3142 Z-0.2946
N13950 X-2.4225 Y-0.3086 Z-0.2947
N13955 X-2.4183 Y-0.3032 Z-0.2948
N13960 X-2.4139 Y-0.2979
N13965 X-2.4093 Y-0.2927 Z-0.2949
N13970 X-2.4046 Y-0.2878
N13975 X-2.3996 Y-0.283 Z-0.295
N13980 X-2.3945 Y-0.2785
N13985 X-2.3733 Y-0.2611
N13990 X-2.3481 Y-0.2415
N13995 X-2.3354 Y-0.2318
N14000 X-2.3228 Y-0.2224
N14005 X-2.3078 Y-0.2116
N14010 X-2.29 Y-0.199
N14015 X-2.2849 Y-0.1954
N14020 X-2.2715 Y-0.1863
N14025 X-2.247 Y-0.1701
N14030 X-2.2329 Y-0.161
N14035 X-2.1965 Y-0.1386
N14040 X-2.1586 Y-0.1169
N14045 X-2.146 Y-0.11
N14050 X-2.1207 Y-0.0967
N14055 X-2.1081 Y-0.0901
N14060 X-2.0955 Y-0.0838
N14065 X-2.0722 Y-0.0725
N14070 X-2.0576 Y-0.0656
N14075 X-2.045 Y-0.0599
N14080 X-2.0197 Y-0.0487
N14085 X-2.0071 Y-0.0433
N14090 X-1.9944 Y-0.0381
N14095 X-1.9818 Y-0.033
N14100 X-1.9692 Y-0.028
N14105 X-1.9535 Y-0.022
N14110 X-1.9313 Y-0.0139
N14115 X-1.9186 Y-0.0093
N14120 X-1.906 Y-0.0049
N14125 X-1.8934 Y-0.0008
N14130 X-1.8681 Y0.0073
N14135 X-1.8555 Y0.0112
N14140 X-1.8394 Y0.0159
N14145 X-1.805 Y0.0257
N14150 X-1.7671 Y0.0351
N14155 X-1.7545 Y0.038
N14160 X-1.7398 Y0.0412
N14165 X-1.7166 Y0.0462
N14170 X-1.704 Y0.0487
N14175 X-1.6913 Y0.051
N14180 X-1.6661 Y0.0555
N14185 X-1.6534 Y0.0576
N14190 X-1.6408 Y0.0595
N14195 X-1.6156 Y0.0631
N14200 X-1.6029 Y0.0647
N14205 X-1.5882 Y0.0665
N14210 X-1.565 Y0.069
N14215 X-1.5524 Y0.0702
N14220 X-1.5398 Y0.0714
N14225 X-1.5272 Y0.0724
N14230 X-1.5019 Y0.0741
N14235 X-1.4893 Y0.0748
N14240 X-1.4766 Y0.0753
N14245 X-1.4514 Y0.0762
N14250 X-1.4387 Y0.0766
N14255 X-1.4135 Y0.0767
N14260 X-1.3882
N14265 X-1.363 Y0.0759
N14270 X-1.3503 Y0.0755
N14275 X-1.3377 Y0.075
N14280 X-1.3251 Y0.0743
N14285 X-1.2998 Y0.0727
N14290 X-1.2872 Y0.0717
N14295 X-1.2746 Y0.0706
N14300 X-1.2493 Y0.0681
N14305 X-1.224 Y0.0653
N14310 X-1.1988 Y0.0619
N14315 X-1.1862 Y0.0602
N14320 X-1.1735 Y0.0582
N14325 X-1.1609 Y0.0562
N14330 X-1.1356 Y0.0518
N14335 X-1.123 Y0.0495
N14340 X-1.1104 Y0.047
N14345 X-1.0828 Y0.0412
N14350 X-1.0725 Y0.039
N14355 X-1.0599 Y0.0361
N14360 X-1.022 Y0.0268
N14365 X-0.9967 Y0.0198
N14370 X-0.9831 Y0.0159
N14375 X-0.9715 Y0.0126
N14380 X-0.9588 Y0.0087
N14385 X-0.9336 Y0.0007
N14390 X-0.9209 Y-0.0035
N14395 X-0.904 Y-0.0093
N14400 X-0.8831 Y-0.0168
N14405 X-0.8692 Y-0.022
N14410 X-0.8578 Y-0.0263
N14415 X-0.8325 Y-0.0363
N14420 X-0.8199 Y-0.0415
N14425 X-0.8063 Y-0.0473
N14430 X-0.7947 Y-0.0523
N14435 X-0.7776 Y-0.0599
N14440 X-0.7694 Y-0.0636
N14445 X-0.7504 Y-0.0725
N14450 X-0.7315 Y-0.0817
N14455 X-0.7189 Y-0.0879
N14460 X-0.6997 Y-0.0978
N14465 X-0.681 Y-0.1077
N14470 X-0.6684 Y-0.1145
N14475 X-0.6305 Y-0.136
N14480 X-0.5926 Y-0.1592
N14485 X-0.58 Y-0.1673
N14490 X-0.5547 Y-0.1839
N14495 X-0.5421 Y-0.1924
N14500 X-0.5294 Y-0.2012
N14505 X-0.5042 Y-0.2192
N14510 X-0.4973 Y-0.2242
N14515 X-0.4789 Y-0.2381
N14520 X-0.4641 Y-0.2495
N14525 X-0.4481 Y-0.2622
N14530 X-0.4174 Y-0.2875
N14535 X-0.4028 Y-0.3001
N14540 X-0.3884 Y-0.3127
N14545 X-0.3743 Y-0.3254
N14550 X-0.3607 Y-0.338
N14555 X-0.34 Y-0.3577
N14560 X-0.3274 Y-0.3701
N14565 X-0.3091 Y-0.3886
N14570 X-0.2969 Y-0.4012
N14575 X-0.2895 Y-0.4091
N14580 X-0.2735 Y-0.4265
N14585 X-0.2642 Y-0.4367
N14590 X-0.2509 Y-0.4518
N14595 X-0.239 Y-0.4658
N14600 X-0.2263 Y-0.4807
N14605 X-0.2089 Y-0.5024
N14610 X-0.1988 Y-0.515
N14615 X-0.1884 Y-0.5285
N14620 X-0.1702 Y-0.5529
N14625 X-0.161 Y-0.5656
N14630 X-0.1506 Y-0.5804
N14635 X-0.1346 Y-0.6035
N14640 X-0.1253 Y-0.6176
N14645 X-0.1181 Y-0.6288
N14650 X-0.1162 Y-0.6314
N14655 X-0.1049 Y-0.6161 Z-0.2963
N14660 X-0.1 Y-0.6098 Z-0.2968
N14665 X-0.0874 Y-0.5937 Z-0.2981
N14670 X-0.0747 Y-0.5782 Z-0.2995
N14675 X-0.0622 Y-0.5638 Z-0.3007
N14680 X-0.0495 Y-0.5499 Z-0.302
N14685 X-0.0369 Y-0.5364 Z-0.3033
N14690 X-0.0284 Y-0.5276 Z-0.3041
N14695 X-0.0243 Y-0.5235 Z-0.3045
N14700 X-0.0116 Y-0.5111 Z-0.3057
N14705 X0.001 Y-0.4992 Z-0.3069
N14710 X0.0113 Y-0.4897 Z-0.3079
N14715 X0.0263 Y-0.4765 Z-0.3093
N14720 X0.0407 Y-0.4644 Z-0.3106
N14725 X0.0563 Y-0.4518 Z-0.312
N14730 X0.0728 Y-0.4392 Z-0.3135
N14735 X0.0899 Y-0.4265 Z-0.3149
N14740 X0.102 Y-0.4179 Z-0.316
N14745 X0.1147 Y-0.4092 Z-0.3171
N14750 X0.1273 Y-0.4009 Z-0.3181
N14755 X0.1399 Y-0.3928 Z-0.3192
N14760 X0.1525 Y-0.385 Z-0.3202
N14765 X0.1778 Y-0.3699 Z-0.3222
N14770 X1.4517 Y0.3826 Z-0.4256
N14775 X2.3753 Y0.9281 Z-0.5005
N14780 Y0.9283
N14785 X2.3627 Y0.9302 Z-0.4999
N14790 X2.35 Y0.9326 Z-0.4992
N14795 X2.3374 Y0.9353 Z-0.4986
N14800 X2.3248 Y0.9389 Z-0.498
N14805 X2.3122 Y0.9429 Z-0.4974
N14810 X2.2995 Y0.9474 Z-0.4968
N14815 X2.289 Y0.9514 Z-0.4963
N14820 X2.2743 Y0.9579 Z-0.4957
N14825 X2.2615 Y0.9641 Z-0.4952
N14830 X2.249 Y0.9706 Z-0.4947
N14835 X2.2364 Y0.9781 Z-0.4943
N14840 X2.2238 Y0.9864 Z-0.4939
N14845 X2.2196 Y0.9894 Z-0.4938
N14850 X2.2111 Y0.9956 Z-0.4935
N14855 X2.2027 Y1.002 Z-0.4933
N14860 X2.1876 Y1.0146 Z-0.4929
N14865 X2.1859 Y1.0162
N14870 X2.1732 Y1.0281 Z-0.4926
N14875 X2.1617 Y1.0399 Z-0.4924
N14880 X2.148 Y1.0558 Z-0.4923
N14885 X2.1407 Y1.0652 Z-0.4922
N14890 X2.1353 Y1.0724
N14895 X2.1315 Y1.0778
N14900 X2.1227 Y1.091 Z-0.4923
N14905 X2.1152 Y1.1031
N14910 X2.1085 Y1.1158 Z-0.4925
N14915 X2.1022 Y1.1284 Z-0.4927
N14920 X2.0965 Y1.1411 Z-0.4929
N14925 X2.0913 Y1.1537 Z-0.4931
N14930 X2.0867 Y1.1663 Z-0.4934
N14935 X2.0824 Y1.179 Z-0.4937
N14940 X2.0786 Y1.1916 Z-0.494
N14945 X2.0758 Y1.2043 Z-0.4944
N14950 X2.0733 Y1.2169 Z-0.4948
N14955 X2.0722 Y1.2236 Z-0.495
N14960 X2.0713 Y1.2295 Z-0.4952
N14965 X2.0696 Y1.2422 Z-0.4956
N14970 X2.0684 Y1.2548 Z-0.4961
N14975 X2.0675 Y1.2675 Z-0.4966
N14980 X2.0671 Y1.2801 Z-0.4971
N14985 X2.0674 Y1.2928 Z-0.4977
N14990 X2.0682 Y1.3054 Z-0.4983
N14995 X2.0693 Y1.318 Z-0.4989
N15000 X2.0708 Y1.3307 Z-0.4995
N15005 X2.0727 Y1.3433 Z-0.5002
N15010 X2.0751 Y1.356 Z-0.5009
N15015 X2.0778 Y1.3686 Z-0.5016
N15020 X2.0812 Y1.3812 Z-0.5023
N15025 X2.0853 Y1.3939 Z-0.5031
N15030 X2.0897 Y1.4065 Z-0.5039
N15035 X2.0948 Y1.4192 Z-0.5047
N15040 X2.0975 Y1.4255 Z-0.5052
N15045 X2.1002 Y1.4318 Z-0.5056
N15050 X2.1063 Y1.4445 Z-0.5065
N15055 X2.1101 Y1.4519 Z-0.507
N15060 X2.1129 Y1.4571 Z-0.5074
N15065 X2.1204 Y1.4697 Z-0.5084
N15070 X2.1227 Y1.4734 Z-0.5087
N15075 X2.1288 Y1.4824 Z-0.5094
N15080 X2.1353 Y1.4916 Z-0.5102
N15085 X2.1379 Y1.495 Z-0.5104
N15090 X2.1475 Y1.5077 Z-0.5115
N15095 X2.1606 Y1.5227 Z-0.5129
N15100 X2.1704 Y1.5329 Z-0.5139
N15105 X2.1732 Y1.5358 Z-0.5142
N15110 X2.1834 Y1.5456 Z-0.5151
N15115 X2.1985 Y1.5587 Z-0.5165
N15120 X2.2111 Y1.5683 Z-0.5177
N15125 X2.2146 Y1.5709 Z-0.518
N15130 X2.2238 Y1.5773 Z-0.5187
N15135 X2.2331 Y1.5835 Z-0.5195
N15140 X2.2364 Y1.5856 Z-0.5198
N15145 X2.249 Y1.5931 Z-0.5208
N15150 X2.2616 Y1.5997 Z-0.5218
N15155 X2.2743 Y1.6057 Z-0.5227
N15160 X2.2812 Y1.6088 Z-0.5232
N15165 X2.2869 Y1.6112 Z-0.5236
N15170 X2.2995 Y1.6163 Z-0.5246
N15175 X2.3143 Y1.6214 Z-0.5256
N15180 X2.3248 Y1.6248 Z-0.5263
N15185 X2.3374 Y1.6283 Z-0.5271
N15190 X2.35 Y1.631 Z-0.5279
N15195 X2.3627 Y1.6333 Z-0.5287
N15200 X2.3677 Y1.6341 Z-0.529
N15205 X2.3753 Y1.6351 Z-0.5295
N15210 X2.3879 Y1.6366 Z-0.5302
N15215 X2.4006 Y1.6378 Z-0.531
N15220 X2.4132 Y1.6385 Z-0.5317
N15225 X2.4258 Y1.6389 Z-0.5324
N15230 X2.4384 Y1.6384 Z-0.5331
N15235 X2.4511 Y1.6375 Z-0.5337
N15240 X2.4637 Y1.6362 Z-0.5343
N15245 X2.4763 Y1.6346 Z-0.535
N15250 X2.489 Y1.6325 Z-0.5356
N15255 X2.5016 Y1.63 Z-0.5361
N15260 X2.5142 Y1.6271 Z-0.5367
N15265 X2.5269 Y1.6234 Z-0.5372
N15270 X2.533 Y1.6214 Z-0.5375
N15275 X2.5395 Y1.6192 Z-0.5378
N15280 X2.5521 Y1.6146 Z-0.5383
N15285 X2.5662 Y1.6088 Z-0.5388
N15290 X2.5774 Y1.6038 Z-0.5392
N15295 X2.59 Y1.5976 Z-0.5396
N15300 X2.5956 Y1.5946 Z-0.5398
N15305 X2.5959 Y1.5954 Z-0.5399
N15310 X2.537 Y1.7352 Z-0.5427
N15315 X2.4763 Y1.8795 Z-0.5459
N15320 X2.4147 Y2.026 Z-0.5494
N15325 X2.3562 Y2.165 Z-0.5531
N15330 X2.3065 Y2.283 Z-0.5564
N15335 X2.3055 Y2.2821 Z-0.5563
N15340 X2.3037 Y2.2788 Z-0.5561
N15345 X2.2961 Y2.2662 Z-0.5551
N15350 X2.2869 Y2.2523 Z-0.5539
N15355 X2.2785 Y2.2409 Z-0.5529
N15360 X2.2743 Y2.2353 Z-0.5525
N15365 X2.2616 Y2.2202 Z-0.5511
N15370 X2.2572 Y2.2156 Z-0.5506
N15375 X2.249 Y2.2073 Z-0.5498
N15380 X2.2445 Y2.203 Z-0.5494
N15385 X2.2306 Y2.1903 Z-0.5481
N15390 X2.2238 Y2.1849 Z-0.5475
N15395 X2.2142 Y2.1777 Z-0.5466
N15400 X2.2111 Y2.1754 Z-0.5464
N15405 X2.1985 Y2.1667 Z-0.5453
N15410 X2.1859 Y2.1587 Z-0.5443
N15415 X2.1732 Y2.1521 Z-0.5433
N15420 X2.1606 Y2.1459 Z-0.5424
N15425 X2.1465 Y2.1398 Z-0.5414
N15430 X2.1353 Y2.1355 Z-0.5407
N15435 X2.1227 Y2.1311 Z-0.5398
N15440 X2.1097 Y2.1271 Z-0.539
N15445 X2.0975 Y2.1242 Z-0.5382
N15450 X2.0848 Y2.1216 Z-0.5375
N15455 X2.0722 Y2.1195 Z-0.5368
N15460 X2.0596 Y2.1179 Z-0.5361
N15465 X2.0469 Y2.1168 Z-0.5354
N15470 X2.0343 Y2.1162 Z-0.5348
N15475 X2.0217 Y2.116 Z-0.5341
N15480 X2.0091 Y2.1166 Z-0.5336
N15485 X1.9964 Y2.1177 Z-0.533
N15490 X1.9838 Y2.1192 Z-0.5325
N15495 X1.9712 Y2.1211 Z-0.532
N15500 X1.9585 Y2.1235 Z-0.5315
N15505 X1.9459 Y2.1262 Z-0.531
N15510 X1.9333 Y2.1301 Z-0.5306
N15515 X1.9206 Y2.1344 Z-0.5302
N15520 X1.9068 Y2.1398 Z-0.5298
N15525 X1.8954 Y2.1446 Z-0.5296
N15530 X1.8828 Y2.1507 Z-0.5293
N15535 X1.8701 Y2.1572 Z-0.529
N15540 X1.8573 Y2.165 Z-0.5288
N15545 X1.8449 Y2.1733 Z-0.5287
N15550 X1.8388 Y2.1777 Z-0.5286
N15555 X1.8322 Y2.1826
N15560 X1.8223 Y2.1903 Z-0.5285
N15565 X1.807 Y2.2041
N15570 X1.7955 Y2.2156 Z-0.5286
N15575 X1.7817 Y2.2311 Z-0.5288
N15580 X1.7742 Y2.2409 Z-0.529
N15585 X1.7691 Y2.2477 Z-0.5291
N15590 X1.7649 Y2.2535 Z-0.5292
N15595 X1.7565 Y2.2663 Z-0.5295
N15600 X1.7491 Y2.2788 Z-0.5298
N15605 X1.7425 Y2.2915 Z-0.5302
N15610 X1.7365 Y2.3041 Z-0.5306
N15615 X1.7312 Y2.3167 Z-0.5311
N15620 X1.7264 Y2.3294 Z-0.5315
N15625 X1.7222 Y2.342 Z-0.532
N15630 X1.7184 Y2.3547 Z-0.5326
N15635 X1.7156 Y2.3673 Z-0.5331
N15640 X1.7133 Y2.3799 Z-0.5337
N15645 X1.7114 Y2.3926 Z-0.5343
N15650 X1.7099 Y2.4052 Z-0.5349
N15655 X1.7089 Y2.4179 Z-0.5356
N15660 X1.7083 Y2.4305 Z-0.5362
N15665 X1.7084 Y2.4339 Z-0.5364
N15670 X1.7079 Y2.4344
N15675 X1.6933 Y2.4239 Z-0.5352
N15680 X1.6807 Y2.415 Z-0.5342
N15685 X1.6667 Y2.4052 Z-0.533
N15690 X1.6482 Y2.3926 Z-0.5315
N15695 X1.6294 Y2.3799 Z-0.53
N15700 X1.6102 Y2.3673 Z-0.5285
N15705 X1.5906 Y2.3547 Z-0.5269
N15710 X1.5706 Y2.342 Z-0.5254
N15715 X1.5501 Y2.3294 Z-0.5238
N15720 X1.5291 Y2.3167 Z-0.5222
N15725 X1.5165 Y2.3092 Z-0.5212
N15730 X1.5039 Y2.3018 Z-0.5203
N15735 X1.4786 Y2.2874 Z-0.5184
N15740 X1.4634 Y2.2788 Z-0.5173
N15745 X1.4403 Y2.2662 Z-0.5156
N15750 X1.4281 Y2.2596 Z-0.5147
N15755 X1.4028 Y2.2463 Z-0.5129
N15760 X1.3776 Y2.2333 Z-0.5111
N15765 X1.3523 Y2.2208 Z-0.5094
N15770 X1.3271 Y2.2086 Z-0.5076
N15775 X1.3018 Y2.1967 Z-0.5059
N15780 X1.2766 Y2.1853 Z-0.5042
N15785 X1.2513 Y2.1741 Z-0.5025
N15790 X1.2387 Y2.1686 Z-0.5017
N15795 X1.2134 Y2.158 Z-0.5001
N15800 X1.1881 Y2.1477 Z-0.4984
N15805 X1.1681 Y2.1398 Z-0.4972
N15810 X1.1503 Y2.1328 Z-0.4961
N15815 X1.125 Y2.1233 Z-0.4945
N15820 X1.0997 Y2.1141 Z-0.493
N15825 X1.0745 Y2.1053 Z-0.4914
N15830 X1.0619 Y2.101 Z-0.4907
N15835 X1.0492 Y2.0968 Z-0.4899
N15840 X1.0113 Y2.0845 Z-0.4877
N15845 X0.9987 Y2.0805 Z-0.487
N15850 X0.9858 Y2.0765 Z-0.4863
N15855 X0.9608 Y2.0691 Z-0.4849
N15860 X0.9356 Y2.0619 Z-0.4835
N15865 X0.9103 Y2.055 Z-0.4821
N15870 X0.885 Y2.0484 Z-0.4807
N15875 X0.8598 Y2.042 Z-0.4794
N15880 X0.8345 Y2.036 Z-0.4781
N15885 X0.8093 Y2.0303 Z-0.4768
N15890 X0.784 Y2.0248 Z-0.4755
N15895 X0.7588 Y2.0196 Z-0.4743
N15900 X0.7335 Y2.0146 Z-0.473
N15905 X0.7082 Y2.01 Z-0.4718
N15910 X0.6956 Y2.0078 Z-0.4713
N15915 X0.6703 Y2.0035 Z-0.4701
N15920 X0.6525 Y2.0007 Z-0.4693
N15925 X0.6198 Y1.9959 Z-0.4678
N15930 X0.5946 Y1.9925 Z-0.4667
N15935 X0.5693 Y1.9893 Z-0.4656
N15940 X0.5441 Y1.9864 Z-0.4646
N15945 X0.5188 Y1.9838 Z-0.4636
N15950 X0.4935 Y1.9814 Z-0.4626
N15955 X0.4683 Y1.9793 Z-0.4616
N15960 X0.443 Y1.9775 Z-0.4606
N15965 X0.4178 Y1.9759 Z-0.4597
N15970 X0.3925 Y1.9746 Z-0.4588
N15975 X0.3672 Y1.9736 Z-0.4579
N15980 X0.342 Y1.9728 Z-0.4571
N15985 X0.3294 Y1.9725 Z-0.4566
N15990 X0.3041 Y1.9721 Z-0.4558
N15995 X0.2788 Y1.972 Z-0.455
N16000 X0.2662 Z-0.4546
N16005 X0.241 Y1.9723 Z-0.4539
N16010 X0.2157 Y1.9728 Z-0.4532
N16015 X0.1904 Y1.9736 Z-0.4525
N16020 X0.1778 Y1.9741 Z-0.4521
N16025 X0.1508 Y1.9754 Z-0.4514
N16030 X0.1273 Y1.9768 Z-0.4508
N16035 X0.102 Y1.9785 Z-0.4502
N16040 X0.0768 Y1.9804 Z-0.4496
N16045 X0.0515 Y1.9827 Z-0.4491
N16050 X0.0263 Y1.9852 Z-0.4486
N16055 X0.0001 Y1.9881 Z-0.4481
N16060 X-0.0243 Y1.9909 Z-0.4476
N16065 X-0.1253 Y2.0036 Z-0.4459
N16070 X-0.2137 Y2.0146 Z-0.4445
N16075 X-0.34 Y2.0304 Z-0.4429
N16080 X-0.4663 Y2.0462 Z-0.4415
N16085 X-0.58 Y2.0605 Z-0.4405
N16090 X-0.7084 Y2.0765 Z-0.4397
N16095 X-0.8199 Y2.0905 Z-0.4392
N16100 X-1.0599 Y2.1205 Z-0.4391
N16105 X-1.1862 Y2.1363 Z-0.4395
N16110 X-1.3148 Y2.1524 Z-0.4402
N16115 X-1.4261 Y2.1663 Z-0.4411
N16120 X-1.5524 Y2.1821 Z-0.4424
N16125 X-1.6787 Y2.1979 Z-0.444
N16130 X-1.8176 Y2.2153 Z-0.4461
N16135 X-1.9439 Y2.231 Z-0.4483
N16140 X-2.0702 Y2.2468 Z-0.4508
N16145 X-2.0955 Y2.25 Z-0.4513
N16150 X-2.1081 Y2.2514 Z-0.4516
N16155 X-2.1207 Y2.2525 Z-0.4518
N16160 X-2.1334 Y2.2533 Z-0.452
N16165 X-2.146 Y2.2537 Z-0.4522
N16170 X-2.1586 Y2.2536 Z-0.4524
N16175 X-2.1712 Y2.2531 Z-0.4526
N16180 X-2.1839 Y2.2522 Z-0.4527
N16185 X-2.1965 Y2.251 Z-0.4528
N16190 X-2.2091 Y2.2493
N16195 X-2.2218 Y2.2472 Z-0.4529
N16200 X-2.2344 Y2.2447
N16205 X-2.247 Y2.2419
N16210 X-2.2596 Y2.2386
N16215 X-2.2723 Y2.2347 Z-0.4528
N16220 X-2.2849 Y2.2304 Z-0.4527
N16225 X-2.2908 Y2.2282
N16230 X-2.2975 Y2.2256 Z-0.4526
N16235 X-2.3102 Y2.2205 Z-0.4524
N16240 X-2.3228 Y2.2146 Z-0.4523
N16245 X-2.3354 Y2.2084 Z-0.4521
N16250 X-2.3481 Y2.2015 Z-0.4518
N16255 X-2.3607 Y2.194 Z-0.4515
N16260 X-2.3664 Y2.1903 Z-0.4514
N16265 X-2.3733 Y2.1858 Z-0.4512
N16270 X-2.3859 Y2.177 Z-0.4508
N16275 X-2.4015 Y2.165 Z-0.4503
N16280 X-2.4112 Y2.1569 Z-0.4499
N16285 X-2.4165 Y2.1524 Z-0.4497
N16290 X-2.4238 Y2.1456 Z-0.4494
N16295 X-2.4299 Y2.1398 Z-0.4491
N16300 X-2.4365 Y2.1332 Z-0.4488
N16305 X-2.4422 Y2.1271 Z-0.4485
N16310 X-2.4491 Y2.1197 Z-0.4481
N16315 X-2.4536 Y2.1145 Z-0.4479
N16320 X-2.4617 Y2.1048 Z-0.4474
N16325 X-2.4736 Y2.0892 Z-0.4466
N16330 X-2.4824 Y2.0765 Z-0.4459
N16335 X-2.4906 Y2.0639 Z-0.4452
N16340 X-2.498 Y2.0513 Z-0.4445
N16345 X-2.5049 Y2.0386 Z-0.4438
N16350 X-2.5111 Y2.026 Z-0.4431
N16355 X-2.5169 Y2.0133 Z-0.4424
N16360 X-2.5221 Y2.0007 Z-0.4417
N16365 X-2.5249 Y1.9935 Z-0.4413
N16370 X-2.5268 Y1.9881 Z-0.4409
N16375 X-2.5311 Y1.9754 Z-0.4402
N16380 X-2.535 Y1.9628 Z-0.4394
N16385 X-2.5383 Y1.9501 Z-0.4387
N16390 X-2.5412 Y1.9375 Z-0.4379
N16395 X-2.5436 Y1.9248 Z-0.4371
N16400 X-2.5456 Y1.9122 Z-0.4363
N16405 X-2.5473 Y1.8996 Z-0.4355
N16410 X-2.5485 Y1.8869 Z-0.4347
N16415 X-2.5494 Y1.8743 Z-0.4339
N16420 X-2.5499 Y1.8616 Z-0.4331
N16425 X-2.5501 Y1.849 Z-0.4322
N16430 Y1.4824 Z-0.4081
N16435 Y1.1663 Z-0.3877
N16440 Y0.9135 Z-0.3716
N16445 Y0.686 Z-0.3574
N16450 X-2.5502 Y0.4837 Z-0.345
N16455 Y0.2941 Z-0.3338
N16460 Y0.1297 Z-0.3243
N16465 Y-0.022 Z-0.3158
N16470 Y-0.161 Z-0.3083
N16475 X-2.5503 Y-0.2875 Z-0.3018
N16480 Y-0.4012 Z-0.2962
N16485 Y-0.4265 Z-0.295
N16490 X-2.5501 Y-0.4276
N16495 X-2.5375 Y-0.4137
N16500 X-2.5249 Y-0.4003
N16505 X-2.5122 Y-0.3873
N16510 X-2.4996 Y-0.3745
N16515 X-2.487 Y-0.362
N16520 X-2.4743 Y-0.3498
N16525 X-2.4617 Y-0.3378
N16530 X-2.4484 Y-0.3254
N16535 X-2.4238 Y-0.3036
N16540 X-2.4112 Y-0.2926
N16545 X-2.4052 Y-0.2875
N16550 X-2.3945 Y-0.2785
N16555 X-2.3892 Y-0.274
N16560 X-2.3841 Y-0.2693
N16565 X-2.3791 Y-0.2644 Z-0.2951
N16570 X-2.3744 Y-0.2593
N16575 X-2.3697 Y-0.2541 Z-0.2952
N16580 X-2.3652 Y-0.2489 Z-0.2953
N16585 X-2.3608 Y-0.2435 Z-0.2954
N16590 X-2.3565 Y-0.238 Z-0.2955
N16595 X-2.3522 Y-0.2324 Z-0.2957
N16600 X-2.344 Y-0.2211 Z-0.2959
N16605 X-2.332 Y-0.2039 Z-0.2964
N16610 X-2.32 Y-0.1867 Z-0.2969
N16615 X-2.3119 Y-0.1754 Z-0.2972
N16620 X-2.3078 Y-0.1698 Z-0.2974
N16625 X-2.3036 Y-0.1643 Z-0.2975
N16630 X-2.2993 Y-0.1589 Z-0.2977
N16635 X-2.2949 Y-0.1536 Z-0.2978
N16640 X-2.2904 Y-0.1483 Z-0.2979
N16645 X-2.2857 Y-0.1432 Z-0.298
N16650 X-2.281 Y-0.1383 Z-0.2981
N16655 X-2.2761 Y-0.1335 Z-0.2982
N16660 X-2.271 Y-0.1288 Z-0.2983
N16665 X-2.2658 Y-0.1244 Z-0.2984
N16670 X-2.2604 Y-0.1201
N16675 X-2.2548 Y-0.1161 Z-0.2985
N16680 X-2.2491 Y-0.1124
N16685 X-2.2218 Y-0.0956
N16690 X-2.1814 Y-0.0725
N16695 X-2.1712 Y-0.067
N16700 X-2.146 Y-0.0536
N16705 X-2.1334 Y-0.047
N16710 X-2.1207 Y-0.0407
N16715 X-2.1081 Y-0.0345
N16720 X-2.0955 Y-0.0284
N16725 X-2.082 Y-0.022
N16730 X-2.0702 Y-0.0166
N16735 X-2.045 Y-0.0053
N16740 X-2.0323 Y0.0001
N16745 X-2.0197 Y0.0054
N16750 X-2.0071 Y0.0106
N16755 X-1.9818 Y0.0206
N16760 X-1.9692 Y0.0254
N16765 X-1.9565 Y0.03
N16770 X-1.9313 Y0.0391
N16775 X-1.9187 Y0.0434
N16780 X-1.8934 Y0.0516
N16785 X-1.8808 Y0.0556
N16790 X-1.8681 Y0.0595
N16795 X-1.8555 Y0.0632
N16800 X-1.8176 Y0.0739
N16805 X-1.7797 Y0.0833
N16810 X-1.7671 Y0.0863
N16815 X-1.7545 Y0.0891
N16820 X-1.7292 Y0.0945
N16825 X-1.7166 Y0.097
N16830 X-1.704 Y0.0994
N16835 X-1.6756 Y0.1044
N16840 X-1.6661 Y0.106
N16845 X-1.6534 Y0.108
N16850 X-1.6282 Y0.1117
N16855 X-1.6156 Y0.1134
N16860 X-1.6029 Y0.115
N16865 X-1.5847 Y0.1171
N16870 X-1.565 Y0.1191
N16875 X-1.5524 Y0.1203
N16880 X-1.5398 Y0.1214
N16885 X-1.5272 Y0.1224
N16890 X-1.5019 Y0.124
N16895 X-1.4893 Y0.1247
N16900 X-1.464 Y0.1257
N16905 X-1.4514 Y0.1261
N16910 X-1.4387 Y0.1265
N16915 X-1.4135 Y0.1266
N16920 X-1.3882
N16925 X-1.363 Y0.1258
N16930 X-1.3503 Y0.1254
N16935 X-1.3377 Y0.1249
N16940 X-1.3251 Y0.1243
N16945 X-1.2998 Y0.1226
N16950 X-1.2872 Y0.1217
N16955 X-1.2746 Y0.1207
N16960 X-1.2619 Y0.1195
N16965 X-1.2367 Y0.1169
N16970 X-1.224 Y0.1155
N16975 X-1.2114 Y0.114
N16980 X-1.1862 Y0.1105
N16985 X-1.1735 Y0.1087
N16990 X-1.1609 Y0.1067
N16995 X-1.1471 Y0.1044
N17000 X-1.123 Y0.1002
N17005 X-1.1104 Y0.0979
N17010 X-1.0978 Y0.0954
N17015 X-1.0725 Y0.09
N17020 X-1.0599 Y0.0873
N17025 X-1.0472 Y0.0843
N17030 X-1.0093 Y0.075
N17035 X-0.9841 Y0.068
N17040 X-0.9715 Y0.0645
N17045 X-0.9588 Y0.0608
N17050 X-0.9462 Y0.057
N17055 X-0.9209 Y0.049
N17060 X-0.9083 Y0.0449
N17065 X-0.8957 Y0.0406
N17070 X-0.8831 Y0.0361
N17075 X-0.8621 Y0.0286
N17080 X-0.8452 Y0.0222
N17085 X-0.8199 Y0.0123
N17090 X-0.7978 Y0.0033
N17095 X-0.782 Y-0.0034
N17100 X-0.7568 Y-0.0146
N17105 X-0.7407 Y-0.022
N17110 X-0.7189 Y-0.0324
N17115 X-0.7062 Y-0.0385
N17120 X-0.6936 Y-0.0448
N17125 X-0.681 Y-0.0513
N17130 X-0.6557 Y-0.0646
N17135 X-0.6413 Y-0.0725
N17140 X-0.6052 Y-0.093
N17145 X-0.5673 Y-0.1162
N17150 X-0.5547 Y-0.1242
N17155 X-0.5371 Y-0.1358
N17160 X-0.5181 Y-0.1484
N17165 X-0.5042 Y-0.158
N17170 X-0.4789 Y-0.176
N17175 X-0.4648 Y-0.1863
N17180 X-0.448 Y-0.199
N17185 X-0.4284 Y-0.2142
N17190 X-0.4157 Y-0.2242
N17195 X-0.385 Y-0.2495
N17200 X-0.3653 Y-0.2667
N17205 X-0.3526 Y-0.2778
N17210 X-0.34 Y-0.2892
N17215 X-0.3274 Y-0.3009
N17220 X-0.3147 Y-0.3128
N17225 X-0.3017 Y-0.3254
N17230 X-0.289 Y-0.338
N17235 X-0.2765 Y-0.3507
N17240 X-0.2642 Y-0.3633
N17245 X-0.2516 Y-0.3766
N17250 X-0.229 Y-0.4012
N17255 X-0.2179 Y-0.4139
N17260 X-0.2011 Y-0.4333
N17265 X-0.1884 Y-0.4483
N17270 X-0.1652 Y-0.4771
N17275 X-0.1553 Y-0.4897
N17280 X-0.1506 Y-0.4959
N17285 X-0.1362 Y-0.515
N17290 X-0.1253 Y-0.5298
N17295 X-0.1157 Y-0.5433
N17300 X-0.1136 Y-0.5463
N17305 X-0.1127 Y-0.5457 Z-0.2986
N17310 X-0.1 Y-0.5312 Z-0.2999
N17315 X-0.0853 Y-0.515 Z-0.3013
N17320 X-0.0735 Y-0.5024 Z-0.3025
N17325 X-0.0612 Y-0.4897 Z-0.3037
N17330 X-0.0484 Y-0.4771 Z-0.305
N17335 X-0.035 Y-0.4644 Z-0.3063
N17340 X-0.0213 Y-0.4518 Z-0.3076
N17345 X-0.007 Y-0.4392 Z-0.3089
N17350 X0.0081 Y-0.4265 Z-0.3103
N17355 X0.0263 Y-0.4119 Z-0.3119
N17360 X0.0401 Y-0.4012 Z-0.3131
N17365 X0.0571 Y-0.3886 Z-0.3146
N17370 X0.0641 Y-0.3835 Z-0.3152
N17375 X0.0768 Y-0.3746 Z-0.3163
N17380 X0.0935 Y-0.3633 Z-0.3177
N17385 X0.102 Y-0.3577 Z-0.3184
N17390 X0.1147 Y-0.3496 Z-0.3195
N17395 X0.1273 Y-0.3419 Z-0.3205
N17400 X0.1399 Y-0.3343 Z-0.3215
N17405 X0.8826 Y0.1044 Z-0.3816
N17410 X2.249 Y0.9116 Z-0.4925
N17415 X2.2514 Y0.9135 Z-0.4927
N17420 X2.2364 Y0.9209 Z-0.4921
N17425 X2.2263 Y0.9261 Z-0.4917
N17430 X2.2238 Y0.9276 Z-0.4916
N17435 X2.2111 Y0.9351 Z-0.4912
N17440 X2.1985 Y0.9433 Z-0.4907
N17445 X2.1859 Y0.9522 Z-0.4903
N17450 X2.1732 Y0.9618 Z-0.49
N17455 X2.1703 Y0.9641 Z-0.4899
N17460 X2.1552 Y0.9767 Z-0.4895
N17465 X2.148 Y0.9834 Z-0.4894
N17470 X2.1416 Y0.9894 Z-0.4892
N17475 X2.1353 Y0.9955 Z-0.4891
N17480 X2.129 Y1.002 Z-0.489
N17485 X2.1227 Y1.0087 Z-0.4889
N17490 X2.1101 Y1.0234 Z-0.4888
N17495 X2.107 Y1.0273
N17500 X2.0974 Y1.0399 Z-0.4887
N17505 X2.0884 Y1.0526
N17510 X2.08 Y1.0652 Z-0.4888
N17515 X2.0722 Y1.0778 Z-0.4889
N17520 X2.0654 Y1.0905 Z-0.489
N17525 X2.059 Y1.1031 Z-0.4892
N17530 X2.0532 Y1.1158 Z-0.4894
N17535 X2.0469 Y1.1304 Z-0.4896
N17540 X2.0428 Y1.1411 Z-0.4898
N17545 X2.0382 Y1.1537 Z-0.4901
N17550 X2.0341 Y1.1663 Z-0.4904
N17555 X2.0304 Y1.179 Z-0.4908
N17560 X2.0275 Y1.1916 Z-0.4911
N17565 X2.025 Y1.2043 Z-0.4915
N17570 X2.0227 Y1.2169 Z-0.492
N17575 X2.021 Y1.2295 Z-0.4924
N17580 X2.0195 Y1.2422 Z-0.4929
N17585 X2.0184 Y1.2548 Z-0.4934
N17590 X2.0176 Y1.2675 Z-0.4939
N17595 X2.0172 Y1.2801 Z-0.4944
N17600 X2.0175 Y1.2928 Z-0.495
N17605 X2.0181 Y1.3054 Z-0.4956
N17610 X2.0192 Y1.318 Z-0.4962
N17615 X2.0205 Y1.3307 Z-0.4968
N17620 X2.0217 Y1.3399 Z-0.4973
N17625 X2.0222 Y1.3433 Z-0.4975
N17630 X2.0242 Y1.356 Z-0.4981
N17635 X2.0267 Y1.3686 Z-0.4988
N17640 X2.0295 Y1.3812 Z-0.4995
N17645 X2.0329 Y1.3939 Z-0.5003
N17650 X2.0369 Y1.4065 Z-0.5011
N17655 X2.0412 Y1.4192 Z-0.5018
N17660 X2.046 Y1.4318 Z-0.5027
N17665 X2.0512 Y1.4445 Z-0.5035
N17670 X2.0569 Y1.4571 Z-0.5044
N17675 X2.0631 Y1.4697 Z-0.5053
N17680 X2.0697 Y1.4824 Z-0.5062
N17685 X2.0773 Y1.495 Z-0.5072
N17690 X2.0855 Y1.5077 Z-0.5082
N17695 X2.0944 Y1.5203 Z-0.5093
N17700 X2.0975 Y1.5245 Z-0.5096
N17705 X2.1039 Y1.5329 Z-0.5103
N17710 X2.1101 Y1.5408 Z-0.511
N17715 X2.1227 Y1.5553 Z-0.5124
N17720 X2.1254 Y1.5582 Z-0.5126
N17725 X2.1376 Y1.5709 Z-0.5138
N17730 X2.148 Y1.5809 Z-0.5149
N17735 X2.1508 Y1.5835 Z-0.5151
N17740 X2.1653 Y1.5962 Z-0.5165
N17745 X2.1732 Y1.6023 Z-0.5172
N17750 X2.1818 Y1.6088 Z-0.5179
N17755 X2.1859 Y1.6118 Z-0.5183
N17760 X2.1998 Y1.6214 Z-0.5195
N17765 X2.2111 Y1.6288 Z-0.5204
N17770 X2.2238 Y1.6363 Z-0.5214
N17775 X2.2364 Y1.6429 Z-0.5224
N17780 X2.249 Y1.6491 Z-0.5233
N17785 X2.2616 Y1.6548 Z-0.5243
N17790 X2.2743 Y1.66 Z-0.5252
N17795 X2.2869 Y1.6648 Z-0.5261
N17800 X2.2995 Y1.6692 Z-0.5269
N17805 X2.3122 Y1.6732 Z-0.5278
N17810 X2.3248 Y1.6766 Z-0.5286
N17815 X2.3374 Y1.6794 Z-0.5294
N17820 X2.35 Y1.6818 Z-0.5302
N17825 X2.3627 Y1.6838 Z-0.531
N17830 X2.3687 Y1.6846 Z-0.5313
N17835 X2.3753 Y1.6854 Z-0.5317
N17840 X2.3879 Y1.6868 Z-0.5325
N17845 X2.4006 Y1.6878 Z-0.5332
N17850 X2.4132 Y1.6885 Z-0.5339
N17855 X2.4258 Y1.6888 Z-0.5346
N17860 X2.4384 Y1.6884 Z-0.5353
N17865 X2.4511 Y1.6876 Z-0.5359
N17870 X2.4637 Y1.6864 Z-0.5365
N17875 X2.4785 Y1.6846 Z-0.5373
N17880 X2.489 Y1.6831 Z-0.5378
N17885 X2.5016 Y1.6809 Z-0.5384
N17890 X2.5052 Y1.6802 Z-0.5385
N17895 X2.506 Y1.6804 Z-0.5386
N17900 X2.4457 Y1.8237 Z-0.5417
N17905 X2.3872 Y1.9628 Z-0.545
N17910 X2.3233 Y2.1145 Z-0.549
N17915 X2.2949 Y2.182 Z-0.5509
N17920 X2.2923 Y2.1799 Z-0.5506
N17925 X2.2869 Y2.1745 Z-0.5501
N17930 X2.2772 Y2.165 Z-0.5491
N17935 X2.2632 Y2.1524 Z-0.5478
N17940 X2.249 Y2.1413 Z-0.5466
N17945 X2.247 Y2.1398 Z-0.5464
N17950 X2.2364 Y2.1321 Z-0.5455
N17955 X2.2291 Y2.1271 Z-0.5449
N17960 X2.2238 Y2.1236 Z-0.5444
N17965 X2.2111 Y2.1156 Z-0.5434
N17970 X2.2091 Y2.1145 Z-0.5433
N17975 X2.1985 Y2.1089 Z-0.5425
N17980 X2.1842 Y2.1018 Z-0.5414
N17985 X2.1732 Y2.0969 Z-0.5406
N17990 X2.1606 Y2.0916 Z-0.5397
N17995 X2.1541 Y2.0892 Z-0.5393
N18000 X2.148 Y2.087 Z-0.5389
N18005 X2.1353 Y2.0827 Z-0.538
N18010 X2.1227 Y2.0789 Z-0.5372
N18015 X2.1101 Y2.0758 Z-0.5365
N18020 X2.0975 Y2.0732 Z-0.5357
N18025 X2.0848 Y2.071 Z-0.535
N18030 X2.0722 Y2.0692 Z-0.5343
N18035 X2.0596 Y2.0678 Z-0.5336
N18040 X2.0469 Y2.0668 Z-0.5329
N18045 X2.0343 Y2.0663 Z-0.5323
N18050 X2.0217 Y2.0661 Z-0.5316
N18055 X2.0091 Y2.0666 Z-0.531
N18060 X1.9964 Y2.0676 Z-0.5305
N18065 X1.9838 Y2.0689 Z-0.5299
N18070 X1.9712 Y2.0706 Z-0.5294
N18075 X1.9585 Y2.0727 Z-0.5289
N18080 X1.9459 Y2.0751 Z-0.5284
N18085 X1.9333 Y2.078 Z-0.528
N18090 X1.9206 Y2.0818 Z-0.5275
N18095 X1.908 Y2.086 Z-0.5271
N18100 X1.8992 Y2.0892 Z-0.5269
N18105 X1.8954 Y2.0906 Z-0.5268
N18110 X1.8828 Y2.0958 Z-0.5264
N18115 X1.8693 Y2.1018 Z-0.5261
N18120 X1.8575 Y2.1075 Z-0.5259
N18125 X1.8444 Y2.1145 Z-0.5256
N18130 X1.8322 Y2.1219 Z-0.5254
N18135 X1.8196 Y2.1302 Z-0.5252
N18140 X1.8062 Y2.1398 Z-0.5251
N18145 X1.7944 Y2.1488 Z-0.525
N18150 X1.7899 Y2.1524
N18155 X1.7758 Y2.165
N18160 X1.7691 Y2.1714 Z-0.5251
N18165 X1.7629 Y2.1777
N18170 X1.7565 Y2.1844 Z-0.5252
N18175 X1.7438 Y2.1987 Z-0.5253
N18180 X1.7404 Y2.203 Z-0.5254
N18185 X1.7308 Y2.2156 Z-0.5256
N18190 X1.7219 Y2.2282 Z-0.5259
N18195 X1.7136 Y2.2409 Z-0.5262
N18200 X1.7059 Y2.2537 Z-0.5266
N18205 X1.6994 Y2.2662 Z-0.5269
N18210 X1.6933 Y2.2788 Z-0.5273
N18215 X1.6877 Y2.2915 Z-0.5278
N18220 X1.6826 Y2.3041 Z-0.5282
N18225 X1.6807 Y2.3091 Z-0.5284
N18230 X1.678 Y2.3167 Z-0.5287
N18235 X1.6739 Y2.3294 Z-0.5292
N18240 X1.6701 Y2.342 Z-0.5297
N18245 X1.6695 Y2.3446 Z-0.5298
N18250 X1.6688 Y2.3462 Z-0.5299
N18255 X1.6428 Y2.3289 Z-0.5278
N18260 X1.6175 Y2.3126 Z-0.5258
N18265 X1.6042 Y2.3041 Z-0.5248
N18270 X1.5838 Y2.2915 Z-0.5232
N18275 X1.5631 Y2.2788 Z-0.5216
N18280 X1.5544 Y2.2736 Z-0.5209
N18285 X1.5418 Y2.2661 Z-0.52
N18290 X1.5291 Y2.2587 Z-0.519
N18295 X1.5039 Y2.2442 Z-0.5171
N18300 X1.4913 Y2.2371 Z-0.5162
N18305 X1.466 Y2.2232 Z-0.5143
N18310 X1.4407 Y2.2097 Z-0.5125
N18315 X1.4155 Y2.1966 Z-0.5107
N18320 X1.4028 Y2.1901 Z-0.5098
N18325 X1.3776 Y2.1775 Z-0.508
N18330 X1.3518 Y2.165 Z-0.5062
N18335 X1.325 Y2.1524 Z-0.5044
N18340 X1.2972 Y2.1398 Z-0.5025
N18345 X1.2685 Y2.1271 Z-0.5006
N18350 X1.2513 Y2.1197 Z-0.4995
N18355 X1.226 Y2.1092 Z-0.4978
N18360 X1.2008 Y2.0989 Z-0.4962
N18365 X1.1881 Y2.0939 Z-0.4954
N18370 X1.1629 Y2.0842 Z-0.4938
N18375 X1.1376 Y2.0748 Z-0.4922
N18380 X1.1076 Y2.0639 Z-0.4904
N18385 X1.0871 Y2.0568 Z-0.4892
N18390 X1.0707 Y2.0513 Z-0.4882
N18395 X1.0366 Y2.0401 Z-0.4862
N18400 X1.0113 Y2.0321 Z-0.4847
N18405 X0.991 Y2.026 Z-0.4836
N18410 X0.9735 Y2.0208 Z-0.4826
N18415 X0.9473 Y2.0133 Z-0.4811
N18420 X0.9229 Y2.0067 Z-0.4798
N18425 X0.8977 Y2.0001 Z-0.4784
N18430 X0.8724 Y1.9937 Z-0.477
N18435 X0.8472 Y1.9877 Z-0.4757
N18440 X0.8219 Y1.9819 Z-0.4744
N18445 X0.7966 Y1.9764 Z-0.4731
N18450 X0.7714 Y1.9712 Z-0.4719
N18455 X0.7461 Y1.9662 Z-0.4706
N18460 X0.7209 Y1.9615 Z-0.4694
N18465 X0.6956 Y1.9571 Z-0.4682
N18470 X0.6703 Y1.953 Z-0.4671
N18475 X0.652 Y1.9501 Z-0.4662
N18480 X0.6198 Y1.9455 Z-0.4648
N18485 X0.5946 Y1.9421 Z-0.4637
N18490 X0.5819 Y1.9406 Z-0.4631
N18495 X0.5556 Y1.9375 Z-0.462
N18500 X0.5314 Y1.9349 Z-0.461
N18505 X0.5062 Y1.9324 Z-0.46
N18510 X0.4809 Y1.9303 Z-0.459
N18515 X0.4556 Y1.9283 Z-0.458
N18520 X0.4304 Y1.9267 Z-0.4571
N18525 X0.4051 Y1.9253 Z-0.4562
N18530 X0.3925 Y1.9246 Z-0.4557
N18535 X0.3672 Y1.9236 Z-0.4548
N18540 X0.342 Y1.9229 Z-0.454
N18545 X0.3294 Y1.9226 Z-0.4535
N18550 X0.3041 Y1.9222 Z-0.4527
N18555 X0.2788 Y1.9221 Z-0.4519
N18560 X0.2662 Z-0.4515
N18565 X0.241 Y1.9224 Z-0.4507
N18570 X0.2157 Y1.9229 Z-0.45
N18575 X0.1904 Y1.9237 Z-0.4493
N18580 X0.1652 Y1.9248 Z-0.4486
N18585 X0.1399 Y1.926 Z-0.448
N18590 X0.1147 Y1.9276 Z-0.4473
N18595 X0.0894 Y1.9294 Z-0.4467
N18600 X0.0641 Y1.9315 Z-0.4461
N18605 X0.0389 Y1.9338 Z-0.4456
N18610 X0.0136 Y1.9364 Z-0.4451
N18615 X-0.0116 Y1.9392 Z-0.4446
N18620 X-0.0369 Y1.9423 Z-0.4441
N18625 X-0.1253 Y1.9533 Z-0.4426
N18630 X-0.239 Y1.9675 Z-0.4408
N18635 X-0.3526 Y1.9817 Z-0.4393
N18640 X-0.4789 Y1.9975 Z-0.438
N18645 X-0.5926 Y2.0118 Z-0.437
N18650 X-0.7189 Y2.0276 Z-0.4362
N18655 X-0.8325 Y2.0418 Z-0.4357
N18660 X-1.0599 Y2.0702 Z-0.4356
N18665 X-1.1862 Y2.086 Z-0.436
N18670 X-1.3125 Y2.1018 Z-0.4367
N18675 X-1.4261 Y2.116 Z-0.4376
N18680 X-1.5524 Y2.1318 Z-0.4389
N18685 X-1.6787 Y2.1476 Z-0.4405
N18690 X-1.805 Y2.1634 Z-0.4424
N18695 X-1.8308 Y2.1666 Z-0.4428
N18700 X-1.8317 Y2.1662
N18705 X-1.8185 Y2.1524 Z-0.4417
N18710 X-1.805 Y2.1366 Z-0.4405
N18715 X-1.7975 Y2.1271 Z-0.4398
N18720 X-1.7924 Y2.1203 Z-0.4393
N18725 X-1.7881 Y2.1145 Z-0.4389
N18730 X-1.7793 Y2.1018 Z-0.4379
N18735 X-1.771 Y2.0892 Z-0.437
N18740 X-1.7634 Y2.0765 Z-0.4361
N18745 X-1.7565 Y2.0639 Z-0.4351
N18750 X-1.7545 Y2.0599 Z-0.4348
N18755 X-1.7502 Y2.0513 Z-0.4342
N18760 X-1.7442 Y2.0386 Z-0.4333
N18765 X-1.7418 Y2.0335 Z-0.4329
N18770 X-1.7387 Y2.026 Z-0.4324
N18775 X-1.7335 Y2.0133 Z-0.4315
N18780 X-1.729 Y2.0007 Z-0.4306
N18785 X-1.7247 Y1.9881 Z-0.4297
N18790 X-1.7208 Y1.9754 Z-0.4288
N18795 X-1.7173 Y1.9628 Z-0.4279
N18800 X-1.7145 Y1.9501 Z-0.427
N18805 X-1.7119 Y1.9375 Z-0.4261
N18810 X-1.7098 Y1.9248 Z-0.4252
N18815 X-1.708 Y1.9122 Z-0.4243
N18820 X-1.7064 Y1.8996 Z-0.4234
N18825 X-1.7053 Y1.8869 Z-0.4225
N18830 X-1.7045 Y1.8743 Z-0.4216
N18835 X-1.704 Y1.8616 Z-0.4207
N18840 X-1.7039 Y1.849 Z-0.4198
N18845 X-1.7043 Y1.8363 Z-0.419
N18850 X-1.7051 Y1.8237 Z-0.4181
N18855 X-1.7062 Y1.8111 Z-0.4172
N18860 X-1.7076 Y1.7984 Z-0.4163
N18865 X-1.7094 Y1.7858 Z-0.4155
N18870 X-1.7115 Y1.7731 Z-0.4146
N18875 X-1.7139 Y1.7605 Z-0.4137
N18880 X-1.7167 Y1.7479 Z-0.4129
N18885 X-1.72 Y1.7352 Z-0.412
N18890 X-1.7238 Y1.7226 Z-0.4112
N18895 X-1.7292 Y1.7065 Z-0.4101
N18900 X-1.7326 Y1.6973 Z-0.4094
N18905 X-1.7376 Y1.6846 Z-0.4086
N18910 X-1.7418 Y1.6747 Z-0.4079
N18915 X-1.7489 Y1.6594 Z-0.4069
N18920 X-1.7552 Y1.6467 Z-0.4061
N18925 X-1.762 Y1.6341 Z-0.4053
N18930 X-1.7694 Y1.6214 Z-0.4045
N18935 X-1.7776 Y1.6088 Z-0.4036
N18940 X-1.7797 Y1.6056 Z-0.4034
N18945 X-1.7863 Y1.5962 Z-0.4028
N18950 X-1.7924 Y1.5879 Z-0.4023
N18955 X-1.7957 Y1.5835 Z-0.402
N18960 X-1.8056 Y1.5709 Z-0.4013
N18965 X-1.8176 Y1.5567 Z-0.4004
N18970 X-1.8303 Y1.5433 Z-0.3996
N18975 X-1.8407 Y1.5329 Z-0.399
N18980 X-1.8542 Y1.5203 Z-0.3982
N18985 X-1.8691 Y1.5077 Z-0.3975
N18990 X-1.8808 Y1.4987 Z-0.397
N18995 X-1.8857 Y1.495 Z-0.3968
N19000 X-1.8934 Y1.4895 Z-0.3965
N19005 X-1.9037 Y1.4824 Z-0.3961
N19010 X-1.9187 Y1.4727 Z-0.3956
N19015 X-1.9313 Y1.4654 Z-0.3953
N19020 X-1.947 Y1.4571 Z-0.3949
N19025 X-1.9565 Y1.4524 Z-0.3947
N19030 X-1.9692 Y1.4466 Z-0.3945
N19035 X-1.974 Y1.4445 Z-0.3944
N19040 X-1.9818 Y1.4412 Z-0.3943
N19045 X-1.9944 Y1.4362 Z-0.3941
N19050 X-2.0071 Y1.4317 Z-0.394
N19055 X-2.0197 Y1.4275 Z-0.3939
N19060 X-2.0323 Y1.4238 Z-0.3938
N19065 X-2.045 Y1.4205
N19070 X-2.0576 Y1.4177
N19075 X-2.0702 Y1.4153
N19080 X-2.0828 Y1.4132 Z-0.3939
N19085 X-2.0955 Y1.4115
N19090 X-2.1081 Y1.41 Z-0.394
N19095 X-2.1207 Y1.409 Z-0.3942
N19100 X-2.1334 Y1.4082 Z-0.3943
N19105 X-2.146 Y1.4078 Z-0.3945
N19110 X-2.1586 Y1.4079 Z-0.3948
N19115 X-2.1712 Y1.4083 Z-0.395
N19120 X-2.1839 Y1.4091 Z-0.3953
N19125 X-2.1965 Y1.4103 Z-0.3956
N19130 X-2.2091 Y1.4118 Z-0.3959
N19135 X-2.2218 Y1.4136 Z-0.3963
N19140 X-2.2344 Y1.4158 Z-0.3967
N19145 X-2.247 Y1.4183 Z-0.3971
N19150 X-2.2596 Y1.4211 Z-0.3975
N19155 X-2.2723 Y1.4246 Z-0.398
N19160 X-2.2849 Y1.4285 Z-0.3985
N19165 X-2.2975 Y1.4328 Z-0.3991
N19170 X-2.3102 Y1.4373 Z-0.3996
N19175 X-2.3228 Y1.4424 Z-0.4003
N19180 X-2.3354 Y1.4478 Z-0.4009
N19185 X-2.3481 Y1.4538 Z-0.4015
N19190 X-2.3607 Y1.4602 Z-0.4022
N19195 X-2.3733 Y1.467 Z-0.403
N19200 X-2.3859 Y1.4746 Z-0.4038
N19205 X-2.3986 Y1.4828 Z-0.4046
N19210 X-2.4112 Y1.4916 Z-0.4054
N19215 X-2.4159 Y1.495 Z-0.4058
N19220 X-2.4238 Y1.501 Z-0.4063
N19225 X-2.4324 Y1.5077 Z-0.407
N19230 X-2.4473 Y1.5203 Z-0.4082
N19235 X-2.4491 Y1.5219 Z-0.4083
N19240 X-2.4617 Y1.5338 Z-0.4094
N19245 X-2.4743 Y1.5466 Z-0.4105
N19250 X-2.487 Y1.5601 Z-0.4117
N19255 X-2.4996 Y1.5753 Z-0.413
N19260 X-2.5001 Y1.5709 Z-0.4127
N19265 Y1.2548 Z-0.3921
N19270 Y0.9894 Z-0.375
N19275 X-2.5002 Y0.7365 Z-0.3589
N19280 Y0.509 Z-0.3449
N19285 Y0.3193 Z-0.3334
N19290 Y0.155 Z-0.3237
N19295 X-2.5003 Y-0.0093 Z-0.3143
N19300 Y-0.1484 Z-0.3067
N19305 Y-0.2748 Z-0.3001
N19310 Y-0.3047 Z-0.2985
N19315 X-2.5 Y-0.3054
N19320 X-2.487 Y-0.2932
N19325 X-2.4808 Y-0.2875
N19330 X-2.4617 Y-0.2705
N19335 X-2.4491 Y-0.2594
N19340 X-2.4365 Y-0.2486
N19345 X-2.407 Y-0.2242
N19350 X-2.3986 Y-0.2175
N19355 X-2.3733 Y-0.198
N19360 X-2.3578 Y-0.1863
N19365 X-2.3405 Y-0.1737
N19370 X-2.3228 Y-0.161
N19375 X-2.3102 Y-0.1522
N19380 X-2.2849 Y-0.1353
N19385 X-2.2723 Y-0.127
N19390 X-2.2596 Y-0.1189
N19395 X-2.2491 Y-0.1124
N19400 X-2.2432 Y-0.1086
N19405 X-2.2375 Y-0.1046
N19410 X-2.2319 Y-0.1005 Z-0.2986
N19415 X-2.2265 Y-0.0961
N19420 X-2.2212 Y-0.0916 Z-0.2987
N19425 X-2.216 Y-0.087 Z-0.2988
N19430 X-2.2109 Y-0.0823 Z-0.2989
N19435 X-2.2059 Y-0.0774 Z-0.299
N19440 X-2.2009 Y-0.0725 Z-0.2992
N19445 X-2.1912 Y-0.0624 Z-0.2994
N19450 X-2.177 Y-0.0469 Z-0.2999
N19455 X-2.1628 Y-0.0315 Z-0.3004
N19460 X-2.1533 Y-0.0214 Z-0.3007
N19465 X-2.1484 Y-0.0165 Z-0.3008
N19470 X-2.1435 Y-0.0116 Z-0.301
N19475 X-2.1385 Y-0.0068 Z-0.3011
N19480 X-2.1334 Y-0.0021 Z-0.3013
N19485 X-2.1283 Y0.0025 Z-0.3014
N19490 X-2.123 Y0.0069 Z-0.3015
N19495 X-2.1176 Y0.0112 Z-0.3016
N19500 X-2.1121 Y0.0153 Z-0.3017
N19505 X-2.1064 Y0.0193 Z-0.3018
N19510 X-2.1007 Y0.023 Z-0.3019
N19515 X-2.0947 Y0.0264
N19520 X-2.0887 Y0.0297 Z-0.302
N19525 X-2.0825 Y0.0326
N19530 X-2.063 Y0.0412
N19535 X-2.045 Y0.049
N19540 X-2.0323 Y0.0542
N19545 X-2.0197 Y0.0593
N19550 X-2.0013 Y0.0665
N19555 X-1.9818 Y0.0739
N19560 X-1.9565 Y0.083
N19565 X-1.9439 Y0.0875
N19570 X-1.9311 Y0.0918
N19575 X-1.906 Y0.0999
N19580 X-1.8917 Y0.1044
N19585 X-1.8808 Y0.1078
N19590 X-1.8681 Y0.1115
N19595 X-1.8429 Y0.1186
N19600 X-1.8303 Y0.1222
N19605 X-1.7924 Y0.1316
N19610 X-1.7797 Y0.1345
N19615 X-1.7671 Y0.1374
N19620 X-1.7418 Y0.1428
N19625 X-1.7292 Y0.1454
N19630 X-1.7166 Y0.1478
N19635 X-1.6913 Y0.1523
N19640 X-1.6756 Y0.155
N19645 X-1.6534 Y0.1584
N19650 X-1.6282 Y0.162
N19655 X-1.6156 Y0.1637
N19660 X-1.6029 Y0.1652
N19665 X-1.5903 Y0.1666
N19670 X-1.565 Y0.1692
N19675 X-1.5524 Y0.1704
N19680 X-1.5398 Y0.1714
N19685 X-1.5145 Y0.1732
N19690 X-1.5019 Y0.174
N19695 X-1.4893 Y0.1746
N19700 X-1.464 Y0.1756
N19705 X-1.4514 Y0.176
N19710 X-1.4387 Y0.1764
N19715 X-1.4009 Y0.1765
N19720 X-1.3882 Y0.1764
N19725 X-1.363 Y0.1757
N19730 X-1.3503 Y0.1753
N19735 X-1.3377 Y0.1748
N19740 X-1.3251 Y0.1742
N19745 X-1.3125 Y0.1735
N19750 X-1.2872 Y0.1717
N19755 X-1.2746 Y0.1707
N19760 X-1.2619 Y0.1696
N19765 X-1.2367 Y0.1671
N19770 X-1.224 Y0.1657
N19775 X-1.2114 Y0.1642
N19780 X-1.1862 Y0.1609
N19785 X-1.1609 Y0.1572
N19790 X-1.1471 Y0.155
N19795 X-1.123 Y0.1509
N19800 X-1.1104 Y0.1486
N19805 X-1.0978 Y0.1462
N19810 X-1.0789 Y0.1424
N19815 X-1.0599 Y0.1383
N19820 X-1.0472 Y0.1355
N19825 X-1.0346 Y0.1326
N19830 X-0.9967 Y0.1233
N19835 X-0.9715 Y0.1163
N19840 X-0.9588 Y0.1127
N19845 X-0.9462 Y0.1091
N19850 X-0.9309 Y0.1044
N19855 X-0.9083 Y0.0973
N19860 X-0.8914 Y0.0918
N19865 X-0.8704 Y0.0846
N19870 X-0.8552 Y0.0792
N19875 X-0.8452 Y0.0755
N19880 X-0.8325 Y0.0708
N19885 X-0.8199 Y0.0659
N19890 X-0.8073 Y0.061
N19895 X-0.7896 Y0.0539
N19900 X-0.7694 Y0.0454
N19905 X-0.7568 Y0.04
N19910 X-0.7441 Y0.0344
N19915 X-0.7313 Y0.0286
N19920 X-0.7189 Y0.0229
N19925 X-0.6936 Y0.0108
N19930 X-0.6784 Y0.0033
N19935 X-0.6684 Y-0.0017
N19940 X-0.6431 Y-0.0149
N19945 X-0.6298 Y-0.022
N19950 X-0.6178 Y-0.0285
N19955 X-0.58 Y-0.05
N19960 X-0.5547 Y-0.0654
N19965 X-0.5421 Y-0.0732
N19970 X-0.5294 Y-0.0812
N19975 X-0.5168 Y-0.0894
N19980 X-0.5041 Y-0.0978
N19985 X-0.4915 Y-0.1062
N19990 X-0.4789 Y-0.1148
N19995 X-0.4663 Y-0.1237
N20000 X-0.4494 Y-0.1358
N20005 X-0.4322 Y-0.1484
N20010 X-0.4155 Y-0.161
N20015 X-0.3992 Y-0.1737
N20020 X-0.3833 Y-0.1863
N20025 X-0.3526 Y-0.2116
N20030 X-0.338 Y-0.2242
N20035 X-0.3236 Y-0.2369
N20040 X-0.3095 Y-0.2495
N20045 X-0.2895 Y-0.2681
N20050 X-0.2769 Y-0.2801
N20055 X-0.2642 Y-0.2923
N20060 X-0.2516 Y-0.3049
N20065 X-0.2315 Y-0.3254
N20070 X-0.2194 Y-0.338
N20075 X-0.2137 Y-0.3441
N20080 X-0.1961 Y-0.3633
N20085 X-0.1884 Y-0.3718
N20090 X-0.1737 Y-0.3886
N20095 X-0.1629 Y-0.4012
N20100 X-0.1506 Y-0.4158
N20105 X-0.1317 Y-0.4392
N20110 X-0.1253 Y-0.4471
N20115 X-0.1118 Y-0.4644
N20120 X-0.1097 Y-0.4673
N20125 X-0.1086 Y-0.4667
N20130 X-0.1 Y-0.4579 Z-0.3029
N20135 X-0.0939 Y-0.4518 Z-0.3035
N20140 X-0.081 Y-0.4392 Z-0.3047
N20145 X-0.0676 Y-0.4265 Z-0.306
N20150 X-0.0539 Y-0.4139 Z-0.3073
N20155 X-0.0396 Y-0.4012 Z-0.3087
N20160 X-0.0243 Y-0.3884 Z-0.3101
N20165 X-0.0089 Y-0.3759 Z-0.3114
N20170 X0.0074 Y-0.3633 Z-0.3129
N20175 X0.0136 Y-0.3586 Z-0.3134
N20180 X0.0263 Y-0.3492 Z-0.3145
N20185 X0.0418 Y-0.338 Z-0.3159
N20190 X0.0515 Y-0.3313 Z-0.3167
N20195 X0.0641 Y-0.3228 Z-0.3178
N20200 X0.0795 Y-0.3127 Z-0.319
N20205 X0.0894 Y-0.3065 Z-0.3198
N20210 X0.102 Y-0.2987 Z-0.3209
N20215 X0.1209 Y-0.2875 Z-0.3224
N20220 X0.9127 Y0.1803 Z-0.3864
