%
(1001)
(T2 D=0.3937 CR=0. TAPER=118DEG - ZMIN=-1.9427 - DRILL)
(T3 D=0.315 CR=0. TAPER=118DEG - ZMIN=-1.919 - DRILL)
(T4 D=0.2362 CR=0. TAPER=118DEG - ZMIN=-1.8675 - DRILL)
(T131 D=0.5 CR=0. TAPER=45DEG - ZMIN=-0.4202 - CHAMFER MILL)
(T133 D=0.5 CR=0.02 - ZMIN=-1.6643 - BULLNOSE END MILL)
(T134 D=0.5 CR=0. - ZMIN=-0.7212 - FLAT END MILL)
(T135 D=0.5 CR=0. - ZMIN=-1.6744 - FLAT END MILL)
(T137 D=0.5 CR=0.25 - ZMIN=-0.5888 - BALL END MILL)
(T171 D=2. CR=0. - ZMIN=-0.2817 - FACE MILL)
N10 G90 G94 G17 G91.1 G64 P0.001
N15 G20
N20 G53 G0 Z0.

(PARALLEL12)
N60710 G0 X2.9173 Y1.1402
N60715 Z0.6
N60720 Z-0.4408
N60725 G1 Z-0.4871 F39.37
N60730 X2.9171 Y1.14 Z-0.4925
N60735 X2.9164 Y1.1394 Z-0.4979
N60740 X2.9154 Y1.1384 Z-0.5032
N60745 X2.914 Y1.1369 Z-0.5082
N60750 X2.9121 Y1.1351 Z-0.513
N60755 X2.91 Y1.1329 Z-0.5175
N60760 X2.9074 Y1.1304 Z-0.5217
N60765 X2.9046 Y1.1276 Z-0.5254
N60770 X2.9015 Y1.1245 Z-0.5287
N60775 X2.8982 Y1.1212 Z-0.5315
N60780 X2.8947 Y1.1176 Z-0.5337
N60785 X2.891 Y1.114 Z-0.5354
N60790 X2.8872 Y1.1102 Z-0.5365
N60795 X2.8834 Y1.1064 Z-0.537
N60800 X2.8795 Y1.1025
N60805 X2.6139 Y0.8368 Z-0.5115
N60810 X2.4767 Y0.6996 Z-0.4984
N60815 X2.4752 Y0.6983 Z-0.4983
N60820 X2.4737 Y0.6971 Z-0.4981
N60825 X2.4721 Y0.696 Z-0.498
N60830 X2.4703 Y0.695 Z-0.4979
N60835 X2.4686 Y0.6942 Z-0.4977
N60840 X2.4667 Y0.6935 Z-0.4976
N60845 X2.4648 Y0.693 Z-0.4975
N60850 X2.4629 Y0.6926 Z-0.4973
N60855 X2.461 Y0.6924 Z-0.4972
N60860 X2.459 Y0.6923 Z-0.4971
N60865 X2.4571 Y0.6924 Z-0.497
N60870 X2.4551 Y0.6926 Z-0.4969
N60875 X2.4532 Y0.693 Z-0.4968
N60880 X2.4513 Y0.6936 Z-0.4967
N60885 X2.4495 Y0.6943 Z-0.4966
N60890 X2.4477 Y0.6951 Z-0.4965
N60895 X2.446 Y0.696 Z-0.4964
N60900 X2.4443 Y0.6971
N60905 X2.4428 Y0.6983 Z-0.4963
N60910 X2.4414 Y0.6997
N60915 X2.44 Y0.7011
N60920 X2.4388 Y0.7027 Z-0.4962
N60925 X2.4377 Y0.7043
N60930 X2.4368 Y0.706
N60935 X2.4359 Y0.7078
N60940 X2.4353 Y0.7096 Z-0.4963
N60945 X2.4347 Y0.7115
N60950 X2.4344 Y0.7135
N60955 X2.4341 Y0.7154 Z-0.4964
N60960 X2.434 Y0.7174 Z-0.4965
N60965 X2.4341 Y0.7193
N60970 X2.4343 Y0.7213 Z-0.4966
N60975 X2.4347 Y0.7232 Z-0.4967
N60980 X2.4353 Y0.7251 Z-0.4968
N60985 X2.4359 Y0.7269 Z-0.4969
N60990 X2.4368 Y0.7287 Z-0.497
N60995 X2.4377 Y0.7304 Z-0.4972
N61000 X2.4388 Y0.732 Z-0.4973
N61005 X2.44 Y0.7336 Z-0.4974
N61010 X2.4413 Y0.735 Z-0.4975
N61015 X2.91 Y1.2037 Z-0.5425
N61020 X2.9123 Y1.206
N61025 X2.9146 Y1.2083 Z-0.542
N61030 X2.9168 Y1.2105 Z-0.5412
N61035 X2.919 Y1.2126 Z-0.54
N61040 X2.9215 Y1.2151 Z-0.5386
N61045 X2.9241 Y1.2178 Z-0.5377
N61050 X2.9268 Y1.2204 Z-0.5374
N61055 X2.9698 Y1.2634
N61060 X2.9711 Y1.2649
N61065 X2.9723 Y1.2664
N61070 X2.9734 Y1.2681 Z-0.5375
N61075 X2.9744 Y1.2698
N61080 X2.9752 Y1.2716
N61085 X2.9759 Y1.2734 Z-0.5376
N61090 X2.9764 Y1.2753 Z-0.5377
N61095 X2.9768 Y1.2772
N61100 X2.977 Y1.2792 Z-0.5378
N61105 X2.9771 Y1.2811 Z-0.5379
N61110 X2.977 Y1.2831 Z-0.538
N61115 X2.9768 Y1.285 Z-0.5381
N61120 X2.9764 Y1.287 Z-0.5382
N61125 X2.9759 Y1.2889 Z-0.5383
N61130 X2.9752 Y1.2907 Z-0.5384
N61135 X2.9744 Y1.2925 Z-0.5386
N61140 X2.9734 Y1.2942 Z-0.5387
N61145 X2.9723 Y1.2958 Z-0.5388
N61150 X2.9711 Y1.2974 Z-0.539
N61155 X2.9698 Y1.2988 Z-0.5391
N61160 X2.9684 Y1.3002 Z-0.5392
N61165 X2.9668 Y1.3014 Z-0.5394
N61170 X2.9652 Y1.3025 Z-0.5395
N61175 X2.9635 Y1.3034 Z-0.5396
N61180 X2.9617 Y1.3042 Z-0.5397
N61185 X2.9598 Y1.3049 Z-0.5398
N61190 X2.958 Y1.3054 Z-0.54
N61195 X2.956 Y1.3058 Z-0.5401
N61200 X2.9541 Y1.3061 Z-0.5402
N61205 X2.9521 Z-0.5403
N61210 X2.9501 Z-0.5404
N61215 X2.9482 Y1.3058
N61220 X2.9463 Y1.3054 Z-0.5405
N61225 X2.9444 Y1.3049 Z-0.5406
N61230 X2.9425 Y1.3042
N61235 X2.9407 Y1.3034 Z-0.5407
N61240 X2.939 Y1.3024
N61245 X2.9374 Y1.3013
N61250 X2.9358 Y1.3001 Z-0.5408
N61255 X2.9344 Y1.2988
N61260 X2.9317 Y1.2961 Z-0.5411
N61265 X2.9291 Y1.2935 Z-0.5419
N61270 X2.9266 Y1.291 Z-0.5433
N61275 X2.9245 Y1.2889 Z-0.5446
N61280 X2.9223 Y1.2866 Z-0.5454
N61285 X2.92 Y1.2843 Z-0.5458
N61290 X2.9176 Y1.282
N61295 X2.2965 Y0.6608 Z-0.4862
N61300 X2.2692 Y0.6336 Z-0.4836
N61305 X2.1316 Y0.4959 Z-0.4704
N61310 X2.1301 Y0.4946 Z-0.4703
N61315 X2.1286 Y0.4934 Z-0.4702
N61320 X2.127 Y0.4923 Z-0.47
N61325 X2.1253 Y0.4914 Z-0.4699
N61330 X2.1235 Y0.4905 Z-0.4697
N61335 X2.1216 Y0.4899 Z-0.4696
N61340 X2.1197 Y0.4893 Z-0.4695
N61345 X2.1178 Y0.489 Z-0.4693
N61350 X2.1159 Y0.4887 Z-0.4692
N61355 X2.1139 Z-0.4691
N61360 X2.112 Z-0.469
N61365 X2.11 Y0.489 Z-0.4689
N61370 X2.1081 Y0.4894 Z-0.4688
N61375 X2.1062 Y0.4899 Z-0.4687
N61380 X2.1044 Y0.4906 Z-0.4686
N61385 X2.1026 Y0.4914 Z-0.4685
N61390 X2.1009 Y0.4924 Z-0.4684
N61395 X2.0993 Y0.4934
N61400 X2.0977 Y0.4947 Z-0.4683
N61405 X2.0963 Y0.496
N61410 X2.0949 Y0.4974
N61415 X2.0937 Y0.499 Z-0.4682
N61420 X2.0926 Y0.5006
N61425 X2.0917 Y0.5023
N61430 X2.0909 Y0.5041
N61435 X2.0902 Y0.506 Z-0.4683
N61440 X2.0896 Y0.5078
N61445 X2.0893 Y0.5098
N61450 X2.089 Y0.5117 Z-0.4684
N61455 Y0.5137 Z-0.4685
N61460 Y0.5156
N61465 X2.0893 Y0.5176 Z-0.4686
N61470 X2.0896 Y0.5195 Z-0.4687
N61475 X2.0902 Y0.5214 Z-0.4688
N61480 X2.0908 Y0.5232 Z-0.4689
N61485 X2.0917 Y0.525 Z-0.469
N61490 X2.0926 Y0.5267 Z-0.4691
N61495 X2.0937 Y0.5284 Z-0.4693
N61500 X2.0949 Y0.5299 Z-0.4694
N61505 X2.0963 Y0.5313 Z-0.4695
N61510 X2.2609 Y0.696 Z-0.4853
N61515 X2.9142 Y1.3493 Z-0.5481
N61520 X2.9165 Y1.3516 Z-0.5482
N61525 X2.9188 Y1.3539 Z-0.5477
N61530 X2.9211 Y1.3561 Z-0.5469
N61535 X2.9232 Y1.3583 Z-0.5457
N61540 X2.9257 Y1.3608 Z-0.5442
N61545 X2.9283 Y1.3634 Z-0.5434
N61550 X2.931 Y1.3661 Z-0.5431
N61555 X2.9575 Y1.3925
N61560 G3 Y1.4279 I-0.0177 J0.0177
N61565 X2.9221 I-0.0177 J-0.0177
N61570 G1 X2.9194 Y1.4252 Z-0.5434
N61575 X2.9168 Y1.4226 Z-0.5442
N61580 X2.9143 Y1.4201 Z-0.5457
N61585 X2.912 Y1.4178 Z-0.5473
N61590 X2.9098 Y1.4156 Z-0.5485
N61595 X2.9076 Y1.4134 Z-0.5494
N61600 X2.9053 Y1.4111 Z-0.5498
N61605 X2.903 Y1.4088
N61610 X2.2176 Y0.7234 Z-0.4836
N61615 X1.9227 Y0.4285 Z-0.4554
N61620 X1.786 Y0.2918 Z-0.4423
N61625 X1.7846 Y0.2905 Z-0.4422
N61630 X1.783 Y0.2893 Z-0.4421
N61635 X1.7814 Y0.2882 Z-0.4419
N61640 X1.7797 Y0.2872 Z-0.4418
N61645 X1.7779 Y0.2864 Z-0.4416
N61650 X1.7761 Y0.2857 Z-0.4415
N61655 X1.7742 Y0.2852 Z-0.4414
N61660 X1.7723 Y0.2848 Z-0.4412
N61665 X1.7703 Y0.2846 Z-0.4411
N61670 X1.7684 Y0.2845 Z-0.441
N61675 X1.7664 Y0.2846 Z-0.4409
N61680 X1.7645 Y0.2848 Z-0.4408
N61685 X1.7625 Y0.2852 Z-0.4407
N61690 X1.7607 Y0.2857 Z-0.4406
N61695 X1.7588 Y0.2864 Z-0.4405
N61700 X1.757 Y0.2873 Z-0.4404
N61705 X1.7553 Y0.2882
N61710 X1.7537 Y0.2893 Z-0.4403
N61715 X1.7522 Y0.2905 Z-0.4402
N61720 X1.7507 Y0.2919
N61725 X1.7494 Y0.2933
N61730 X1.7482 Y0.2948
N61735 X1.7471 Y0.2965
N61740 X1.7461 Y0.2982
N61745 X1.7453 Y0.3
N61750 X1.7446 Y0.3018
N61755 X1.7441 Y0.3037
N61760 X1.7437 Y0.3056 Z-0.4403
N61765 X1.7435 Y0.3076
N61770 X1.7434 Y0.3095 Z-0.4404
N61775 X1.7435 Y0.3115 Z-0.4405
N61780 X1.7437 Y0.3134 Z-0.4406
N61785 X1.7441 Y0.3154
N61790 X1.7446 Y0.3173 Z-0.4407
N61795 X1.7453 Y0.3191 Z-0.4408
N61800 X1.7461 Y0.3209 Z-0.441
N61805 X1.7471 Y0.3226 Z-0.4411
N61810 X1.7482 Y0.3242 Z-0.4412
N61815 X1.7494 Y0.3258 Z-0.4413
N61820 X1.7507 Y0.3272 Z-0.4415
N61825 X2.1717 Y0.7482 Z-0.4818
N61830 X2.8859 Y1.4624 Z-0.5509
N61835 X2.8883 Y1.4648
N61840 X2.8906 Y1.467 Z-0.5505
N61845 X2.8928 Y1.4693 Z-0.5496
N61850 X2.8949 Y1.4714 Z-0.5484
N61855 X2.8974 Y1.4739 Z-0.547
N61860 X2.9 Y1.4765 Z-0.5461
N61865 X2.9027 Y1.4792 Z-0.5458
N61870 X2.9186 Y1.4951
N61875 G3 X2.8832 Y1.5304 I-0.0177 J0.0177
N61880 G1 X2.8806 Y1.5278 Z-0.5461
N61885 X2.8779 Y1.5251 Z-0.547
N61890 X2.8754 Y1.5226 Z-0.5484
N61895 X2.8743 Y1.5215 Z-0.5492
N61900 X2.8721 Y1.5193 Z-0.5505
N61905 X2.8699 Y1.5171 Z-0.5513
N61910 X2.8676 Y1.5148 Z-0.5517
N61915 X2.8653 Y1.5125
N61920 X2.5848 Y1.232 Z-0.5244
N61925 X2.4977 Y1.1449 Z-0.516
N61930 X1.8455 Y0.4927 Z-0.453
N61935 X1.577 Y0.2242 Z-0.4273
N61940 X1.4395 Y0.0867 Z-0.4142
N61945 X1.4381 Y0.0854 Z-0.4141
N61950 X1.4366 Y0.0842 Z-0.4139
N61955 X1.4349 Y0.0831 Z-0.4138
N61960 X1.4332 Y0.0822 Z-0.4136
N61965 X1.4315 Y0.0813 Z-0.4135
N61970 X1.4296 Y0.0807 Z-0.4134
N61975 X1.4277 Y0.0801 Z-0.4132
N61980 X1.4258 Y0.0798 Z-0.4131
N61985 X1.4239 Y0.0795 Z-0.413
N61990 X1.4219 Z-0.4129
N61995 X1.4199 Z-0.4128
N62000 X1.418 Y0.0798 Z-0.4126
N62005 X1.4161 Y0.0802 Z-0.4125
N62010 X1.4142 Y0.0807 Z-0.4124
N62015 X1.4124 Y0.0814
N62020 X1.4106 Y0.0822 Z-0.4123
N62025 X1.4089 Y0.0832 Z-0.4122
N62030 X1.4072 Y0.0843
N62035 X1.4057 Y0.0855 Z-0.4121
N62040 X1.4043 Y0.0868
N62045 X1.4029 Y0.0882 Z-0.412
N62050 X1.4017 Y0.0898
N62055 X1.4006 Y0.0914
N62060 X1.3997 Y0.0931
N62065 X1.3988 Y0.0949
N62070 X1.3982 Y0.0968 Z-0.4121
N62075 X1.3976 Y0.0987
N62080 X1.3972 Y0.1006
N62085 X1.397 Y0.1025 Z-0.4122
N62090 X1.3969 Y0.1045 Z-0.4123
N62095 X1.397 Y0.1064
N62100 X1.3972 Y0.1084 Z-0.4124
N62105 X1.3976 Y0.1103 Z-0.4125
N62110 X1.3982 Y0.1122 Z-0.4126
N62115 X1.3988 Y0.114 Z-0.4127
N62120 X1.3996 Y0.1158 Z-0.4128
N62125 X1.4006 Y0.1175 Z-0.4129
N62130 X1.4017 Y0.1192 Z-0.4131
N62135 X1.4029 Y0.1207 Z-0.4132
N62140 X1.4042 Y0.1221 Z-0.4133
N62145 X1.7351 Y0.453 Z-0.445
N62150 X2.4172 Y1.1351 Z-0.5109
N62155 X2.5948 Y1.3127 Z-0.5282
N62160 X2.8443 Y1.5622 Z-0.5525
N62165 X2.8467 Y1.5646
N62170 X2.849 Y1.5669 Z-0.5521
N62175 X2.8512 Y1.5691 Z-0.5513
N62180 X2.8533 Y1.5712 Z-0.55
N62185 X2.8558 Y1.5737 Z-0.5486
N62190 X2.8584 Y1.5763 Z-0.5478
N62195 X2.8611 Y1.579 Z-0.5475
N62200 X2.8766 Y1.5945
N62205 G3 X2.8413 Y1.6299 I-0.0177 J0.0177
N62210 G1 X2.8386 Y1.6272 Z-0.5478
N62215 X2.836 Y1.6246 Z-0.5486
N62220 X2.8335 Y1.6221 Z-0.55
N62225 X2.8323 Y1.621 Z-0.5508
N62230 X2.8302 Y1.6188 Z-0.5521
N62235 X2.828 Y1.6166 Z-0.5529
N62240 X2.8257 Y1.6143 Z-0.5533
N62245 X2.8233 Y1.612
N62250 X2.5776 Y1.3662 Z-0.5293
N62255 X2.3638 Y1.1524 Z-0.5085
N62260 X1.6688 Y0.4574 Z-0.4412
N62265 X1.2313 Y0.0199 Z-0.3993
N62270 X1.0945 Y-0.1169 Z-0.3862
N62275 X1.0931 Y-0.1182 Z-0.386
N62280 X1.0915 Y-0.1194 Z-0.3859
N62285 X1.0899 Y-0.1205 Z-0.3858
N62290 X1.0882 Y-0.1215 Z-0.3856
N62295 X1.0864 Y-0.1223 Z-0.3855
N62300 X1.0846 Y-0.123 Z-0.3854
N62305 X1.0827 Y-0.1235 Z-0.3852
N62310 X1.0807 Y-0.1239 Z-0.3851
N62315 X1.0788 Y-0.1241 Z-0.385
N62320 X1.0768 Y-0.1242 Z-0.3848
N62325 X1.0749 Y-0.1241 Z-0.3847
N62330 X1.0729 Y-0.1239 Z-0.3846
N62335 X1.071 Y-0.1235 Z-0.3845
N62340 X1.0691 Y-0.123 Z-0.3844
N62345 X1.0673 Y-0.1223 Z-0.3843
N62350 X1.0655 Y-0.1214
N62355 X1.0638 Y-0.1205 Z-0.3842
N62360 X1.0622 Y-0.1194 Z-0.3841
N62365 X1.0606 Y-0.1182
N62370 X1.0592 Y-0.1168 Z-0.384
N62375 X1.0579 Y-0.1154
N62380 X1.0566 Y-0.1139
N62385 X1.0556 Y-0.1122
N62390 X1.0546 Y-0.1105
N62395 X1.0538 Y-0.1087
N62400 X1.0531 Y-0.1069
N62405 X1.0526 Y-0.105 Z-0.3841
N62410 X1.0522 Y-0.1031
N62415 X1.052 Y-0.1011 Z-0.3842
N62420 X1.0519 Y-0.0992
N62425 X1.052 Y-0.0972 Z-0.3843
N62430 X1.0522 Y-0.0953 Z-0.3844
N62435 X1.0526 Y-0.0933 Z-0.3845
N62440 X1.0531 Y-0.0914 Z-0.3846
N62445 X1.0538 Y-0.0896 Z-0.3847
N62450 X1.0546 Y-0.0878 Z-0.3848
N62455 X1.0555 Y-0.0861 Z-0.3849
N62460 X1.0566 Y-0.0845 Z-0.385
N62465 X1.0578 Y-0.0829 Z-0.3852
N62470 X1.0592 Y-0.0815 Z-0.3853
N62475 X1.0892 Y-0.0515 Z-0.3882
N62480 X1.6 Y0.4593 Z-0.4372
N62485 X2.3239 Y1.1832 Z-0.5075
N62490 X2.5469 Y1.4062 Z-0.5292
N62495 X2.8024 Y1.6617 Z-0.5542
N62500 X2.8047 Y1.664
N62505 X2.807 Y1.6663 Z-0.5538
N62510 X2.8092 Y1.6686 Z-0.553
N62515 X2.8114 Y1.6707 Z-0.5517
N62520 X2.8139 Y1.6732 Z-0.5503
N62525 X2.8165 Y1.6758 Z-0.5495
N62530 X2.8192 Y1.6785 Z-0.5492
N62535 X2.8349 Y1.6942
N62540 G3 Y1.7296 I-0.0177 J0.0177
N62545 X2.7995 I-0.0177 J-0.0177
N62550 G1 X2.7969 Y1.7269 Z-0.5495
N62555 X2.7942 Y1.7243 Z-0.5503
N62560 X2.7917 Y1.7218 Z-0.5517
N62565 X2.7904 Y1.7205 Z-0.5526
N62570 X2.7883 Y1.7183 Z-0.5539
N62575 X2.7861 Y1.7161 Z-0.5547
N62580 X2.7838 Y1.7138 Z-0.5551
N62585 X2.7814 Y1.7115
N62590 X2.5049 Y1.4349 Z-0.528
N62595 X2.2953 Y1.2253 Z-0.5076
N62600 X1.5275 Y0.4576 Z-0.4329
N62605 X1.0028 Y-0.0672 Z-0.3824
N62610 X0.8866 Y-0.1834 Z-0.3713
N62615 X0.7487 Y-0.3212 Z-0.3581
N62620 X0.7473 Y-0.3226 Z-0.358
N62625 X0.7458 Y-0.3238 Z-0.3579
N62630 X0.7441 Y-0.3249 Z-0.3577
N62635 X0.7424 Y-0.3258 Z-0.3576
N62640 X0.7406 Y-0.3266 Z-0.3575
N62645 X0.7388 Y-0.3273 Z-0.3573
N62650 X0.7369 Y-0.3278 Z-0.3572
N62655 X0.735 Y-0.3282 Z-0.3571
N62660 X0.7331 Y-0.3285 Z-0.3569
N62665 X0.7311 Z-0.3568
N62670 X0.7291 Y-0.3284 Z-0.3567
N62675 X0.7272 Y-0.3282 Z-0.3566
N62680 X0.7253 Y-0.3278 Z-0.3565
N62685 X0.7234 Y-0.3273 Z-0.3564
N62690 X0.7215 Y-0.3266 Z-0.3563
N62695 X0.7198 Y-0.3258 Z-0.3562
N62700 X0.7181 Y-0.3248
N62705 X0.7164 Y-0.3237 Z-0.3561
N62710 X0.7149 Y-0.3225 Z-0.356
N62715 X0.7134 Y-0.3212
N62720 X0.7121 Y-0.3197
N62725 X0.7109 Y-0.3182 Z-0.3559
N62730 X0.7098 Y-0.3166
N62735 X0.7089 Y-0.3148
N62740 X0.708 Y-0.3131 Z-0.356
N62745 X0.7074 Y-0.3112
N62750 X0.7068 Y-0.3093
N62755 X0.7064 Y-0.3074 Z-0.3561
N62760 X0.7062 Y-0.3055
N62765 X0.7061 Y-0.3035 Z-0.3562
N62770 X0.7062 Y-0.3015
N62775 X0.7064 Y-0.2996 Z-0.3563
N62780 X0.7068 Y-0.2977 Z-0.3564
N62785 X0.7073 Y-0.2958 Z-0.3565
N62790 X0.708 Y-0.2939 Z-0.3566
N62795 X0.7088 Y-0.2922 Z-0.3567
N62800 X0.7098 Y-0.2904 Z-0.3569
N62805 X0.7109 Y-0.2888 Z-0.357
N62810 X0.7121 Y-0.2873 Z-0.3571
N62815 X0.7134 Y-0.2858 Z-0.3572
N62820 X0.9144 Y-0.0849 Z-0.3764
N62825 X1.4584 Y0.4591 Z-0.4289
N62830 X2.2807 Y1.2815 Z-0.5091
N62835 X2.4488 Y1.4495 Z-0.5255
N62840 X2.7604 Y1.7611 Z-0.556
N62845 X2.7627 Y1.7634 Z-0.5561
N62850 X2.765 Y1.7657 Z-0.5556
N62855 X2.7673 Y1.768 Z-0.5548
N62860 X2.7694 Y1.7701 Z-0.5536
N62865 X2.7719 Y1.7726 Z-0.5522
N62870 X2.7745 Y1.7752 Z-0.5513
N62875 X2.7772 Y1.7779 Z-0.551
N62880 X2.793 Y1.7938
N62885 G3 X2.7577 Y1.8291 I-0.0177 J0.0177
N62890 G1 X2.755 Y1.8264 Z-0.5513
N62895 X2.7524 Y1.8238 Z-0.5522
N62900 X2.7499 Y1.8213 Z-0.5536
N62905 X2.7485 Y1.8199 Z-0.5545
N62910 X2.7463 Y1.8178 Z-0.5558
N62915 X2.7441 Y1.8155 Z-0.5566
N62920 X2.7418 Y1.8132 Z-0.557
N62925 X2.7395 Y1.8109
N62930 X2.3548 Y1.4263 Z-0.5193
N62935 X2.3035 Y1.3749 Z-0.5143
N62940 X1.4169 Y0.4883 Z-0.4276
N62945 X0.8408 Y-0.0878 Z-0.3719
N62950 X0.5403 Y-0.3882 Z-0.3432
N62955 X0.403 Y-0.5256 Z-0.33
N62960 X0.4015 Y-0.5269 Z-0.3299
N62965 X0.4 Y-0.5281 Z-0.3298
N62970 X0.3984 Y-0.5292 Z-0.3296
N62975 X0.3967 Y-0.5302 Z-0.3295
N62980 X0.3949 Y-0.531 Z-0.3294
N62985 X0.393 Y-0.5317 Z-0.3292
N62990 X0.3912 Y-0.5322 Z-0.3291
N62995 X0.3892 Y-0.5326 Z-0.329
N63000 X0.3873 Y-0.5328 Z-0.3288
N63005 X0.3853 Y-0.5329 Z-0.3287
N63010 X0.3834 Y-0.5328 Z-0.3286
N63015 X0.3814 Y-0.5326 Z-0.3285
N63020 X0.3795 Y-0.5322 Z-0.3284
N63025 X0.3776 Y-0.5316 Z-0.3283
N63030 X0.3758 Y-0.531 Z-0.3282
N63035 X0.374 Y-0.5301 Z-0.3281
N63040 X0.3723 Y-0.5292
N63045 X0.3707 Y-0.5281 Z-0.328
N63050 X0.3691 Y-0.5269
N63055 X0.3677 Y-0.5255 Z-0.3279
N63060 X0.3663 Y-0.5241
N63065 X0.3651 Y-0.5226
N63070 X0.364 Y-0.5209
N63075 X0.3631 Y-0.5192
N63080 X0.3623 Y-0.5174
N63085 X0.3616 Y-0.5156
N63090 X0.361 Y-0.5137
N63095 X0.3607 Y-0.5118 Z-0.328
N63100 X0.3604 Y-0.5098
N63105 Y-0.5079 Z-0.3281
N63110 Y-0.5059 Z-0.3282
N63115 X0.3607 Y-0.5039 Z-0.3283
N63120 X0.361 Y-0.502
N63125 X0.3616 Y-0.5001 Z-0.3284
N63130 X0.3623 Y-0.4983 Z-0.3285
N63135 X0.3631 Y-0.4965 Z-0.3287
N63140 X0.364 Y-0.4948 Z-0.3288
N63145 X0.3651 Y-0.4932 Z-0.3289
N63150 X0.3663 Y-0.4916 Z-0.329
N63155 X0.3677 Y-0.4902 Z-0.3292
N63160 X0.4547 Y-0.4031 Z-0.3374
N63165 X0.9034 Y0.0456 Z-0.3806
N63170 X1.5984 Y0.7406 Z-0.4482
N63175 X2.7185 Y1.8606 Z-0.5581
N63180 X2.7223 Y1.8645
N63185 X2.7262 Y1.8683 Z-0.5576
N63190 X2.73 Y1.8721 Z-0.5565
N63195 X2.7336 Y1.8758 Z-0.5548
N63200 X2.7372 Y1.8793 Z-0.5526
N63205 X2.7405 Y1.8826 Z-0.5498
N63210 X2.7436 Y1.8857 Z-0.5465
N63215 X2.7464 Y1.8885 Z-0.5428
N63220 X2.7489 Y1.8911 Z-0.5387
N63225 X2.7511 Y1.8933 Z-0.5342
N63230 X2.7529 Y1.8951 Z-0.5294
N63235 X2.7544 Y1.8965 Z-0.5243
N63240 X2.7554 Y1.8976 Z-0.519
N63245 X2.7561 Y1.8982 Z-0.5136
N63250 X2.7563 Y1.8984 Z-0.5082
N63255 G0 Z0.2
N63260 X-0.0384 Y-1.1084
N63265 Z-0.1875
N63270 G1 Z-0.2335 F39.37
N63275 X-0.0386 Y-1.1086 Z-0.2389
N63280 X-0.0392 Y-1.1092 Z-0.2443
N63285 X-0.0403 Y-1.1103 Z-0.2495
N63290 X-0.0417 Y-1.1117 Z-0.2545
N63295 X-0.0435 Y-1.1135 Z-0.2593
N63300 X-0.0457 Y-1.1156 Z-0.2638
N63305 X-0.0482 Y-1.1181 Z-0.268
N63310 X-0.051 Y-1.1209 Z-0.2717
N63315 X-0.054 Y-1.124 Z-0.275
N63320 X-0.0573 Y-1.1273 Z-0.2777
N63325 X-0.0608 Y-1.1308 Z-0.28
N63330 X-0.0644 Y-1.1344 Z-0.2817
N63335 X-0.0682 Y-1.1382 Z-0.2829
N63340 X-0.072 Y-1.142 Z-0.2834
N63345 X-0.0759 Y-1.1458
N63350 X-0.0891 Y-1.1591 Z-0.2823
N63355 X-0.0914 Y-1.1614 Z-0.2819
N63360 X-0.0937 Y-1.1636 Z-0.281
N63365 X-0.0958 Y-1.1658 Z-0.2798
N63370 X-0.0983 Y-1.1683 Z-0.2784
N63375 X-0.1009 Y-1.1709 Z-0.2775
N63380 X-0.1036 Y-1.1736 Z-0.2772
N63385 G2 X-0.139 I-0.0177 J0.0177
N63390 Y-1.1382 I0.0177 J0.0177
N63395 G1 X-0.1178 Y-1.1171
N63400 X-0.1151 Y-1.1144 Z-0.2775
N63405 X-0.1125 Y-1.1118 Z-0.2784
N63410 X-0.11 Y-1.1093 Z-0.2798
N63415 X-0.1079 Y-1.1071 Z-0.281
N63420 X-0.1056 Y-1.1049 Z-0.2819
N63425 X-0.1033 Y-1.1026 Z-0.2823
N63430 X-0.0697 Y-1.0689 Z-0.2852
N63435 X-0.067 Y-1.0663 Z-0.2851
N63440 X-0.0644 Y-1.0637 Z-0.2845
N63445 X-0.062 Y-1.0612 Z-0.2834
N63450 X-0.0596 Y-1.0589 Z-0.2818
N63455 X-0.0575 Y-1.0567 Z-0.2797
N63460 X-0.0555 Y-1.0548 Z-0.2771
N63465 X-0.0539 Y-1.0532 Z-0.2742
N63470 X-0.0526 Y-1.0519 Z-0.271
N63475 X-0.0517 Y-1.0509 Z-0.2675
N63480 X-0.0511 Y-1.0504 Z-0.2639
N63485 X-0.0509 Y-1.0502 Z-0.2602
N63490 Z-0.2573
N63495 X-0.0512 Z-0.2521
N63500 X-0.0521 Y-1.0504 Z-0.247
N63505 X-0.0537 Y-1.0506 Z-0.242
N63510 X-0.0558 Y-1.051 Z-0.2373
N63515 X-0.0584 Y-1.0514 Z-0.2328
N63520 X-0.0616 Y-1.052 Z-0.2287
N63525 X-0.0652 Y-1.0526 Z-0.225
N63530 X-0.0693 Y-1.0533 Z-0.2218
N63535 X-0.0737 Y-1.054 Z-0.2191
N63540 X-0.0784 Y-1.0548 Z-0.217
N63545 X-0.0833 Y-1.0556 Z-0.2154
N63550 X-0.0883 Y-1.0565 Z-0.2145
N63555 X-0.0934 Y-1.0574 Z-0.2142
N63560 X-0.0986 Y-1.0582 Z-0.2145
N63565 X-0.1036 Y-1.0591 Z-0.2154
N63570 X-0.1085 Y-1.0599 Z-0.217
N63575 X-0.1132 Y-1.0607 Z-0.2191
N63580 X-0.1176 Y-1.0614 Z-0.2218
N63585 X-0.1217 Y-1.0621 Z-0.225
N63590 X-0.1253 Y-1.0627 Z-0.2287
N63595 X-0.1285 Y-1.0633 Z-0.2328
N63600 X-0.1311 Y-1.0637 Z-0.2373
N63605 X-0.1332 Y-1.0641 Z-0.242
N63610 X-0.1347 Y-1.0643 Z-0.247
N63615 X-0.1357 Y-1.0645 Z-0.2521
N63620 X-0.136 Z-0.2573
N63625 X-0.1358 Y-1.0643 Z-0.2611
N63630 X-0.1352 Y-1.0637 Z-0.2648
N63635 X-0.1342 Y-1.0628 Z-0.2683
N63640 X-0.1329 Y-1.0614 Z-0.2715
N63645 X-0.1312 Y-1.0598 Z-0.2745
N63650 X-0.1292 Y-1.0578 Z-0.277
N63655 X-0.127 Y-1.0556 Z-0.2791
N63660 X-0.1246 Y-1.0532 Z-0.2807
N63665 X-0.122 Y-1.0506 Z-0.2818
N63670 X-0.1194 Y-1.048 Z-0.2823
N63675 X-0.0523 Y-0.9809 Z-0.2882
N63680 X-0.05 Y-0.9786
N63685 X-0.0478 Y-0.9763 Z-0.2878
N63690 X-0.0456 Y-0.9741 Z-0.287
N63695 X-0.0434 Y-0.972 Z-0.2857
N63700 X-0.041 Y-0.9695 Z-0.2843
N63705 X-0.0383 Y-0.9669 Z-0.2835
N63710 X-0.0357 Y-0.9642 Z-0.2832
N63715 X0.0372 Y-0.8913
N63720 X0.0386 Y-0.8899
N63725 X0.0398 Y-0.8883
N63730 X0.0409 Y-0.8867
N63735 X0.0418 Y-0.885 Z-0.2833
N63740 X0.0427 Y-0.8832 Z-0.2834
N63745 X0.0434 Y-0.8813 Z-0.2835
N63750 X0.0439 Y-0.8795 Z-0.2836
N63755 X0.0443 Y-0.8775 Z-0.2837
N63760 X0.0445 Y-0.8756 Z-0.2838
N63765 X0.0446 Y-0.8736 Z-0.2839
N63770 X0.0445 Y-0.8716 Z-0.2841
N63775 X0.0443 Y-0.8697 Z-0.2842
N63780 X0.0439 Y-0.8678 Z-0.2844
N63785 X0.0434 Y-0.8659 Z-0.2846
N63790 X0.0427 Y-0.864 Z-0.2848
N63795 X0.0419 Y-0.8622 Z-0.285
N63800 X0.0409 Y-0.8605 Z-0.2852
N63805 X0.0399 Y-0.8589 Z-0.2854
N63810 X0.0386 Y-0.8573 Z-0.2856
N63815 X0.0373 Y-0.8559 Z-0.2858
N63820 X0.0359 Y-0.8546 Z-0.286
N63825 X0.0343 Y-0.8533 Z-0.2862
N63830 X0.0327 Y-0.8523 Z-0.2864
N63835 X0.031 Y-0.8513 Z-0.2866
N63840 X0.0292 Y-0.8505 Z-0.2868
N63845 X0.0274 Y-0.8498 Z-0.2869
N63850 X0.0255 Y-0.8493 Z-0.2871
N63855 X0.0235 Y-0.8489 Z-0.2873
N63860 X0.0216 Y-0.8487 Z-0.2874
N63865 X0.0196 Y-0.8486 Z-0.2876
N63870 X0.0176 Y-0.8487 Z-0.2877
N63875 X0.0157 Y-0.8489 Z-0.2879
N63880 X0.0138 Y-0.8493 Z-0.288
N63885 X0.0119 Y-0.8498 Z-0.2881
N63890 X0.01 Y-0.8505 Z-0.2882
N63895 X0.0082 Y-0.8514
N63900 X0.0065 Y-0.8523 Z-0.2883
N63905 X0.0049 Y-0.8534
N63910 X0.0033 Y-0.8547
N63915 X0.0019 Y-0.856 Z-0.2884
N63920 X-0.0008 Y-0.8587 Z-0.2886
N63925 X-0.0034 Y-0.8613 Z-0.2895
N63930 X-0.0059 Y-0.8638 Z-0.2909
N63935 X-0.008 Y-0.8659 Z-0.2921
N63940 X-0.0103 Y-0.8681 Z-0.293
N63945 X-0.0125 Y-0.8704 Z-0.2934
N63950 X-0.0148 Y-0.8727
N63955 X-0.1374 Y-0.9953 Z-0.2823
N63960 X-0.1397 Y-0.9976 Z-0.2819
N63965 X-0.1419 Y-0.9998 Z-0.281
N63970 X-0.1441 Y-1.0019 Z-0.2798
N63975 X-0.1466 Y-1.0044 Z-0.2784
N63980 X-0.1492 Y-1.0071 Z-0.2775
N63985 X-0.1519 Y-1.0097 Z-0.2772
N63990 G2 X-0.1872 I-0.0177 J0.0177
N63995 Y-0.9744 I0.0177 J0.0177
N64000 G1 X-0.1717 Y-0.9589
N64005 X-0.169 Y-0.9562 Z-0.2775
N64010 X-0.1664 Y-0.9536 Z-0.2784
N64015 X-0.1639 Y-0.9511 Z-0.2798
N64020 X-0.1618 Y-0.9489 Z-0.281
N64025 X-0.1596 Y-0.9467 Z-0.2819
N64030 X-0.1573 Y-0.9444 Z-0.2823
N64035 X0.0194 Y-0.7678 Z-0.2986
N64040 X0.3256 Y-0.4616 Z-0.3276
N64045 X0.7861 Y-0.0011 Z-0.3719
N64050 X1.5014 Y0.7142 Z-0.4417
N64055 X2.6975 Y1.9103 Z-0.5591
N64060 X2.6998 Y1.9126
N64065 X2.7021 Y1.9149 Z-0.5587
N64070 X2.7043 Y1.9172 Z-0.5579
N64075 X2.7065 Y1.9193 Z-0.5566
N64080 X2.709 Y1.9218 Z-0.5552
N64085 X2.7116 Y1.9244 Z-0.5544
N64090 X2.7143 Y1.9271 Z-0.5541
N64095 X2.7302 Y1.943
N64100 G3 X2.6948 Y1.9784 I-0.0177 J0.0177
N64105 G1 X2.6922 Y1.9757 Z-0.5544
N64110 X2.6896 Y1.9731 Z-0.5552
N64115 X2.6871 Y1.9706 Z-0.5566
N64120 X2.6855 Y1.969 Z-0.5577
N64125 X2.6834 Y1.9669 Z-0.5589
N64130 X2.6811 Y1.9647 Z-0.5598
N64135 X2.6788 Y1.9624 Z-0.5602
N64140 X2.6765 Y1.96
N64145 X1.3198 Y0.6034 Z-0.4268
N64150 X0.6045 Y-0.1119 Z-0.3571
N64155 X0.1547 Y-0.5617 Z-0.3137
N64160 X-0.1322 Y-0.8487 Z-0.2866
N64165 X-0.1787 Y-0.8952 Z-0.2823
N64170 X-0.181 Y-0.8975 Z-0.2819
N64175 X-0.1832 Y-0.8997 Z-0.281
N64180 X-0.1854 Y-0.9018 Z-0.2798
N64185 X-0.1878 Y-0.9043 Z-0.2784
N64190 X-0.1905 Y-0.9069 Z-0.2775
N64195 X-0.1931 Y-0.9096 Z-0.2772
N64200 G2 X-0.2285 Y-0.8742 I-0.0177 J0.0177
N64205 G1 X-0.2162 Y-0.8619
N64210 X-0.2135 Y-0.8592 Z-0.2775
N64215 X-0.2109 Y-0.8566 Z-0.2784
N64220 X-0.2084 Y-0.8541 Z-0.2798
N64225 X-0.2063 Y-0.852 Z-0.281
N64230 X-0.2041 Y-0.8498 Z-0.2819
N64235 X-0.2018 Y-0.8475 Z-0.2823
N64240 X0.0375 Y-0.6083 Z-0.305
N64245 X0.4861 Y-0.1596 Z-0.3483
N64250 X1.2314 Y0.5856 Z-0.4212
N64255 X2.6556 Y2.0098 Z-0.5613
N64260 X2.6579 Y2.0121
N64265 X2.6602 Y2.0144 Z-0.5609
N64270 X2.6624 Y2.0167 Z-0.5601
N64275 X2.6646 Y2.0188 Z-0.5588
N64280 X2.6671 Y2.0213 Z-0.5574
N64285 X2.6697 Y2.0239 Z-0.5566
N64290 X2.6723 Y2.0266 Z-0.5563
N64295 X2.6884 Y2.0426
N64300 G3 Y2.078 I-0.0177 J0.0177
N64305 X2.653 I-0.0177 J-0.0177
N64310 G1 X2.6503 Y2.0753 Z-0.5566
N64315 X2.6477 Y2.0727 Z-0.5574
N64320 X2.6452 Y2.0702 Z-0.5588
N64325 X2.6436 Y2.0685 Z-0.56
N64330 X2.6414 Y2.0664 Z-0.5612
N64335 X2.6392 Y2.0641 Z-0.5621
N64340 X2.6369 Y2.0618 Z-0.5625
N64345 X2.6345 Y2.0595
N64350 X1.114 Y0.539 Z-0.4127
N64355 X0.3356 Y-0.2395 Z-0.3365
N64360 X-0.1024 Y-0.6775 Z-0.2941
N64365 X-0.2263 Y-0.8014 Z-0.2823
N64370 X-0.2264
N64375 X-0.2286 Y-0.8037 Z-0.2819
N64380 X-0.2309 Y-0.8059 Z-0.281
N64385 X-0.233 Y-0.808 Z-0.2798
N64390 X-0.2355 Y-0.8105 Z-0.2784
N64395 X-0.2381 Y-0.8131 Z-0.2775
N64400 X-0.2408 Y-0.8158 Z-0.2772
N64405 G2 X-0.2761 I-0.0177 J0.0177
N64410 Y-0.7804 I0.0177 J0.0177
N64415 G1 X-0.2667 Y-0.771
N64420 X-0.264 Y-0.7683 Z-0.2775
N64425 X-0.2614 Y-0.7657 Z-0.2784
N64430 X-0.2589 Y-0.7632 Z-0.2798
N64435 X-0.2568 Y-0.7611 Z-0.281
N64440 X-0.2545 Y-0.7589 Z-0.2819
N64445 X-0.2523 Y-0.7566 Z-0.2823
N64450 X0.1421 Y-0.3622 Z-0.3205
N64455 X0.911 Y0.4066 Z-0.3958
N64460 X2.6136 Y2.1092 Z-0.5637
N64465 X2.6159 Y2.1115
N64470 X2.6182 Y2.1138 Z-0.5633
N64475 X2.6204 Y2.1161 Z-0.5624
N64480 X2.6226 Y2.1182 Z-0.5612
N64485 X2.6251 Y2.1207 Z-0.5598
N64490 X2.6277 Y2.1233 Z-0.5589
N64495 X2.6303 Y2.126 Z-0.5586
N64500 X2.6465 Y2.1422
N64505 G3 X2.6112 Y2.1776 I-0.0177 J0.0177
N64510 G1 X2.6085 Y2.1749 Z-0.5589
N64515 X2.6059 Y2.1723 Z-0.5598
N64520 X2.6034 Y2.1698 Z-0.5612
N64525 X2.6016 Y2.168 Z-0.5624
N64530 X2.5995 Y2.1659 Z-0.5637
N64535 X2.5972 Y2.1636 Z-0.5645
N64540 X2.5949 Y2.1613 Z-0.5649
N64545 X2.5926 Y2.159
N64550 X0.6652 Y0.2315 Z-0.3748
N64555 X-0.0833 Y-0.5169 Z-0.3014
N64560 X-0.2797 Y-0.7133 Z-0.2823
N64565 X-0.282 Y-0.7156 Z-0.2819
N64570 X-0.2842 Y-0.7178 Z-0.281
N64575 X-0.2863 Y-0.7199 Z-0.2798
N64580 X-0.2888 Y-0.7224 Z-0.2784
N64585 X-0.2914 Y-0.725 Z-0.2775
N64590 X-0.2941 Y-0.7277 Z-0.2772
N64595 G2 X-0.3294 Y-0.6923 I-0.0177 J0.0177
N64600 G1 X-0.3228 Y-0.6858
N64605 X-0.3202 Y-0.6831 Z-0.2775
N64610 X-0.3176 Y-0.6805 Z-0.2784
N64615 X-0.3151 Y-0.678 Z-0.2798
N64620 X-0.313 Y-0.6759 Z-0.281
N64625 X-0.3108 Y-0.6737 Z-0.2819
N64630 X-0.3085 Y-0.6714 Z-0.2823
N64635 X0.43 Y0.0671 Z-0.3548
N64640 X2.5716 Y2.2087 Z-0.5662
N64645 X2.574 Y2.211
N64650 X2.5763 Y2.2133 Z-0.5658
N64655 X2.5785 Y2.2156 Z-0.5649
N64660 X2.5807 Y2.2177 Z-0.5637
N64665 X2.5831 Y2.2202 Z-0.5623
N64670 X2.5858 Y2.2228 Z-0.5614
N64675 X2.5884 Y2.2255 Z-0.5611
N64680 X2.6046 Y2.2417
N64685 G3 Y2.277 I-0.0177 J0.0177
N64690 X2.5693 I-0.0177 J-0.0177
N64695 G1 X2.5666 Y2.2744 Z-0.5614
N64700 X2.564 Y2.2718 Z-0.5623
N64705 X2.5615 Y2.2693 Z-0.5637
N64710 X2.5596 Y2.2674 Z-0.565
N64715 X2.5575 Y2.2653 Z-0.5662
N64720 X2.5552 Y2.263 Z-0.5671
N64725 X2.5529 Y2.2607 Z-0.5675
N64730 X2.5506 Y2.2584
N64735 X0.1092 Y-0.183 Z-0.3263
N64740 X-0.3387 Y-0.6309 Z-0.2823
N64745 X-0.3409 Y-0.6331 Z-0.2819
N64750 X-0.3431 Y-0.6353 Z-0.281
N64755 X-0.3452 Y-0.6374 Z-0.2798
N64760 X-0.3477 Y-0.6399 Z-0.2784
N64765 X-0.3503 Y-0.6425 Z-0.2775
N64770 X-0.353 Y-0.6452 Z-0.2773
N64775 G2 X-0.3884 Y-0.6099 I-0.0177 J0.0177
N64780 G1 X-0.3846 Y-0.6061
N64785 X-0.3819 Y-0.6034 Z-0.2775
N64790 X-0.3793 Y-0.6008 Z-0.2784
N64795 X-0.3768 Y-0.5983 Z-0.2798
N64800 X-0.3747 Y-0.5962 Z-0.281
N64805 X-0.3725 Y-0.594 Z-0.2819
N64810 X-0.3702 Y-0.5917 Z-0.2823
N64815 X-0.3187 Y-0.5402 Z-0.2874
N64820 X2.5297 Y2.3082 Z-0.5688
N64825 X2.532 Y2.3105
N64830 X2.5343 Y2.3128 Z-0.5684
N64835 X2.5366 Y2.3151 Z-0.5675
N64840 X2.5387 Y2.3172 Z-0.5663
N64845 X2.5412 Y2.3197 Z-0.5649
N64850 X2.5438 Y2.3223 Z-0.564
N64855 X2.5465 Y2.325 Z-0.5637
N64860 X2.5628 Y2.3413
N64865 G3 X2.5274 Y2.3766 I-0.0177 J0.0177
N64870 G1 X2.5247 Y2.374 Z-0.564
N64875 X2.5221 Y2.3713 Z-0.5649
N64880 X2.5196 Y2.3688 Z-0.5663
N64885 X2.5177 Y2.3669 Z-0.5677
N64890 X2.5155 Y2.3647 Z-0.5689
N64895 X2.5133 Y2.3625 Z-0.5697
N64900 X2.511 Y2.3602 Z-0.5702
N64905 X2.5087 Y2.3579 Z-0.5701
N64910 X-0.4031 Y-0.5539 Z-0.2823
N64915 X-0.4054 Y-0.5562 Z-0.2819
N64920 X-0.4076 Y-0.5584 Z-0.281
N64925 X-0.4097 Y-0.5605 Z-0.2798
N64930 X-0.4122 Y-0.563 Z-0.2784
N64935 X-0.4148 Y-0.5656 Z-0.2775
N64940 X-0.4175 Y-0.5683 Z-0.2772
N64945 G2 X-0.4528 Y-0.5329 I-0.0177 J0.0177
N64950 G1 X-0.4516 Y-0.5317
N64955 X-0.4489 Y-0.529 Z-0.2775
N64960 X-0.4463 Y-0.5264 Z-0.2784
N64965 X-0.4438 Y-0.5239 Z-0.2798
N64970 X-0.4417 Y-0.5218 Z-0.281
N64975 X-0.4395 Y-0.5196 Z-0.2819
N64980 X-0.4372 Y-0.5173 Z-0.2823
N64985 X2.4877 Y2.4076 Z-0.5715
N64990 X2.49 Y2.4099
N64995 X2.4923 Y2.4122 Z-0.5711
N65000 X2.4945 Y2.4144 Z-0.5703
N65005 X2.4967 Y2.4166 Z-0.569
N65010 X2.4992 Y2.4191 Z-0.5676
N65015 X2.5018 Y2.4217 Z-0.5668
N65020 X2.5045 Y2.4244 Z-0.5665
N65025 X2.5208 Y2.4407
N65030 G3 X2.4855 Y2.4761 I-0.0177 J0.0177
N65035 G1 X2.4828 Y2.4734 Z-0.5668
N65040 X2.4802 Y2.4708 Z-0.5676
N65045 X2.4777 Y2.4683 Z-0.569
N65050 X2.4757 Y2.4663 Z-0.5705
N65055 X2.4735 Y2.4641 Z-0.5717
N65060 X2.4713 Y2.4619 Z-0.5725
N65065 X2.469 Y2.4596 Z-0.573
N65070 X2.4667 Y2.4573 Z-0.5729
N65075 X-0.4727 Y-0.4821 Z-0.2823
N65080 X-0.475 Y-0.4844 Z-0.2819
N65085 X-0.4772 Y-0.4865 Z-0.281
N65090 X-0.4793 Y-0.4886 Z-0.2798
N65095 X-0.4818 Y-0.4911 Z-0.2784
N65100 X-0.4844 Y-0.4938 Z-0.2775
N65105 X-0.487 Y-0.4964 Z-0.2773
N65110 X-0.4885 Y-0.4978
N65115 G2 X-0.5238 Y-0.4625 I-0.0177 J0.0177
N65120 G1 X-0.5211 Y-0.4598 Z-0.2775
N65125 X-0.5185 Y-0.4572 Z-0.2784
N65130 X-0.516 Y-0.4547 Z-0.2798
N65135 X-0.5139 Y-0.4526 Z-0.281
N65140 X-0.5117 Y-0.4504 Z-0.2819
N65145 X-0.5095 Y-0.4482 Z-0.2823
N65150 X2.4457 Y2.5071 Z-0.5744
N65155 X2.4481 Y2.5094
N65160 X2.4504 Y2.5117 Z-0.574
N65165 X2.4526 Y2.5139 Z-0.5732
N65170 X2.4547 Y2.5161 Z-0.5719
N65175 X2.4572 Y2.5186 Z-0.5705
N65180 X2.4599 Y2.5212 Z-0.5697
N65185 X2.4625 Y2.5238 Z-0.5694
N65190 X2.479 Y2.5403
N65195 G3 Y2.5757 I-0.0177 J0.0177
N65200 X2.4436 I-0.0177 J-0.0177
N65205 G1 X2.441 Y2.573 Z-0.5697
N65210 X2.4384 Y2.5704 Z-0.5705
N65215 X2.4359 Y2.5679 Z-0.5719
N65220 X2.4337 Y2.5658 Z-0.5734
N65225 X2.4316 Y2.5636 Z-0.5747
N65230 X2.4293 Y2.5614 Z-0.5755
N65235 X2.427 Y2.5591 Z-0.5759
N65240 X2.4247 Y2.5567
N65245 X-0.3871 Y-0.2551 Z-0.2981
N65250 X-0.5476 Y-0.4155 Z-0.2823
N65255 X-0.5498 Y-0.4178 Z-0.2819
N65260 X-0.552 Y-0.42 Z-0.281
N65265 X-0.5541 Y-0.4221 Z-0.2798
N65270 X-0.5566 Y-0.4246 Z-0.2784
N65275 X-0.5592 Y-0.4272 Z-0.2775
N65280 X-0.5619 Y-0.4299 Z-0.2773
N65285 X-0.5659 Y-0.4339
N65290 G2 X-0.6013 Y-0.3985 I-0.0177 J0.0177
N65295 G1 X-0.5986 Y-0.3959 Z-0.2775
N65300 X-0.596 Y-0.3932 Z-0.2784
N65305 X-0.5935 Y-0.3908 Z-0.2798
N65310 X-0.5914 Y-0.3887 Z-0.281
N65315 X-0.5892 Y-0.3865 Z-0.2819
N65320 X-0.5869 Y-0.3842 Z-0.2823
N65325 X-0.0645 Y0.1382 Z-0.3337
N65330 X2.4036 Y2.6063 Z-0.5774
N65335 X2.4059 Y2.6086
N65340 X2.4082 Y2.6109 Z-0.577
N65345 X2.4105 Y2.6132 Z-0.5762
N65350 X2.4126 Y2.6153 Z-0.5749
N65355 X2.4151 Y2.6178 Z-0.5735
N65360 X2.4177 Y2.6204 Z-0.5726
N65365 X2.4204 Y2.6231 Z-0.5724
N65370 X2.4333 Y2.636
N65375 G3 X2.3979 Y2.6714 I-0.0177 J0.0177
N65380 G1 X2.3952 Y2.6687 Z-0.5726
N65385 X2.3926 Y2.6661 Z-0.5735
N65390 X2.3901 Y2.6636 Z-0.5749
N65395 X2.3884 Y2.6618 Z-0.5761
N65400 X2.3862 Y2.6597 Z-0.5774
N65405 X2.384 Y2.6574 Z-0.5782
N65410 X2.3817 Y2.6551 Z-0.5786
N65415 X2.3794 Y2.6528
N65420 X2.155 Y2.4285 Z-0.5565
N65425 X2.0561 Y2.3295 Z-0.5467
N65430 X0.0987 Y0.3721 Z-0.3535
N65435 X-0.607 Y-0.3335 Z-0.2843
N65440 X-0.6277 Y-0.3542 Z-0.2823
N65445 X-0.6299 Y-0.3565 Z-0.2819
N65450 X-0.6321 Y-0.3587 Z-0.281
N65455 X-0.6342 Y-0.3608 Z-0.2798
N65460 X-0.6367 Y-0.3633 Z-0.2784
N65465 X-0.6394 Y-0.3659 Z-0.2775
N65470 X-0.642 Y-0.3686 Z-0.2772
N65475 X-0.6487 Y-0.3753
N65480 G2 X-0.6841 Y-0.3399 I-0.0177 J0.0177
N65485 G1 X-0.6814 Y-0.3373 Z-0.2775
N65490 X-0.6788 Y-0.3346 Z-0.2784
N65495 X-0.6763 Y-0.3321 Z-0.2798
N65500 X-0.6742 Y-0.33 Z-0.281
N65505 X-0.672 Y-0.3278 Z-0.2819
N65510 X-0.6697 Y-0.3256 Z-0.2823
N65515 X-0.4881 Y-0.1439 Z-0.2999
N65520 X0.2486 Y0.5928 Z-0.3721
N65525 X1.9929 Y2.3371 Z-0.5441
N65530 X2.1473 Y2.4915 Z-0.5594
N65535 X2.3503 Y2.6945 Z-0.5794
N65540 X2.3526 Y2.6968
N65545 X2.3549 Y2.6991 Z-0.579
N65550 X2.3572 Y2.7013 Z-0.5782
N65555 X2.3593 Y2.7035 Z-0.5769
N65560 X2.3618 Y2.706 Z-0.5755
N65565 X2.3644 Y2.7086 Z-0.5746
N65570 X2.3671 Y2.7113 Z-0.5744
N65575 X2.3696 Y2.7137
N65580 G3 X2.3342 Y2.7491 I-0.0177 J0.0177
N65585 G1 X2.3315 Y2.7464 Z-0.5746
N65590 X2.3289 Y2.7438 Z-0.5755
N65595 X2.3264 Y2.7413 Z-0.5769
N65600 X2.3259 Y2.7408 Z-0.5773
N65605 X2.3238 Y2.7386 Z-0.5785
N65610 X2.3215 Y2.7364 Z-0.5794
N65615 X2.3192 Y2.7341 Z-0.5798
N65620 X2.3169 Y2.7317
N65625 X2.1185 Y2.5334 Z-0.5602
N65630 X1.9511 Y2.3659 Z-0.5437
N65635 X0.3577 Y0.7726 Z-0.3867
N65640 X-0.3661 Y0.0488 Z-0.3159
N65645 X-0.7132 Y-0.2983 Z-0.2823
N65650 X-0.7155 Y-0.3006 Z-0.2819
N65655 X-0.7177 Y-0.3028 Z-0.281
N65660 X-0.7198 Y-0.3049 Z-0.2798
N65665 X-0.7223 Y-0.3074 Z-0.2784
N65670 X-0.7249 Y-0.31 Z-0.2775
N65675 X-0.7275 Y-0.3127 Z-0.2772
N65680 X-0.7371 Y-0.3222
N65685 G2 X-0.7724 I-0.0177 J0.0177
N65690 Y-0.2869 I0.0177 J0.0177
N65695 G1 X-0.7698 Y-0.2842 Z-0.2775
N65700 X-0.7671 Y-0.2816 Z-0.2784
N65705 X-0.7647 Y-0.2791 Z-0.2798
N65710 X-0.7625 Y-0.277 Z-0.281
N65715 X-0.7603 Y-0.2748 Z-0.2819
N65720 X-0.7581 Y-0.2725 Z-0.2823
N65725 X-0.6697 Y-0.1841 Z-0.2907
N65730 X-0.2735 Y0.2121 Z-0.3289
N65735 X0.4278 Y0.9134 Z-0.3975
N65740 X1.9248 Y2.4104 Z-0.5448
N65745 X2.074 Y2.5595 Z-0.5595
N65750 X2.279 Y2.7645 Z-0.5798
N65755 X2.2813 Y2.7669
N65760 X2.2836 Y2.7692 Z-0.5793
N65765 X2.2859 Y2.7714 Z-0.5785
N65770 X2.288 Y2.7736 Z-0.5773
N65775 X2.2886 Y2.7742 Z-0.5768
N65780 X2.2911 Y2.7767 Z-0.5754
N65785 X2.2938 Y2.7793 Z-0.5745
N65790 X2.2964 Y2.782 Z-0.5743
N65795 G3 X2.2611 Y2.8173 I-0.0177 J0.0177
N65800 G1 X2.2533 Y2.8096
N65805 X2.2506 Y2.8069 Z-0.5745
N65810 X2.248 Y2.8043 Z-0.5754
N65815 X2.2455 Y2.8018 Z-0.5768
N65820 X2.2434 Y2.7996 Z-0.5781
N65825 X2.2411 Y2.7974 Z-0.5789
N65830 X2.2388 Y2.7951 Z-0.5793
N65835 X2.2365 Y2.7928
N65840 X2.0044 Y2.5607 Z-0.5564
N65845 X1.9237 Y2.4799 Z-0.5485
N65850 X0.5873 Y1.1435 Z-0.417
N65855 X-0.1365 Y0.4197 Z-0.3463
N65860 X-0.5649 Y-0.0086 Z-0.305
N65865 X-0.8044 Y-0.2481 Z-0.2823
N65870 X-0.8066 Y-0.2504 Z-0.2819
N65875 X-0.8089 Y-0.2526 Z-0.281
N65880 X-0.811 Y-0.2547 Z-0.2798
N65885 X-0.8135 Y-0.2572 Z-0.2784
N65890 X-0.8161 Y-0.2598 Z-0.2775
N65895 X-0.8188 Y-0.2625 Z-0.2772
N65900 X-0.8314 Y-0.2752
N65905 G2 X-0.8668 Y-0.2398 I-0.0177 J0.0177
N65910 G1 X-0.8641 Y-0.2371 Z-0.2775
N65915 X-0.8615 Y-0.2345 Z-0.2784
N65920 X-0.859 Y-0.232 Z-0.2798
N65925 X-0.8569 Y-0.2299 Z-0.281
N65930 X-0.8547 Y-0.2277 Z-0.2819
N65935 X-0.8524 Y-0.2254 Z-0.2823
N65940 X-0.7493 Y-0.1223 Z-0.2919
N65945 X-0.4387 Y0.1882 Z-0.3213
N65950 X0.0432 Y0.6702 Z-0.3679
N65955 X0.8098 Y1.4368 Z-0.4428
N65960 X2.1891 Y2.816 Z-0.5784
N65965 X2.1914 Y2.8183
N65970 X2.1937 Y2.8206 Z-0.578
N65975 X2.1959 Y2.8229 Z-0.5771
N65980 X2.1981 Y2.825 Z-0.5759
N65985 X2.2001 Y2.8271 Z-0.5745
N65990 X2.2026 Y2.8296 Z-0.5731
N65995 X2.2052 Y2.8322 Z-0.5722
N66000 X2.2079 Y2.8349 Z-0.5719
N66005 G3 X2.1725 Y2.8702 I-0.0177 J0.0177
N66010 G1 X2.1528 Y2.8504
N66015 X2.1501 Y2.8478 Z-0.5722
N66020 X2.1475 Y2.8452 Z-0.5731
N66025 X2.145 Y2.8427 Z-0.5745
N66030 X2.1428 Y2.8405 Z-0.5757
N66035 X2.1406 Y2.8383 Z-0.5766
N66040 X2.1383 Y2.836 Z-0.577
N66045 X2.136 Y2.8337
N66050 X0.8543 Y1.5519 Z-0.4511
N66055 X0.0972 Y0.7949 Z-0.3772
N66060 X-0.374 Y0.3237 Z-0.3318
N66065 X-0.6846 Y0.0131 Z-0.3024
N66070 X-0.9019 Y-0.2042 Z-0.2823
N66075 X-0.9042 Y-0.2065 Z-0.2819
N66080 X-0.9064 Y-0.2087 Z-0.281
N66085 X-0.9085 Y-0.2108 Z-0.2798
N66090 X-0.911 Y-0.2133 Z-0.2784
N66095 X-0.9136 Y-0.2159 Z-0.2775
N66100 X-0.9163 Y-0.2186 Z-0.2772
N66105 X-0.9322 Y-0.2345
N66110 G2 X-0.9675 Y-0.1991 I-0.0177 J0.0177
N66115 G1 X-0.9648 Y-0.1965 Z-0.2775
N66120 X-0.9622 Y-0.1939 Z-0.2784
N66125 X-0.9597 Y-0.1914 Z-0.2798
N66130 X-0.9576 Y-0.1892 Z-0.281
N66135 X-0.9554 Y-0.187 Z-0.2819
N66140 X-0.9531 Y-0.1847 Z-0.2823
N66145 X-0.8636 Y-0.0952 Z-0.2904
N66150 X-0.628 Y0.1404 Z-0.3121
N66155 X-0.3067 Y0.4617 Z-0.3425
N66160 X0.1645 Y0.9329 Z-0.3879
N66165 X0.8809 Y1.6493 Z-0.4576
N66170 X2.0759 Y2.8443 Z-0.5749
N66175 X2.0783 Y2.8466
N66180 X2.0806 Y2.8489 Z-0.5745
N66185 X2.0828 Y2.8512 Z-0.5736
N66190 X2.0849 Y2.8533 Z-0.5724
N66195 X2.0874 Y2.8558 Z-0.571
N66200 X2.09 Y2.8584 Z-0.5701
N66205 X2.0927 Y2.8611 Z-0.5698
N66210 X2.0941 Y2.8625
N66215 X2.0953 Y2.8641
N66220 X2.0964 Y2.8657
N66225 X2.0973 Y2.8674
N66230 X2.0982 Y2.8692 Z-0.5697
N66235 X2.0988 Y2.8711
N66240 X2.0994 Y2.873 Z-0.5696
N66245 X2.0998 Y2.8749
N66250 X2.1 Y2.8768 Z-0.5695
N66255 X2.1001 Y2.8788 Z-0.5694
N66260 X2.1 Y2.8808 Z-0.5693
N66265 X2.0998 Y2.8827 Z-0.5692
N66270 X2.0994 Y2.8846 Z-0.5691
N66275 X2.0988 Y2.8865 Z-0.569
N66280 X2.0982 Y2.8884 Z-0.5689
N66285 X2.0973 Y2.8902 Z-0.5688
N66290 X2.0964 Y2.8919 Z-0.5687
N66295 X2.0953 Y2.8935 Z-0.5686
N66300 X2.0941 Y2.895 Z-0.5685
N66305 X2.0928 Y2.8965 Z-0.5683
N66310 X2.0913 Y2.8978 Z-0.5682
N66315 X2.0898 Y2.899 Z-0.5681
N66320 X2.0881 Y2.9001 Z-0.568
N66325 X2.0864 Y2.9011 Z-0.5679
N66330 X2.0846 Y2.9019 Z-0.5678
N66335 X2.0828 Y2.9026 Z-0.5677
N66340 X2.0809 Y2.9031 Z-0.5676
N66345 X2.079 Y2.9035 Z-0.5675
N66350 X2.077 Y2.9037 Z-0.5674
N66355 X2.0751 Y2.9038 Z-0.5673
N66360 X2.0731 Y2.9037 Z-0.5672
N66365 X2.0712 Y2.9035 Z-0.5671
N66370 X2.0692 Y2.9031
N66375 X2.0673 Y2.9026 Z-0.567
N66380 X2.0655 Y2.9019 Z-0.5669
N66385 X2.0637 Y2.9011
N66390 X2.062 Y2.9001
N66395 X2.0604 Y2.899
N66400 X2.0588 Y2.8978 Z-0.5668
N66405 X2.0574 Y2.8965
N66410 X2.0229 Y2.862
N66415 X2.0203 Y2.8594 Z-0.5671
N66420 X2.0177 Y2.8567 Z-0.568
N66425 X2.0152 Y2.8543 Z-0.5694
N66430 X2.013 Y2.8521 Z-0.5706
N66435 X2.0108 Y2.8499 Z-0.5715
N66440 X2.0085 Y2.8476 Z-0.5719
N66445 X2.0062 Y2.8453
N66450 X0.898 Y1.737 Z-0.4633
N66455 X0.2019 Y1.041 Z-0.3956
N66460 X-0.2586 Y0.5805 Z-0.3514
N66465 X-0.5906 Y0.2484 Z-0.3201
N66470 X-0.837 Y0.0021 Z-0.2974
N66475 X-1.006 Y-0.1669 Z-0.2823
N66480 X-1.0083 Y-0.1692 Z-0.2819
N66485 X-1.0105 Y-0.1714 Z-0.281
N66490 X-1.0126 Y-0.1736 Z-0.2798
N66495 X-1.0127
N66500 X-1.0151 Y-0.1761 Z-0.2784
N66505 X-1.0178 Y-0.1787 Z-0.2775
N66510 X-1.0204 Y-0.1813 Z-0.2772
N66515 X-1.0399 Y-0.2008
N66520 G2 X-1.0753 I-0.0177 J0.0177
N66525 Y-0.1655 I0.0177 J0.0177
N66530 G1 X-1.0726 Y-0.1628 Z-0.2775
N66535 X-1.07 Y-0.1602 Z-0.2784
N66540 X-1.0675 Y-0.1577 Z-0.2798
N66545 X-1.0653 Y-0.1555 Z-0.281
N66550 X-1.0631 Y-0.1533 Z-0.2819
N66555 X-1.0608 Y-0.151 Z-0.2823
N66560 X-1.0607 Y-0.1509
N66565 X-0.9995 Y-0.0897 Z-0.2876
N66570 X-0.8173 Y0.0924 Z-0.3038
N66575 X-0.571 Y0.3388 Z-0.3264
N66580 X-0.239 Y0.6708 Z-0.3576
N66585 X0.2216 Y1.1313 Z-0.4017
N66590 X0.8962 Y1.806 Z-0.4671
N66595 X1.9188 Y2.8286 Z-0.5672
N66600 X1.9211 Y2.8309
N66605 X1.9234 Y2.8332 Z-0.5668
N66610 X1.9257 Y2.8355 Z-0.5659
N66615 X1.9278 Y2.8376 Z-0.5647
N66620 X1.9303 Y2.8401 Z-0.5633
N66625 X1.9329 Y2.8427 Z-0.5624
N66630 X1.9356 Y2.8454 Z-0.5621
N66635 X1.9369 Y2.8468
N66640 X1.9381 Y2.8483
N66645 X1.9392 Y2.8499 Z-0.562
N66650 X1.9402 Y2.8516 Z-0.5618
N66655 X1.9411 Y2.8533 Z-0.5616
N66660 X1.9418 Y2.8551 Z-0.5614
N66665 X1.9424 Y2.857 Z-0.5612
N66670 X1.9429 Y2.8588 Z-0.5609
N66675 X1.9432 Y2.8607 Z-0.5605
N66680 X1.9434 Y2.8626 Z-0.5602
N66685 Y2.8645 Z-0.5598
N66690 X1.9433 Y2.8664 Z-0.5594
N66695 X1.9431 Y2.8683 Z-0.5589
N66700 X1.9427 Y2.8702 Z-0.5585
N66705 X1.9422 Y2.872 Z-0.558
N66710 X1.9415 Y2.8737 Z-0.5575
N66715 X1.9407 Y2.8754 Z-0.557
N66720 X1.9398 Y2.8771 Z-0.5564
N66725 X1.9388 Y2.8786 Z-0.5559
N66730 X1.9376 Y2.8801 Z-0.5554
N66735 X1.9363 Y2.8815 Z-0.5548
N66740 X1.935 Y2.8827 Z-0.5543
N66745 X1.9335 Y2.8839 Z-0.5537
N66750 X1.9319 Y2.8849 Z-0.5532
N66755 X1.9303 Y2.8859 Z-0.5526
N66760 X1.9286 Y2.8867 Z-0.5521
N66765 X1.9268 Y2.8873 Z-0.5516
N66770 X1.925 Y2.8878 Z-0.5511
N66775 X1.9232 Y2.8882 Z-0.5507
N66780 X1.9213 Y2.8885 Z-0.5502
N66785 X1.9194 Y2.8886 Z-0.5498
N66790 X1.9175 Y2.8885 Z-0.5494
N66795 X1.9156 Y2.8884 Z-0.5491
N66800 X1.9137 Y2.888 Z-0.5487
N66805 X1.9118 Y2.8876 Z-0.5484
N66810 X1.91 Y2.887 Z-0.5482
N66815 X1.9082 Y2.8862 Z-0.548
N66820 X1.9064 Y2.8854 Z-0.5478
N66825 X1.9048 Y2.8844 Z-0.5477
N66830 X1.9032 Y2.8833 Z-0.5475
N66835 X1.9017 Y2.8821
N66840 X1.9002 Y2.8807
N66845 X1.7458 Y2.7263
N66850 X1.7431 Y2.7236 Z-0.5478
N66855 X1.7405 Y2.721 Z-0.5486
N66860 X1.738 Y2.7185 Z-0.55
N66865 X1.7358 Y2.7163 Z-0.5513
N66870 X1.7336 Y2.7141 Z-0.5521
N66875 X1.7313 Y2.7118 Z-0.5525
N66880 X1.729 Y2.7095
N66885 X0.8113 Y1.7918 Z-0.4629
N66890 X0.2009 Y1.1814 Z-0.4039
N66895 X-0.2382 Y0.7423 Z-0.362
N66900 X-0.5596 Y0.4209 Z-0.3319
N66905 X-0.7952 Y0.1853 Z-0.3104
N66910 X-0.988 Y-0.0075 Z-0.2933
N66915 X-1.1175 Y-0.137 Z-0.2823
N66920 X-1.1199 Y-0.1394 Z-0.2819
N66925 X-1.1221 Y-0.1416 Z-0.281
N66930 X-1.1243 Y-0.1438 Z-0.2798
N66935 X-1.1268 Y-0.1463 Z-0.2784
N66940 X-1.1294 Y-0.1489 Z-0.2775
N66945 X-1.132 Y-0.1515 Z-0.2772
N66950 X-1.1558 Y-0.1753
N66955 G2 X-1.1912 Y-0.14 I-0.0177 J0.0177
N66960 G1 X-1.1885 Y-0.1373 Z-0.2775
N66965 X-1.1859 Y-0.1347 Z-0.2784
N66970 X-1.1834 Y-0.1322 Z-0.2798
N66975 X-1.1812 Y-0.13 Z-0.281
N66980 X-1.1789 Y-0.1277 Z-0.2819
N66985 X-1.1766 Y-0.1254 Z-0.2823
N66990 X-1.1514 Y-0.1002 Z-0.2843
N66995 X-1.0014 Y0.0498 Z-0.2969
N67000 X-0.8193 Y0.2319 Z-0.3129
N67005 X-0.5836 Y0.4676 Z-0.3342
N67010 X-0.2837 Y0.7675 Z-0.3621
N67015 X0.1233 Y1.1745 Z-0.4007
N67020 X0.6802 Y1.7314 Z-0.4543
N67025 X1.4726 Y2.5238 Z-0.5314
N67030 X1.4749 Y2.5261
N67035 X1.4772 Y2.5284 Z-0.531
N67040 X1.4795 Y2.5307 Z-0.5302
N67045 X1.4816 Y2.5328 Z-0.5289
N67050 X1.4841 Y2.5353 Z-0.5275
N67055 X1.4867 Y2.5379 Z-0.5267
N67060 X1.4894 Y2.5406 Z-0.5264
N67065 X1.4908 Y2.5421
N67070 X1.492 Y2.5437 Z-0.5263
N67075 X1.4931 Y2.5453 Z-0.5262
N67080 X1.4941 Y2.5471 Z-0.5261
N67085 X1.495 Y2.5489 Z-0.5259
N67090 X1.4957 Y2.5508 Z-0.5257
N67095 X1.4963 Y2.5527 Z-0.5255
N67100 X1.4967 Y2.5546 Z-0.5252
N67105 X1.4969 Y2.5566 Z-0.525
N67110 X1.4971 Y2.5586 Z-0.5246
N67115 X1.497 Y2.5606 Z-0.5243
N67120 X1.4968 Y2.5626 Z-0.5239
N67125 X1.4964 Y2.5645 Z-0.5236
N67130 X1.4959 Y2.5664 Z-0.5231
N67135 X1.4953 Y2.5683 Z-0.5227
N67140 X1.4944 Y2.5701 Z-0.5223
N67145 X1.4935 Y2.5718 Z-0.5218
N67150 X1.4924 Y2.5734 Z-0.5214
N67155 X1.4912 Y2.575 Z-0.5209
N67160 X1.4899 Y2.5764 Z-0.5205
N67165 X1.4884 Y2.5778 Z-0.52
N67170 X1.4869 Y2.579 Z-0.5195
N67175 X1.4852 Y2.5801 Z-0.5191
N67180 X1.4835 Y2.581 Z-0.5186
N67185 X1.4817 Y2.5818 Z-0.5182
N67190 X1.4799 Y2.5825 Z-0.5178
N67195 X1.478 Y2.583 Z-0.5174
N67200 X1.476 Y2.5834 Z-0.517
N67205 X1.474 Y2.5836 Z-0.5166
N67210 X1.4721 Z-0.5163
N67215 X1.4701 Y2.5835 Z-0.516
N67220 X1.4681 Y2.5832 Z-0.5157
N67225 X1.4661 Y2.5828 Z-0.5154
N67230 X1.4642 Y2.5823 Z-0.5152
N67235 X1.4623 Y2.5816 Z-0.515
N67240 X1.4605 Y2.5807 Z-0.5148
N67245 X1.4588 Y2.5797 Z-0.5147
N67250 X1.4571 Y2.5786 Z-0.5146
N67255 X1.4555 Y2.5773
N67260 X1.454 Y2.5759 Z-0.5145
N67265 X1.3268 Y2.4487
N67270 X1.3241 Y2.4461 Z-0.5148
N67275 X1.3215 Y2.4434 Z-0.5157
N67280 X1.319 Y2.4409 Z-0.5171
N67285 X1.3169 Y2.4388 Z-0.5183
N67290 X1.3147 Y2.4366 Z-0.5192
N67295 X1.3124 Y2.4343 Z-0.5196
N67300 X1.31 Y2.432
N67305 X0.5818 Y1.7037 Z-0.449
N67310 X0.0677 Y1.1897 Z-0.3997
N67315 X-0.3178 Y0.8041 Z-0.3633
N67320 X-0.607 Y0.5149 Z-0.3366
N67325 X-0.8427 Y0.2792 Z-0.3155
N67330 X-1.0248 Y0.0971 Z-0.2997
N67335 X-1.1749 Y-0.0529 Z-0.2873
N67340 X-1.238 Y-0.116 Z-0.2823
N67345 X-1.2403 Y-0.1184 Z-0.2819
N67350 X-1.2426 Y-0.1206 Z-0.281
N67355 X-1.2447 Y-0.1228 Z-0.2798
N67360 X-1.2472 Y-0.1253 Z-0.2784
N67365 X-1.2498 Y-0.1279 Z-0.2775
N67370 X-1.2525 Y-0.1306 Z-0.2772
N67375 X-1.2811 Y-0.1592
N67380 G2 X-1.3165 Y-0.1238 I-0.0177 J0.0177
N67385 G1 X-1.3138 Y-0.1212 Z-0.2775
N67390 X-1.3112 Y-0.1185 Z-0.2784
N67395 X-1.3087 Y-0.1161 Z-0.2798
N67400 X-1.3065 Y-0.1139 Z-0.281
N67405 X-1.3042 Y-0.1116 Z-0.2819
N67410 X-1.3019 Y-0.1092 Z-0.2823
N67415 X-1.1743 Y0.0183 Z-0.2922
N67420 X-1.019 Y0.1737 Z-0.305
N67425 X-0.8368 Y0.3558 Z-0.3207
N67430 X-0.6119 Y0.5808 Z-0.3408
N67435 X-0.3334 Y0.8593 Z-0.3664
N67440 X0.0308 Y1.2234 Z-0.4005
N67445 X0.5234 Y1.7161 Z-0.4476
N67450 X1.1767 Y2.3693 Z-0.5107
N67455 X1.179 Y2.3716
N67460 X1.1813 Y2.3739 Z-0.5103
N67465 X1.1835 Y2.3762 Z-0.5095
N67470 X1.1857 Y2.3783 Z-0.5082
N67475 X1.1882 Y2.3808 Z-0.5068
N67480 X1.1908 Y2.3834 Z-0.5059
N67485 X1.1935 Y2.3861 Z-0.5057
N67490 X1.1948 Y2.3875 Z-0.5056
N67495 X1.196 Y2.3891
N67500 X1.1971 Y2.3907
N67505 X1.1981 Y2.3925 Z-0.5055
N67510 X1.199 Y2.3943 Z-0.5054
N67515 X1.1996 Y2.3961 Z-0.5053
N67520 X1.2002 Y2.398 Z-0.5051
N67525 X1.2006 Y2.4 Z-0.505
N67530 X1.2008 Y2.4019 Z-0.5048
N67535 X1.2009 Y2.4039 Z-0.5046
N67540 Y2.4059 Z-0.5044
N67545 X1.2006 Y2.4078 Z-0.5042
N67550 X1.2003 Y2.4098 Z-0.5039
N67555 X1.1997 Y2.4117 Z-0.5037
N67560 X1.1991 Y2.4135 Z-0.5034
N67565 X1.1982 Y2.4153 Z-0.5031
N67570 X1.1973 Y2.417 Z-0.5029
N67575 X1.1962 Y2.4186 Z-0.5026
N67580 X1.195 Y2.4202 Z-0.5023
N67585 X1.1937 Y2.4216 Z-0.502
N67590 X1.1922 Y2.423 Z-0.5017
N67595 X1.1907 Y2.4242 Z-0.5015
N67600 X1.189 Y2.4253 Z-0.5012
N67605 X1.1873 Y2.4262 Z-0.5009
N67610 X1.1855 Y2.427 Z-0.5006
N67615 X1.1837 Y2.4277 Z-0.5004
N67620 X1.1818 Y2.4282 Z-0.5001
N67625 X1.1799 Y2.4286 Z-0.4999
N67630 X1.1779 Y2.4288 Z-0.4997
N67635 X1.1759 Y2.4289 Z-0.4995
N67640 X1.1739 Y2.4288 Z-0.4993
N67645 X1.172 Y2.4286 Z-0.4991
N67650 X1.1701 Y2.4282 Z-0.4989
N67655 X1.1681 Y2.4276 Z-0.4988
N67660 X1.1663 Y2.4269 Z-0.4987
N67665 X1.1645 Y2.4261 Z-0.4986
N67670 X1.1628 Y2.4251 Z-0.4985
N67675 X1.1611 Y2.424 Z-0.4984
N67680 X1.1596 Y2.4228
N67685 X1.1581 Y2.4214
N67690 X1.0761 Y2.3394
N67695 X1.0734 Y2.3367 Z-0.4987
N67700 X1.0708 Y2.3341 Z-0.4995
N67705 X1.0683 Y2.3316 Z-0.5009
N67710 X1.0662 Y2.3295 Z-0.5022
N67715 X1.0639 Y2.3272 Z-0.503
N67720 X1.0616 Y2.325 Z-0.5034
N67725 X1.0593 Y2.3226
N67730 X0.4488 Y1.7122 Z-0.4447
N67735 X-0.001 Y1.2624 Z-0.4019
N67740 X-0.3544 Y0.9089 Z-0.3689
N67745 X-0.6222 Y0.6411 Z-0.3445
N67750 X-0.8365 Y0.4268 Z-0.3255
N67755 X-1.0186 Y0.2447 Z-0.3099
N67760 X-1.1687 Y0.0947 Z-0.2976
N67765 X-1.2973 Y-0.0339 Z-0.2876
N67770 X-1.369 Y-0.1056 Z-0.2823
N67775 X-1.3713 Y-0.108 Z-0.2819
N67780 X-1.3736 Y-0.1103 Z-0.281
N67785 X-1.3758 Y-0.1125 Z-0.2798
N67790 X-1.3783 Y-0.115 Z-0.2784
N67795 X-1.3809 Y-0.1176 Z-0.2775
N67800 X-1.3836 Y-0.1203 Z-0.2772
N67805 X-1.4185 Y-0.1551
N67810 G2 X-1.4538 Y-0.1198 I-0.0177 J0.0177
N67815 G1 X-1.4511 Y-0.1171 Z-0.2775
N67820 X-1.4485 Y-0.1145 Z-0.2784
N67825 X-1.446 Y-0.112 Z-0.2798
N67830 X-1.4438 Y-0.1098 Z-0.2811
N67835 X-1.4415 Y-0.1075 Z-0.2819
N67840 X-1.4391 Y-0.1051 Z-0.2823
N67845 X-1.4362 Y-0.1021 Z-0.2825
N67850 X-1.3182 Y0.0158 Z-0.2909
N67855 X-1.1896 Y0.1444 Z-0.3008
N67860 X-1.0396 Y0.2944 Z-0.3129
N67865 X-0.8574 Y0.4766 Z-0.3284
N67870 X-0.6432 Y0.6908 Z-0.3472
N67875 X-0.3754 Y0.9587 Z-0.3715
N67880 X-0.0433 Y1.2907 Z-0.4023
N67885 X0.3851 Y1.7191 Z-0.4429
N67890 X0.9527 Y2.2867 Z-0.4973
N67895 X0.955 Y2.289
N67900 X0.9573 Y2.2913 Z-0.4969
N67905 X0.9595 Y2.2935 Z-0.496
N67910 X0.9616 Y2.2957 Z-0.4948
N67915 X0.9641 Y2.2982 Z-0.4934
N67920 X0.9667 Y2.3008 Z-0.4925
N67925 X0.9694 Y2.3035 Z-0.4923
N67930 X0.9708 Y2.3049 Z-0.4922
N67935 X0.972 Y2.3065
N67940 X0.9731 Y2.3081
N67945 X0.9741 Y2.3098 Z-0.4921
N67950 X0.9749 Y2.3116
N67955 X0.9756 Y2.3135 Z-0.492
N67960 X0.9761 Y2.3153 Z-0.4919
N67965 X0.9765 Y2.3173 Z-0.4917
N67970 X0.9767 Y2.3192 Z-0.4916
N67975 X0.9768 Y2.3212 Z-0.4915
N67980 X0.9767 Y2.3232 Z-0.4913
N67985 X0.9765 Y2.3251 Z-0.4912
N67990 X0.9761 Y2.3271 Z-0.491
N67995 X0.9756 Y2.3289 Z-0.4908
N68000 X0.9749 Y2.3308 Z-0.4906
N68005 X0.9741 Y2.3326 Z-0.4904
N68010 X0.9732 Y2.3343 Z-0.4902
N68015 X0.9721 Y2.3359 Z-0.49
N68020 X0.9709 Y2.3375 Z-0.4898
N68025 X0.9695 Y2.3389 Z-0.4896
N68030 X0.9681 Y2.3402 Z-0.4894
N68035 X0.9665 Y2.3415 Z-0.4892
N68040 X0.9649 Y2.3425 Z-0.489
N68045 X0.9632 Y2.3435 Z-0.4888
N68050 X0.9614 Y2.3443 Z-0.4886
N68055 X0.9596 Y2.345 Z-0.4884
N68060 X0.9577 Y2.3455 Z-0.4882
N68065 X0.9557 Y2.3459 Z-0.4881
N68070 X0.9538 Y2.3461 Z-0.4879
N68075 X0.9518 Y2.3462 Z-0.4877
N68080 X0.9498 Y2.3461 Z-0.4876
N68085 X0.9479 Y2.3459 Z-0.4875
N68090 X0.946 Y2.3455 Z-0.4874
N68095 X0.9441 Y2.345 Z-0.4873
N68100 X0.9422 Y2.3443 Z-0.4872
N68105 X0.9404 Y2.3434 Z-0.4871
N68110 X0.9387 Y2.3425 Z-0.487
N68115 X0.9371 Y2.3414
N68120 X0.9355 Y2.3401
N68125 X0.9341 Y2.3388
N68130 X0.8708 Y2.2756
N68135 X0.8681 Y2.2729 Z-0.4872
N68140 X0.8655 Y2.2703 Z-0.4881
N68145 X0.863 Y2.2678 Z-0.4895
N68150 X0.8609 Y2.2656 Z-0.4908
N68155 X0.8587 Y2.2634 Z-0.4916
N68160 X0.8564 Y2.2611 Z-0.492
N68165 X0.8541 Y2.2588
N68170 X0.3186 Y1.7233 Z-0.4409
N68175 X-0.0911 Y1.3136 Z-0.4023
N68180 X-0.4098 Y0.995 Z-0.3729
N68185 X-0.6776 Y0.7272 Z-0.3489
N68190 X-0.8811 Y0.5236 Z-0.3311
N68195 X-1.0633 Y0.3415 Z-0.3158
N68200 X-1.2133 Y0.1914 Z-0.3038
N68205 X-1.3419 Y0.0628 Z-0.2941
N68210 X-1.4599 Y-0.0551 Z-0.2858
N68215 X-1.5135 Y-0.1088 Z-0.2823
N68220 X-1.5159 Y-0.1112 Z-0.2819
N68225 X-1.5183 Y-0.1135 Z-0.2811
N68230 X-1.5205 Y-0.1157 Z-0.2798
N68235 Y-0.1158
N68240 X-1.523 Y-0.1182 Z-0.2784
N68245 X-1.5256 Y-0.1209 Z-0.2775
N68250 X-1.5283 Y-0.1235 Z-0.2772
N68255 X-1.572 Y-0.1673
N68260 G2 X-1.6074 Y-0.1319 I-0.0177 J0.0177
N68265 G1 X-1.6047 Y-0.1292 Z-0.2775
N68270 X-1.6021 Y-0.1266 Z-0.2784
N68275 X-1.5996 Y-0.1241 Z-0.2798
N68280 X-1.5973 Y-0.1219 Z-0.2811
N68285 X-1.595 Y-0.1195 Z-0.2819
N68290 X-1.5926 Y-0.1171 Z-0.2823
N68295 X-1.5925
N68300 X-1.5741 Y-0.0987 Z-0.2834
N68305 X-1.4776 Y-0.0022 Z-0.2896
N68310 X-1.3597 Y0.1158 Z-0.2978
N68315 X-1.231 Y0.2444 Z-0.3074
N68320 X-1.0703 Y0.4052 Z-0.3201
N68325 X-0.8988 Y0.5766 Z-0.3344
N68330 X-0.6846 Y0.7909 Z-0.3529
N68335 X-0.4275 Y1.048 Z-0.3759
N68340 X-0.1168 Y1.3586 Z-0.4044
N68345 X0.2688 Y1.7442 Z-0.4405
N68350 X0.7614 Y2.2369 Z-0.4874
N68355 X0.7637 Y2.2392
N68360 X0.766 Y2.2415 Z-0.487
N68365 X0.7682 Y2.2437 Z-0.4861
N68370 X0.7704 Y2.2458 Z-0.4849
N68375 X0.7729 Y2.2483 Z-0.4835
N68380 X0.7755 Y2.2509 Z-0.4826
N68385 X0.7782 Y2.2536 Z-0.4823
N68390 X0.7795 Y2.2551
N68395 X0.7807 Y2.2566
N68400 X0.7818 Y2.2582
N68405 X0.7828 Y2.26 Z-0.4822
N68410 X0.7836 Y2.2617
N68415 X0.7843 Y2.2636 Z-0.4821
N68420 X0.7848 Y2.2655 Z-0.482
N68425 X0.7852 Y2.2674 Z-0.4819
N68430 X0.7854 Y2.2694 Z-0.4818
N68435 X0.7855 Y2.2713 Z-0.4817
N68440 Y2.2733 Z-0.4816
N68445 X0.7852 Y2.2752 Z-0.4815
N68450 X0.7848 Y2.2772 Z-0.4813
N68455 X0.7843 Y2.2791 Z-0.4812
N68460 X0.7836 Y2.2809 Z-0.4811
N68465 X0.7828 Y2.2827 Z-0.4809
N68470 X0.7819 Y2.2844 Z-0.4807
N68475 X0.7808 Y2.286 Z-0.4806
N68480 X0.7796 Y2.2876 Z-0.4804
N68485 X0.7782 Y2.289 Z-0.4803
N68490 X0.7768 Y2.2903 Z-0.4801
N68495 X0.7752 Y2.2916 Z-0.4799
N68500 X0.7736 Y2.2927 Z-0.4798
N68505 X0.7719 Y2.2936 Z-0.4796
N68510 X0.7701 Y2.2944 Z-0.4795
N68515 X0.7683 Y2.2951 Z-0.4793
N68520 X0.7664 Y2.2956 Z-0.4792
N68525 X0.7644 Y2.296 Z-0.4791
N68530 X0.7625 Y2.2962 Z-0.4789
N68535 X0.7605 Y2.2963 Z-0.4788
N68540 X0.7586 Y2.2962 Z-0.4787
N68545 X0.7566 Y2.296 Z-0.4786
N68550 X0.7547 Y2.2956 Z-0.4785
N68555 X0.7528 Y2.2951 Z-0.4784
N68560 X0.7509 Y2.2944
N68565 X0.7492 Y2.2936 Z-0.4783
N68570 X0.7474 Y2.2926
N68575 X0.7458 Y2.2915 Z-0.4782
N68580 X0.7443 Y2.2903
N68585 X0.7428 Y2.289
N68590 X0.6904 Y2.2366
N68595 X0.6877 Y2.2339 Z-0.4785
N68600 X0.6851 Y2.2313 Z-0.4794
N68605 X0.6826 Y2.2288 Z-0.4808
N68610 X0.6805 Y2.2267 Z-0.482
N68615 X0.6783 Y2.2244 Z-0.4829
N68620 X0.676 Y2.2221 Z-0.4833
N68625 X0.6737 Y2.2198
N68630 X0.2024 Y1.7485 Z-0.4387
N68635 X-0.1618 Y1.3844 Z-0.4048
N68640 X-0.451 Y1.0952 Z-0.3784
N68645 X-0.6867 Y0.8595 Z-0.3575
N68650 X-0.8902 Y0.6559 Z-0.3399
N68655 X-1.0617 Y0.4845 Z-0.3257
N68660 X-1.2439 Y0.3023 Z-0.3113
N68665 X-1.3725 Y0.1736 Z-0.3018
N68670 X-1.4905 Y0.0557 Z-0.2937
N68675 X-1.5977 Y-0.0515 Z-0.2869
N68680 X-1.6774 Y-0.1312 Z-0.2823
N68685 X-1.6798 Y-0.1337 Z-0.2819
N68690 X-1.6822 Y-0.136 Z-0.2811
N68695 X-1.6844 Y-0.1383 Z-0.2798
N68700 X-1.6869 Y-0.1408 Z-0.2784
N68705 X-1.6896 Y-0.1434 Z-0.2775
N68710 X-1.6922 Y-0.1461 Z-0.2772
N68715 X-1.7496 Y-0.2035
N68720 G2 X-1.785 Y-0.1681 I-0.0177 J0.0177
N68725 G1 X-1.7823 Y-0.1655 Z-0.2775
N68730 X-1.7797 Y-0.1629 Z-0.2784
N68735 X-1.7772 Y-0.1604 Z-0.2798
N68740 X-1.7749 Y-0.1581 Z-0.2811
N68745 X-1.7725 Y-0.1557 Z-0.2819
N68750 X-1.7701 Y-0.1532 Z-0.2823
N68755 X-1.7028 Y-0.0859 Z-0.2858
N68760 X-1.6062 Y0.0106 Z-0.2913
N68765 X-1.499 Y0.1178 Z-0.298
N68770 X-1.3811 Y0.2358 Z-0.3061
N68775 X-1.2524 Y0.3644 Z-0.3156
N68780 X-1.081 Y0.5359 Z-0.329
N68785 X-0.9095 Y0.7073 Z-0.3431
N68790 X-0.7166 Y0.9002 Z-0.3596
N68795 X-0.481 Y1.1359 Z-0.3804
N68800 X-0.2024 Y1.4144 Z-0.4056
N68805 X0.151 Y1.7679 Z-0.4383
N68810 X0.5902 Y2.2071 Z-0.4797
N68815 X0.5925 Y2.2094
N68820 X0.5948 Y2.2116 Z-0.4792
N68825 X0.597 Y2.2139 Z-0.4784
N68830 X0.5991 Y2.216 Z-0.4772
N68835 X0.6016 Y2.2185 Z-0.4757
N68840 X0.6043 Y2.2211 Z-0.4749
N68845 X0.6069 Y2.2238 Z-0.4746
N68850 X0.6083 Y2.2252
N68855 X0.6095 Y2.2268
N68860 X0.6106 Y2.2284
N68865 X0.6115 Y2.2301 Z-0.4745
N68870 X0.6124 Y2.2319
N68875 X0.613 Y2.2338 Z-0.4744
N68880 X0.6136 Y2.2356
N68885 X0.614 Y2.2376 Z-0.4743
N68890 X0.6142 Y2.2395 Z-0.4742
N68895 X0.6143 Y2.2415 Z-0.4741
N68900 X0.6142 Y2.2435 Z-0.474
N68905 X0.614 Y2.2454 Z-0.4739
N68910 X0.6136 Y2.2473 Z-0.4738
N68915 X0.6131 Y2.2492 Z-0.4737
N68920 X0.6124 Y2.2511 Z-0.4736
N68925 X0.6116 Y2.2528 Z-0.4735
N68930 X0.6106 Y2.2546 Z-0.4734
N68935 X0.6095 Y2.2562 Z-0.4732
N68940 X0.6083 Y2.2577 Z-0.4731
N68945 X0.607 Y2.2592 Z-0.473
N68950 X0.6055 Y2.2605 Z-0.4729
N68955 X0.604 Y2.2617 Z-0.4727
N68960 X0.6023 Y2.2628 Z-0.4726
N68965 X0.6006 Y2.2638 Z-0.4725
N68970 X0.5989 Y2.2646 Z-0.4724
N68975 X0.597 Y2.2653 Z-0.4723
N68980 X0.5951 Y2.2658 Z-0.4722
N68985 X0.5932 Y2.2662 Z-0.4721
N68990 X0.5912 Y2.2664 Z-0.472
N68995 X0.5893 Y2.2665 Z-0.4719
N69000 X0.5873 Y2.2664 Z-0.4718
N69005 X0.5854 Y2.2662 Z-0.4717
N69010 X0.5834 Y2.2658 Z-0.4716
N69015 X0.5815 Y2.2653
N69020 X0.5797 Y2.2646 Z-0.4715
N69025 X0.5779 Y2.2637
N69030 X0.5762 Y2.2628 Z-0.4714
N69035 X0.5746 Y2.2617
N69040 X0.573 Y2.2605
N69045 X0.5716 Y2.2591
N69050 X0.5269 Y2.2145
N69055 X0.5242 Y2.2118 Z-0.4717
N69060 X0.5216 Y2.2092 Z-0.4725
N69065 X0.5191 Y2.2067 Z-0.4739
N69070 X0.517 Y2.2046 Z-0.4752
N69075 X0.5148 Y2.2023 Z-0.476
N69080 X0.5125 Y2.2001 Z-0.4764
N69085 X0.5102 Y2.1978
N69090 X0.0924 Y1.78 Z-0.4373
N69095 X-0.2503 Y1.4372 Z-0.4058
N69100 X-0.5396 Y1.148 Z-0.3798
N69105 X-0.7646 Y0.923 Z-0.3602
N69110 X-0.9574 Y0.7301 Z-0.3439
N69115 X-1.1075 Y0.5801 Z-0.3318
N69120 X-1.2468 Y0.4408 Z-0.3209
N69125 X-1.3861 Y0.3014 Z-0.3107
N69130 X-1.5041 Y0.1835 Z-0.3026
N69135 X-1.6113 Y0.0763 Z-0.2959
N69140 X-1.7078 Y-0.0203 Z-0.2903
N69145 X-1.8044 Y-0.1168 Z-0.2854
N69150 X-1.8738 Y-0.1863 Z-0.2823
N69155 X-1.8763 Y-0.1887 Z-0.2819
N69160 X-1.8787 Y-0.1912 Z-0.2811
N69165 X-1.881 Y-0.1935 Z-0.2798
N69170 X-1.8811 Z-0.2797
N69175 X-1.8835 Y-0.196 Z-0.2783
N69180 X-1.8862 Y-0.1986 Z-0.2775
N69185 X-1.8888 Y-0.2013 Z-0.2772
N69190 X-1.9753 Y-0.2877
N69195 G2 X-2.0106 I-0.0177 J0.0177
N69200 Y-0.2523 I0.0177 J0.0177
N69205 G1 X-2.0079 Y-0.2497 Z-0.2775
N69210 X-2.0053 Y-0.2471 Z-0.2783
N69215 X-2.0028 Y-0.2446 Z-0.2797
N69220 X-2.0005 Y-0.2422 Z-0.2811
N69225 X-1.998 Y-0.2397 Z-0.2819
N69230 X-1.9955 Y-0.2372 Z-0.2823
N69235 X-1.9785 Y-0.2202 Z-0.2829
N69240 X-1.8923 Y-0.134 Z-0.2862
N69245 X-1.8064 Y-0.0482 Z-0.2901
N69250 X-1.7099 Y0.0484 Z-0.295
N69255 X-1.6134 Y0.1449 Z-0.3006
N69260 X-1.5061 Y0.2521 Z-0.3074
N69265 X-1.3882 Y0.3701 Z-0.3155
N69270 X-1.2488 Y0.5094 Z-0.3257
N69275 X-1.1095 Y0.6488 Z-0.3365
N69280 X-0.9702 Y0.7881 Z-0.3477
N69285 X-0.7773 Y0.9809 Z-0.3639
N69290 X-0.5416 Y1.2166 Z-0.3843
N69295 X-0.2845 Y1.4738 Z-0.4073
N69300 X0.0368 Y1.7951 Z-0.4366
N69305 X0.4332 Y2.1914 Z-0.4736
N69310 X0.4355 Y2.1938
N69315 X0.4378 Y2.196 Z-0.4732
N69320 X0.44 Y2.1983 Z-0.4723
N69325 X0.4421 Y2.2004 Z-0.4711
N69330 X0.4446 Y2.2029 Z-0.4697
N69335 X0.4472 Y2.2055 Z-0.4688
N69340 X0.4499 Y2.2082 Z-0.4685
N69345 X0.4512 Y2.2096
N69350 X0.4525 Y2.2112
N69355 X0.4535 Y2.2128
N69360 X0.4545 Y2.2145
N69365 X0.4553 Y2.2163 Z-0.4684
N69370 X0.456 Y2.2181
N69375 X0.4565 Y2.22 Z-0.4683
N69380 X0.4569 Y2.2219
N69385 X0.4572 Y2.2239 Z-0.4682
N69390 Y2.2259
N69395 Y2.2278 Z-0.4681
N69400 X0.4569 Y2.2298 Z-0.468
N69405 X0.4566 Y2.2317 Z-0.4679
N69410 X0.456 Y2.2336 Z-0.4678
N69415 X0.4553 Y2.2354
N69420 X0.4545 Y2.2372 Z-0.4677
N69425 X0.4536 Y2.2389 Z-0.4676
N69430 X0.4525 Y2.2406 Z-0.4675
N69435 X0.4513 Y2.2421 Z-0.4674
N69440 X0.4499 Y2.2435 Z-0.4673
N69445 X0.4485 Y2.2449 Z-0.4672
N69450 X0.4469 Y2.2461 Z-0.4671
N69455 X0.4453 Y2.2472 Z-0.467
N69460 X0.4436 Y2.2481 Z-0.4669
N69465 X0.4418 Y2.249 Z-0.4668
N69470 X0.44 Y2.2496 Z-0.4667
N69475 X0.4381 Y2.2502 Z-0.4666
N69480 X0.4362 Y2.2506 Z-0.4665
N69485 X0.4342 Y2.2508
N69490 X0.4322 Y2.2509 Z-0.4664
N69495 X0.4303 Y2.2508 Z-0.4663
N69500 X0.4283 Y2.2506
N69505 X0.4264 Y2.2502 Z-0.4662
N69510 X0.4245 Y2.2496
N69515 X0.4227 Y2.249 Z-0.4661
N69520 X0.4209 Y2.2481
N69525 X0.4192 Y2.2472 Z-0.466
N69530 X0.4175 Y2.2461
N69535 X0.416 Y2.2449
N69540 X0.4145 Y2.2435
N69545 X0.3758 Y2.2047
N69550 X0.3731 Y2.2021 Z-0.4663
N69555 X0.3705 Y2.1994 Z-0.4672
N69560 X0.368 Y2.197 Z-0.4686
N69565 X0.3658 Y2.1948 Z-0.4698
N69570 X0.3636 Y2.1926 Z-0.4706
N69575 X0.3613 Y2.1903 Z-0.4711
N69580 X0.359 Y2.188
N69585 X-0.0158 Y1.8131 Z-0.4363
N69590 X-0.3051 Y1.5239 Z-0.4101
N69595 X-0.5515 Y1.2775 Z-0.3882
N69600 X-0.7765 Y1.0525 Z-0.3688
N69605 X-0.9693 Y0.8596 Z-0.3527
N69610 X-1.1087 Y0.7203 Z-0.3415
N69615 X-1.2373 Y0.5917 Z-0.3315
N69620 X-1.3766 Y0.4523 Z-0.3213
N69625 X-1.5053 Y0.3237 Z-0.3124
N69630 X-1.6232 Y0.2057 Z-0.3049
N69635 X-1.7305 Y0.0985 Z-0.2988
N69640 X-1.827 Y0.0019 Z-0.2938
N69645 X-1.9129 Y-0.0839 Z-0.29
N69650 X-1.9991 Y-0.1701 Z-0.2866
N69655 X-2.1195 Y-0.2905 Z-0.2831
N69660 X-2.1579 Y-0.3289 Z-0.2823
N69665 X-2.1618 Y-0.3328 Z-0.2819
N69670 X-2.1657 Y-0.3367 Z-0.2809
N69675 X-2.1694 Y-0.3404 Z-0.2793
N69680 X-2.173 Y-0.344 Z-0.2771
N69685 X-2.1764 Y-0.3475 Z-0.2744
N69690 X-2.1796 Y-0.3506 Z-0.2711
N69695 X-2.1825 Y-0.3536 Z-0.2674
N69700 X-2.1851 Y-0.3561 Z-0.2632
N69705 X-2.1874 Y-0.3584 Z-0.2587
N69710 X-2.1893 Y-0.3603 Z-0.2538
N69715 X-2.1907 Y-0.3618 Z-0.2487
N69720 X-2.1918 Y-0.3628 Z-0.2433
N69725 X-2.1925 Y-0.3635 Z-0.2378
N69730 X-2.1927 Y-0.3637 Z-0.2323
N69735 G0 Z0.2
N69740 X-2.7295 Y-1.3247
N69745 Z-0.1817
N69750 G1 Z-0.2323 F39.37
N69755 X-2.7297 Y-1.3249 Z-0.2377
N69760 X-2.7303 Y-1.3256 Z-0.2431
N69765 X-2.7313 Y-1.3266 Z-0.2483
N69770 X-2.7328 Y-1.328 Z-0.2534
N69775 X-2.7346 Y-1.3298 Z-0.2582
N69780 X-2.7367 Y-1.332 Z-0.2627
N69785 X-2.7392 Y-1.3345 Z-0.2668
N69790 X-2.742 Y-1.3373 Z-0.2705
N69795 X-2.7451 Y-1.3403 Z-0.2738
N69800 X-2.7484 Y-1.3437 Z-0.2766
N69805 X-2.7519 Y-1.3471 Z-0.2788
N69810 X-2.7555 Y-1.3508 Z-0.2805
N69815 X-2.7593 Y-1.3546 Z-0.2817
N69820 X-2.7631 Y-1.3584 Z-0.2822
N69825 X-2.769 Y-1.3643 Z-0.2826
N69830 X-2.7713 Y-1.3665
N69835 X-2.7735 Y-1.3687 Z-0.2822
N69840 X-2.7756 Y-1.3709 Z-0.2813
N69845 X-2.7777 Y-1.3729 Z-0.2801
N69850 X-2.7802 Y-1.3754 Z-0.2787
N69855 X-2.7828 Y-1.378 Z-0.2779
N69860 X-2.7854 Y-1.3807 Z-0.2776
N69865 G2 X-2.8208 Y-1.3454 I-0.0177 J0.0177
N69870 G1 X-2.7844 Y-1.309
N69875 X-2.7818 Y-1.3063 Z-0.2779
N69880 X-2.7792 Y-1.3037 Z-0.2787
N69885 X-2.7767 Y-1.3012 Z-0.2801
N69890 X-2.7761 Y-1.3007 Z-0.2805
N69895 X-2.7741 Y-1.2987 Z-0.2817
N69900 X-2.772 Y-1.2965 Z-0.2825
N69905 X-2.7698 Y-1.2944 Z-0.283
N69910 X-2.7676 Y-1.2922
N69915 X-2.7553 Y-1.2799 Z-0.2823
N69920 X-2.7527 Y-1.2772 Z-0.2818
N69925 X-2.7501 Y-1.2746 Z-0.2808
N69930 X-2.7476 Y-1.2722 Z-0.2792
N69935 X-2.7453 Y-1.2699 Z-0.2771
N69940 X-2.7433 Y-1.2679 Z-0.2746
N69945 X-2.7416 Y-1.2662 Z-0.2716
N69950 X-2.7402 Y-1.2648 Z-0.2684
N69955 X-2.7392 Y-1.2638 Z-0.2648
N69960 X-2.7386 Y-1.2632 Z-0.2611
N69965 X-2.7384 Y-1.263 Z-0.2573
N69970 X-2.7387 Y-1.2628 Z-0.2534
N69975 X-2.7395 Y-1.2624 Z-0.2496
N69980 X-2.7407 Y-1.2618 Z-0.2459
N69985 X-2.7425 Y-1.2609 Z-0.2425
N69990 X-2.7447 Y-1.2598 Z-0.2394
N69995 X-2.7472 Y-1.2585 Z-0.2368
N70000 X-2.7501 Y-1.257 Z-0.2345
N70005 X-2.7533 Y-1.2554 Z-0.2328
N70010 X-2.7566 Y-1.2537 Z-0.2317
N70015 X-2.76 Y-1.2519 Z-0.2311
N70020 X-2.7635 Y-1.2501
N70025 X-2.767 Y-1.2483 Z-0.2317
N70030 X-2.7703 Y-1.2466 Z-0.2328
N70035 X-2.7735 Y-1.245 Z-0.2345
N70040 X-2.7764 Y-1.2435 Z-0.2368
N70045 X-2.7789 Y-1.2422 Z-0.2394
N70050 X-2.7811 Y-1.2411 Z-0.2425
N70055 X-2.7829 Y-1.2402 Z-0.2459
N70060 X-2.7841 Y-1.2395 Z-0.2496
N70065 X-2.7849 Y-1.2392 Z-0.2534
N70070 X-2.7852 Y-1.239 Z-0.2573
N70075 Z-0.2587
N70080 X-2.785 Y-1.2388 Z-0.2624
N70085 X-2.7844 Y-1.2383 Z-0.2659
N70090 X-2.7835 Y-1.2373 Z-0.2694
N70095 X-2.7822 Y-1.2361 Z-0.2725
N70100 X-2.7806 Y-1.2345 Z-0.2754
N70105 X-2.7788 Y-1.2326 Z-0.278
N70110 X-2.7767 Y-1.2305 Z-0.2801
N70115 X-2.7744 Y-1.2282 Z-0.2818
N70120 X-2.7719 Y-1.2258 Z-0.2829
N70125 X-2.7694 Y-1.2232 Z-0.2836
N70130 X-2.7668 Y-1.2206 Z-0.2837
N70135 X-2.7414 Y-1.1953 Z-0.2823
N70140 X-2.7387 Y-1.1926 Z-0.2819
N70145 X-2.7361 Y-1.19 Z-0.2808
N70150 X-2.7337 Y-1.1875 Z-0.2793
N70155 X-2.7314 Y-1.1852 Z-0.2772
N70160 X-2.7294 Y-1.1832 Z-0.2746
N70165 X-2.7277 Y-1.1815 Z-0.2717
N70170 X-2.7263 Y-1.1801 Z-0.2684
N70175 X-2.7253 Y-1.1791 Z-0.2649
N70180 X-2.7247 Y-1.1785 Z-0.2611
N70185 X-2.7244 Y-1.1783 Z-0.2573
N70190 X-2.7248 Y-1.1782 Z-0.253
N70195 X-2.7257 Y-1.1781 Z-0.2487
N70200 X-2.7272 Y-1.1778 Z-0.2446
N70205 X-2.7293 Y-1.1775 Z-0.2407
N70210 X-2.7318 Y-1.1771 Z-0.2372
N70215 X-2.7349 Y-1.1765 Z-0.2341
N70220 X-2.7383 Y-1.176 Z-0.2315
N70225 X-2.7421 Y-1.1753 Z-0.2294
N70230 X-2.7462 Y-1.1746 Z-0.2279
N70235 X-2.7504 Y-1.1739 Z-0.2269
N70240 X-2.7547 Y-1.1732 Z-0.2266
N70245 X-2.759 Y-1.1725 Z-0.2269
N70250 X-2.7632 Y-1.1718 Z-0.2279
N70255 X-2.7673 Y-1.1711 Z-0.2294
N70260 X-2.7711 Y-1.1704 Z-0.2315
N70265 X-2.7745 Y-1.1699 Z-0.2341
N70270 X-2.7776 Y-1.1693 Z-0.2372
N70275 X-2.7802 Y-1.1689 Z-0.2407
N70280 X-2.7822 Y-1.1686 Z-0.2446
N70285 X-2.7837 Y-1.1683 Z-0.2487
N70290 X-2.7847 Y-1.1682 Z-0.253
N70295 X-2.785 Y-1.1681 Z-0.2573
N70300 Z-0.2597
N70305 X-2.7848 Y-1.1679 Z-0.2634
N70310 X-2.7842 Y-1.1674 Z-0.2669
N70315 X-2.7833 Y-1.1664 Z-0.2703
N70320 X-2.782 Y-1.1652 Z-0.2735
N70325 X-2.7805 Y-1.1636 Z-0.2764
N70330 X-2.7786 Y-1.1617 Z-0.2789
N70335 X-2.7765 Y-1.1596 Z-0.281
N70340 X-2.7742 Y-1.1573 Z-0.2827
N70345 X-2.7718 Y-1.1549 Z-0.2839
N70350 X-2.7692 Y-1.1524 Z-0.2846
N70355 X-2.7666 Y-1.1498 Z-0.2847
N70360 X-2.7193 Y-1.1025 Z-0.2823
N70365 X-2.7167 Y-1.0998 Z-0.2819
N70370 X-2.714 Y-1.0972 Z-0.2808
N70375 X-2.7116 Y-1.0947 Z-0.2793
N70380 X-2.7093 Y-1.0924 Z-0.2772
N70385 X-2.7073 Y-1.0904 Z-0.2747
N70390 X-2.7055 Y-1.0887 Z-0.2717
N70395 X-2.7041 Y-1.0873 Z-0.2684
N70400 X-2.7031 Y-1.0863 Z-0.2649
N70405 X-2.7025 Y-1.0857 Z-0.2611
N70410 X-2.7023 Y-1.0855 Z-0.2573
N70415 X-2.7026 Z-0.2523
N70420 X-2.7035 Y-1.0856 Z-0.2473
N70425 X-2.705 Y-1.0858 Z-0.2426
N70430 X-2.707 Y-1.0861 Z-0.238
N70435 X-2.7096 Y-1.0865 Z-0.2337
N70440 X-2.7127 Y-1.0869 Z-0.2297
N70445 X-2.7162 Y-1.0874 Z-0.2262
N70450 X-2.7201 Y-1.088 Z-0.2231
N70455 X-2.7244 Y-1.0886 Z-0.2205
N70460 X-2.7289 Y-1.0892 Z-0.2184
N70465 X-2.7336 Y-1.0899 Z-0.2169
N70470 X-2.7385 Y-1.0906 Z-0.216
N70475 X-2.7435 Y-1.0913 Z-0.2157
N70480 X-2.7485 Y-1.092 Z-0.216
N70485 X-2.7534 Y-1.0927 Z-0.2169
N70490 X-2.7581 Y-1.0934 Z-0.2184
N70495 X-2.7626 Y-1.094 Z-0.2205
N70500 X-2.7669 Y-1.0946 Z-0.2231
N70505 X-2.7708 Y-1.0952 Z-0.2262
N70510 X-2.7743 Y-1.0957 Z-0.2297
N70515 X-2.7774 Y-1.0961 Z-0.2337
N70520 X-2.78 Y-1.0965 Z-0.238
N70525 X-2.782 Y-1.0967 Z-0.2426
N70530 X-2.7835 Y-1.097 Z-0.2473
N70535 X-2.7844 Y-1.0971 Z-0.2523
N70540 X-2.7847 Z-0.2573
N70545 Z-0.2609
N70550 X-2.7845 Y-1.0969 Z-0.2646
N70555 X-2.7839 Y-1.0964 Z-0.2681
N70560 X-2.783 Y-1.0955 Z-0.2715
N70565 X-2.7818 Y-1.0942 Z-0.2747
N70570 X-2.7802 Y-1.0926 Z-0.2776
N70575 X-2.7784 Y-1.0908 Z-0.2801
N70580 X-2.7763 Y-1.0887 Z-0.2822
N70585 X-2.774 Y-1.0864 Z-0.2839
N70590 X-2.7715 Y-1.084 Z-0.2851
N70595 X-2.769 Y-1.0815 Z-0.2858
N70600 X-2.7664 Y-1.0789 Z-0.2859
N70605 X-2.6866 Y-0.999 Z-0.2823
N70610 X-2.6839 Y-0.9963 Z-0.2819
N70615 X-2.6813 Y-0.9937 Z-0.2809
N70620 X-2.6788 Y-0.9912 Z-0.2793
N70625 X-2.6765 Y-0.9889 Z-0.2772
N70630 X-2.6745 Y-0.9869 Z-0.2747
N70635 X-2.6727 Y-0.9852 Z-0.2717
N70640 X-2.6713 Y-0.9838 Z-0.2684
N70645 X-2.6703 Y-0.9828 Z-0.2649
N70650 X-2.6697 Y-0.9821 Z-0.2611
N70655 X-2.6695 Y-0.9819 Z-0.2573
N70660 X-2.6698 Y-0.982 Z-0.2513
N70665 X-2.6706 Y-0.9823 Z-0.2453
N70670 X-2.672 Y-0.9829 Z-0.2394
N70675 X-2.6739 Y-0.9836 Z-0.2337
N70680 X-2.6763 Y-0.9845 Z-0.2283
N70685 X-2.6792 Y-0.9857 Z-0.2231
N70690 X-2.6825 Y-0.9869 Z-0.2182
N70695 X-2.6863 Y-0.9884 Z-0.2138
N70700 X-2.6905 Y-0.99 Z-0.2097
N70705 X-2.695 Y-0.9918 Z-0.2061
N70710 X-2.6999 Y-0.9936 Z-0.203
N70715 X-2.705 Y-0.9956 Z-0.2004
N70720 X-2.7103 Y-0.9976 Z-0.1984
N70725 X-2.7157 Y-0.9997 Z-0.1969
N70730 X-2.7213 Y-1.0019 Z-0.196
N70735 X-2.727 Y-1.004 Z-0.1957
N70740 X-2.7326 Y-1.0062 Z-0.196
N70745 X-2.7382 Y-1.0084 Z-0.1969
N70750 X-2.7436 Y-1.0105 Z-0.1984
N70755 X-2.749 Y-1.0125 Z-0.2004
N70760 X-2.7541 Y-1.0145 Z-0.203
N70765 X-2.7589 Y-1.0163 Z-0.2061
N70770 X-2.7634 Y-1.0181 Z-0.2097
N70775 X-2.7676 Y-1.0197 Z-0.2138
N70780 X-2.7714 Y-1.0211 Z-0.2182
N70785 X-2.7748 Y-1.0224 Z-0.2231
N70790 X-2.7777 Y-1.0236 Z-0.2283
N70795 X-2.7801 Y-1.0245 Z-0.2337
N70800 X-2.782 Y-1.0252 Z-0.2394
N70805 X-2.7833 Y-1.0257 Z-0.2453
N70810 X-2.7842 Y-1.0261 Z-0.2513
N70815 X-2.7844 Y-1.0262 Z-0.2573
N70820 Z-0.2624
N70825 X-2.7843 Y-1.026 Z-0.266
N70830 X-2.7837 Y-1.0254 Z-0.2695
N70835 X-2.7828 Y-1.0245 Z-0.2729
N70840 X-2.7815 Y-1.0233 Z-0.2761
N70845 X-2.78 Y-1.0217 Z-0.279
N70850 X-2.7781 Y-1.0198 Z-0.2815
N70855 X-2.776 Y-1.0178 Z-0.2837
N70860 X-2.7738 Y-1.0155 Z-0.2853
N70865 X-2.7713 Y-1.0131 Z-0.2865
N70870 X-2.7688 Y-1.0105 Z-0.2872
N70875 X-2.7662 Y-1.008 Z-0.2874
N70880 X-2.719 Y-0.9607 Z-0.2854
N70885 X-2.6357 Y-0.8774 Z-0.2823
N70890 X-2.6331 Y-0.8749 Z-0.2819
N70895 X-2.6307 Y-0.8724 Z-0.2811
N70900 X-2.6283 Y-0.8701 Z-0.2797
N70905 X-2.6258 Y-0.8676 Z-0.2783
N70910 X-2.6232 Y-0.865 Z-0.2775
N70915 X-2.6205 Y-0.8623 Z-0.2772
N70920 X-2.4935 Y-0.7352
N70925 G3 X-2.5288 Y-0.6998 I-0.0177 J0.0177
N70930 G1 X-2.5315 Y-0.7025 Z-0.2775
N70935 X-2.5341 Y-0.7051 Z-0.2783
N70940 X-2.5366 Y-0.7076 Z-0.2797
N70945 X-2.539 Y-0.71 Z-0.2811
N70950 X-2.5415 Y-0.7125 Z-0.282
N70955 X-2.5441 Y-0.7151 Z-0.2823
N70960 X-2.6297 Y-0.8007 Z-0.2844
N70965 X-2.7227 Y-0.8937 Z-0.2874
N70970 X-2.766 Y-0.937 Z-0.289
N70975 X-2.7681 Y-0.9391 Z-0.2889
N70980 X-2.7702 Y-0.9412 Z-0.2885
N70985 X-2.7723 Y-0.9433 Z-0.2876
N70990 X-2.7742 Y-0.9453 Z-0.2865
N70995 X-2.7767 Y-0.9478 Z-0.2851
N71000 X-2.7793 Y-0.9504 Z-0.2842
N71005 X-2.782 Y-0.953 Z-0.2839
N71010 G2 X-2.8174 Y-0.9177 I-0.0177 J0.0177
N71015 G1 X-2.7843 Y-0.8846
N71020 X-2.7816 Y-0.8819 Z-0.2842
N71025 X-2.779 Y-0.8793 Z-0.2851
N71030 X-2.7765 Y-0.8768 Z-0.2865
N71035 X-2.7738 Y-0.8741 Z-0.2883
N71040 X-2.7718 Y-0.8722 Z-0.2895
N71045 X-2.7698 Y-0.8701 Z-0.2903
N71050 X-2.7677 Y-0.868 Z-0.2908
N71055 X-2.7656 Y-0.8659 Z-0.2909
N71060 X-2.7232 Y-0.8236 Z-0.2894
N71065 X-2.6303 Y-0.7306 Z-0.2868
N71070 X-2.5321 Y-0.6324 Z-0.2849
N71075 X-2.4225 Y-0.5229 Z-0.2839
N71080 X-2.3075 Y-0.4078 Z-0.2842
N71085 X-2.1925 Y-0.2928 Z-0.2857
N71090 X-2.0775 Y-0.1778 Z-0.2886
N71095 X-1.9957 Y-0.096 Z-0.2913
N71100 X-1.9097 Y-0.01 Z-0.2947
N71105 X-1.8132 Y0.0865 Z-0.2993
N71110 X-1.7166 Y0.183 Z-0.3044
N71115 X-1.6094 Y0.2903 Z-0.3107
N71120 X-1.4914 Y0.4082 Z-0.3183
N71125 X-1.3628 Y0.5369 Z-0.3272
N71130 X-1.2234 Y0.6763 Z-0.3375
N71135 X-1.0305 Y0.8692 Z-0.3526
N71140 X-0.8483 Y1.0513 Z-0.3675
N71145 X-0.6233 Y1.2764 Z-0.3867
N71150 X-0.3876 Y1.512 Z-0.4073
N71155 X-0.077 Y1.8227 Z-0.4353
N71160 X0.2873 Y2.1869 Z-0.4688
N71165 X0.2896 Y2.1892
N71170 X0.2918 Y2.1915 Z-0.4684
N71175 X0.2941 Y2.1937 Z-0.4676
N71180 X0.2962 Y2.1959 Z-0.4663
N71185 X0.299 Y2.1987 Z-0.4644
N71190 X0.3015 Y2.2012 Z-0.463
N71195 X0.3041 Y2.2038 Z-0.4621
N71200 X0.3068 Y2.2065 Z-0.4618
N71205 G3 X0.2714 Y2.2418 I-0.0177 J0.0177
N71210 G1 X0.2344 Y2.2048
N71215 X0.2317 Y2.2021 Z-0.4621
N71220 X0.2291 Y2.1995 Z-0.463
N71225 X0.2266 Y2.197 Z-0.4644
N71230 X0.2245 Y2.1949 Z-0.4656
N71235 X0.2223 Y2.1926 Z-0.4665
N71240 X0.22 Y2.1904 Z-0.4669
N71245 X0.2177 Y2.1881
N71250 X-0.1363 Y1.8341 Z-0.4345
N71255 X-0.4148 Y1.5555 Z-0.4096
N71260 X-0.6505 Y1.3198 Z-0.3891
N71265 X-0.8648 Y1.1055 Z-0.371
N71270 X-1.0363 Y0.9341 Z-0.357
N71275 X-1.2078 Y0.7626 Z-0.3436
N71280 X-1.3579 Y0.6125 Z-0.3325
N71285 X-1.4865 Y0.4839 Z-0.3236
N71290 X-1.6045 Y0.3659 Z-0.3159
N71295 X-1.7117 Y0.2587 Z-0.3095
N71300 X-1.819 Y0.1514 Z-0.3038
N71305 X-1.9155 Y0.0549 Z-0.2992
N71310 X-2.0015 Y-0.0311 Z-0.2956
N71315 X-2.0884 Y-0.1181 Z-0.2926
N71320 X-2.2089 Y-0.2385 Z-0.2895
N71325 X-2.3239 Y-0.3536 Z-0.2878
N71330 X-2.4335 Y-0.4631 Z-0.2874
N71335 X-2.5485 Y-0.5781 Z-0.2881
N71340 X-2.6689 Y-0.6985 Z-0.2903
N71345 X-2.7619 Y-0.7915 Z-0.2929
N71350 X-2.7651 Y-0.7947 Z-0.293
N71355 X-2.7672 Y-0.7969 Z-0.2928
N71360 X-2.7693 Y-0.7989 Z-0.2924
N71365 X-2.7714 Y-0.801 Z-0.2916
N71370 X-2.7733 Y-0.8029 Z-0.2904
N71375 X-2.7758 Y-0.8054 Z-0.289
N71380 X-2.7784 Y-0.808 Z-0.2881
N71385 X-2.7811 Y-0.8107 Z-0.2879
N71390 X-2.7825 Y-0.812
N71395 X-2.7841 Y-0.8132
N71400 X-2.7857 Y-0.8143
N71405 X-2.7874 Y-0.8153
N71410 X-2.7892 Y-0.8161
N71415 X-2.791 Y-0.8168 Z-0.288
N71420 X-2.7929 Y-0.8173
N71425 X-2.7949 Y-0.8177 Z-0.2881
N71430 X-2.7968 Y-0.8179
N71435 X-2.7988 Y-0.818 Z-0.2882
N71440 X-2.8007 Z-0.2883
N71445 X-2.8027 Y-0.8177
N71450 X-2.8046 Y-0.8173 Z-0.2884
N71455 X-2.8065 Y-0.8168 Z-0.2885
N71460 X-2.8083 Y-0.8161 Z-0.2886
N71465 X-2.8101 Y-0.8153
N71470 X-2.8118 Y-0.8143 Z-0.2887
N71475 X-2.8135 Y-0.8133 Z-0.2888
N71480 X-2.815 Y-0.812 Z-0.2889
N71485 X-2.8164 Y-0.8107 Z-0.289
N71490 X-2.8178 Y-0.8093 Z-0.2891
N71495 X-2.819 Y-0.8077 Z-0.2892
N71500 X-2.8201 Y-0.8061 Z-0.2893
N71505 X-2.821 Y-0.8044
N71510 X-2.8219 Y-0.8026 Z-0.2894
N71515 X-2.8225 Y-0.8008 Z-0.2895
N71520 X-2.8231 Y-0.7989 Z-0.2896
N71525 X-2.8235 Y-0.7969 Z-0.2897
N71530 X-2.8237 Y-0.795
N71535 X-2.8238 Y-0.793 Z-0.2898
N71540 X-2.8237 Y-0.7911 Z-0.2899
N71545 X-2.8235 Y-0.7891
N71550 X-2.8231 Y-0.7872 Z-0.29
N71555 X-2.8225 Y-0.7853
N71560 X-2.8219 Y-0.7835
N71565 X-2.821 Y-0.7817 Z-0.2901
N71570 X-2.8201 Y-0.78
N71575 X-2.819 Y-0.7783
N71580 X-2.8178 Y-0.7768
N71585 X-2.8164 Y-0.7753
N71590 X-2.7807 Y-0.7396
N71595 X-2.778 Y-0.7369 Z-0.2904
N71600 X-2.7754 Y-0.7343 Z-0.2913
N71605 X-2.7729 Y-0.7318 Z-0.2927
N71610 X-2.7703 Y-0.7292 Z-0.2941
N71615 X-2.7676 Y-0.7265 Z-0.295
N71620 X-2.7648 Y-0.7237 Z-0.2952
N71625 X-2.6921 Y-0.651 Z-0.2934
N71630 X-2.5771 Y-0.536 Z-0.2915
N71635 X-2.4621 Y-0.421 Z-0.2908
N71640 X-2.347 Y-0.306 Z-0.2914
N71645 X-2.2266 Y-0.1855 Z-0.2933
N71650 X-2.1006 Y-0.0595 Z-0.2967
N71655 X-2.0149 Y0.0262 Z-0.2997
N71660 X-1.929 Y0.1121 Z-0.3033
N71665 X-1.8324 Y0.2087 Z-0.3079
N71670 X-1.7251 Y0.3159 Z-0.3136
N71675 X-1.6072 Y0.4339 Z-0.3207
N71680 X-1.4892 Y0.5519 Z-0.3283
N71685 X-1.3499 Y0.6912 Z-0.338
N71690 X-1.1998 Y0.8413 Z-0.3491
N71695 X-1.031 Y1.0101 Z-0.3623
N71700 X-0.8568 Y1.1843 Z-0.3765
N71705 X-0.6533 Y1.3878 Z-0.3936
N71710 X-0.4068 Y1.6343 Z-0.415
N71715 X-0.1604 Y1.8807 Z-0.437
N71720 X0.1502 Y2.1913 Z-0.4652
N71725 X0.1525 Y2.1936
N71730 X0.1548 Y2.1959 Z-0.4648
N71735 X0.157 Y2.1981 Z-0.464
N71740 X0.1591 Y2.2002 Z-0.4627
N71745 X0.1612 Y2.2023 Z-0.4613
N71750 X0.1637 Y2.2048 Z-0.4599
N71755 X0.1663 Y2.2074 Z-0.459
N71760 X0.169 Y2.2101 Z-0.4587
N71765 G3 X0.1336 Y2.2454 I-0.0177 J0.0177
N71770 G1 X0.1012 Y2.213
N71775 X0.0985 Y2.2103 Z-0.459
N71780 X0.0959 Y2.2077 Z-0.4599
N71785 X0.0934 Y2.2052 Z-0.4613
N71790 X0.0913 Y2.2031 Z-0.4625
N71795 X0.0891 Y2.2009 Z-0.4633
N71800 X0.0868 Y2.1986 Z-0.4638
N71805 X0.0845 Y2.1963
N71810 X-0.2476 Y1.8642 Z-0.4338
N71815 X-0.5047 Y1.6071 Z-0.4112
N71820 X-0.7297 Y1.3821 Z-0.3919
N71825 X-0.9333 Y1.1785 Z-0.375
N71830 X-1.1155 Y0.9963 Z-0.3606
N71835 X-1.2441 Y0.8677 Z-0.3507
N71840 X-1.3942 Y0.7176 Z-0.3398
N71845 X-1.5228 Y0.589 Z-0.331
N71850 X-1.6408 Y0.471 Z-0.3235
N71855 X-1.7588 Y0.353 Z-0.3166
N71860 X-1.866 Y0.2458 Z-0.311
N71865 X-1.9626 Y0.1492 Z-0.3065
N71870 X-2.0593 Y0.0525 Z-0.3026
N71875 X-2.1465 Y-0.0348 Z-0.2997
N71880 X-2.267 Y-0.1552 Z-0.2966
N71885 X-2.3875 Y-0.2757 Z-0.2948
N71890 X-2.5025 Y-0.3907 Z-0.2943
N71895 X-2.6175 Y-0.5057 Z-0.295
N71900 X-2.738 Y-0.6262 Z-0.2971
N71905 X-2.7645 Y-0.6527 Z-0.2977
N71910 X-2.7673 Y-0.6555 Z-0.2974
N71915 X-2.77 Y-0.6582 Z-0.2966
N71920 X-2.7725 Y-0.6608 Z-0.2951
N71925 X-2.775 Y-0.6632 Z-0.2937
N71930 X-2.7777 Y-0.6659 Z-0.2929
N71935 X-2.7803 Y-0.6685 Z-0.2926
N71940 X-2.7818 Y-0.6699
N71945 X-2.7833 Y-0.6711
N71950 X-2.7849 Y-0.6722
N71955 X-2.7867 Y-0.6731
N71960 X-2.7884 Y-0.674 Z-0.2927
N71965 X-2.7903 Y-0.6746
N71970 X-2.7922 Y-0.6752 Z-0.2928
N71975 X-2.7941 Y-0.6756
N71980 X-2.7961 Y-0.6758 Z-0.2929
N71985 X-2.798 Y-0.6759 Z-0.293
N71990 X-2.8 Y-0.6758
N71995 X-2.8019 Y-0.6756 Z-0.2931
N72000 X-2.8039 Y-0.6752 Z-0.2932
N72005 X-2.8058 Y-0.6746 Z-0.2933
N72010 X-2.8076 Y-0.674 Z-0.2934
N72015 X-2.8094 Y-0.6732 Z-0.2935
N72020 X-2.8111 Y-0.6722 Z-0.2936
N72025 X-2.8127 Y-0.6711 Z-0.2937
N72030 X-2.8143 Y-0.6699 Z-0.2938
N72035 X-2.8157 Y-0.6686 Z-0.2939
N72040 X-2.817 Y-0.6671 Z-0.294
N72045 X-2.8183 Y-0.6656 Z-0.2941
N72050 X-2.8193 Y-0.6639 Z-0.2942
N72055 X-2.8203 Y-0.6622 Z-0.2943
N72060 X-2.8211 Y-0.6604 Z-0.2944
N72065 X-2.8218 Y-0.6586 Z-0.2945
N72070 X-2.8223 Y-0.6567 Z-0.2946
N72075 X-2.8227 Y-0.6548
N72080 X-2.8229 Y-0.6528 Z-0.2947
N72085 X-2.823 Y-0.6509 Z-0.2948
N72090 X-2.8229 Y-0.6489 Z-0.2949
N72095 X-2.8227 Y-0.647
N72100 X-2.8223 Y-0.645 Z-0.295
N72105 X-2.8218 Y-0.6431
N72110 X-2.8211 Y-0.6413 Z-0.2951
N72115 X-2.8203 Y-0.6395
N72120 X-2.8193 Y-0.6378
N72125 X-2.8182 Y-0.6362 Z-0.2952
N72130 X-2.817 Y-0.6346
N72135 X-2.8157 Y-0.6332
N72140 X-2.7799 Y-0.5974
N72145 X-2.7772 Y-0.5947 Z-0.2955
N72150 X-2.7746 Y-0.5921 Z-0.2963
N72155 X-2.7721 Y-0.5896 Z-0.2977
N72160 X-2.7696 Y-0.5871 Z-0.2992
N72165 X-2.7669 Y-0.5844 Z-0.3
N72170 X-2.7641 Y-0.5816 Z-0.3003
N72175 X-2.7254 Y-0.5429 Z-0.2995
N72180 X-2.6049 Y-0.4224 Z-0.2981
N72185 X-2.4844 Y-0.3019 Z-0.2979
N72190 X-2.3585 Y-0.1759 Z-0.2991
N72195 X-2.2325 Y-0.05 Z-0.3016
N72200 X-2.1294 Y0.0531 Z-0.3046
N72205 X-2.0374 Y0.1451 Z-0.308
N72210 X-1.9408 Y0.2417 Z-0.3121
N72215 X-1.8335 Y0.349 Z-0.3174
N72220 X-1.7202 Y0.4623 Z-0.3237
N72225 X-1.5976 Y0.5849 Z-0.3311
N72230 X-1.4689 Y0.7136 Z-0.3396
N72235 X-1.3295 Y0.853 Z-0.3494
N72240 X-1.1795 Y1.003 Z-0.3605
N72245 X-0.9437 Y1.2388 Z-0.3791
N72250 X-0.7508 Y1.4317 Z-0.395
N72255 X-0.5151 Y1.6674 Z-0.415
N72260 X-0.2901 Y1.8924 Z-0.4347
N72265 X0.0206 Y2.2031 Z-0.4625
N72270 X0.0229 Y2.2054
N72275 X0.0251 Y2.2076 Z-0.4621
N72280 X0.0274 Y2.2099 Z-0.4613
N72285 X0.0295 Y2.212 Z-0.46
N72290 X0.0309 Y2.2134 Z-0.459
N72295 X0.0334 Y2.2159 Z-0.4576
N72300 X0.036 Y2.2186 Z-0.4568
N72305 X0.0387 Y2.2212 Z-0.4565
N72310 G3 Y2.2566 I-0.0177 J0.0177
N72315 X0.0034 I-0.0177 J-0.0177
N72320 G1 X-0.0256 Y2.2276
N72325 X-0.0283 Y2.2249 Z-0.4568
N72330 X-0.0309 Y2.2223 Z-0.4576
N72335 X-0.0334 Y2.2198 Z-0.459
N72340 X-0.0355 Y2.2177 Z-0.4603
N72345 X-0.0377 Y2.2155 Z-0.4611
N72350 X-0.04 Y2.2132 Z-0.4615
N72355 X-0.0423 Y2.2109
N72360 X-0.2887 Y1.9645 Z-0.4396
N72365 X-0.5351 Y1.7181 Z-0.4181
N72370 X-0.7601 Y1.4931 Z-0.399
N72375 X-0.953 Y1.3002 Z-0.3832
N72380 X-1.1781 Y1.0751 Z-0.3656
N72385 X-1.3389 Y0.9143 Z-0.3536
N72390 X-1.4783 Y0.775 Z-0.3439
N72395 X-1.6069 Y0.6463 Z-0.3355
N72400 X-1.7249 Y0.5283 Z-0.3283
N72405 X-1.8429 Y0.4103 Z-0.3217
N72410 X-1.9501 Y0.3031 Z-0.3164
N72415 X-2.0467 Y0.2065 Z-0.3122
N72420 X-2.1439 Y0.1093 Z-0.3086
N72425 X-2.2753 Y-0.0221 Z-0.3048
N72430 X-2.4013 Y-0.1481 Z-0.3024
N72435 X-2.5218 Y-0.2686 Z-0.3014
N72440 X-2.6479 Y-0.3947 Z-0.3016
N72445 X-2.7637 Y-0.5105 Z-0.303
N72450 X-2.7665 Y-0.5133 Z-0.3028
N72455 X-2.7691 Y-0.5159 Z-0.3019
N72460 X-2.7717 Y-0.5185 Z-0.3005
N72465 X-2.7742 Y-0.521 Z-0.2991
N72470 X-2.7768 Y-0.5236 Z-0.2982
N72475 X-2.7795 Y-0.5262 Z-0.2979
N72480 X-2.7809 Y-0.5276
N72485 X-2.7824 Y-0.5288 Z-0.298
N72490 X-2.7841 Y-0.5299
N72495 X-2.7858 Y-0.5308
N72500 X-2.7876 Y-0.5317
N72505 X-2.7894 Y-0.5324 Z-0.2981
N72510 X-2.7913 Y-0.5329
N72515 X-2.7932 Y-0.5333 Z-0.2982
N72520 X-2.7952 Y-0.5335 Z-0.2983
N72525 X-2.7971 Y-0.5336 Z-0.2984
N72530 X-2.7991 Y-0.5335
N72535 X-2.8011 Y-0.5333 Z-0.2985
N72540 X-2.803 Y-0.5329 Z-0.2986
N72545 X-2.8049 Y-0.5324 Z-0.2987
N72550 X-2.8067 Y-0.5317 Z-0.2988
N72555 X-2.8085 Y-0.5309 Z-0.2989
N72560 X-2.8102 Y-0.5299 Z-0.2991
N72565 X-2.8119 Y-0.5288 Z-0.2992
N72570 X-2.8134 Y-0.5276 Z-0.2993
N72575 X-2.8148 Y-0.5263 Z-0.2994
N72580 X-2.8162 Y-0.5248 Z-0.2995
N72585 X-2.8174 Y-0.5233 Z-0.2996
N72590 X-2.8185 Y-0.5217 Z-0.2997
N72595 X-2.8194 Y-0.5199 Z-0.2998
N72600 X-2.8203 Y-0.5182 Z-0.2999
N72605 X-2.8209 Y-0.5163 Z-0.3001
N72610 X-2.8215 Y-0.5144 Z-0.3002
N72615 X-2.8218 Y-0.5125
N72620 X-2.8221 Y-0.5105 Z-0.3003
N72625 Y-0.5086 Z-0.3004
N72630 Y-0.5066 Z-0.3005
N72635 X-2.8218 Y-0.5047 Z-0.3006
N72640 X-2.8215 Y-0.5027
N72645 X-2.8209 Y-0.5009 Z-0.3007
N72650 X-2.8202 Y-0.499
N72655 X-2.8194 Y-0.4972 Z-0.3008
N72660 X-2.8184 Y-0.4955
N72665 X-2.8174 Y-0.4939
N72670 X-2.8161 Y-0.4923
N72675 X-2.8148 Y-0.4909
N72680 X-2.7792 Y-0.4553
N72685 X-2.7765 Y-0.4526 Z-0.3011
N72690 X-2.7739 Y-0.45 Z-0.302
N72695 X-2.7714 Y-0.4475 Z-0.3034
N72700 X-2.7689 Y-0.445 Z-0.3048
N72705 X-2.7663 Y-0.4423 Z-0.3057
N72710 X-2.7635 Y-0.4396 Z-0.3059
N72715 X-2.6449 Y-0.321 Z-0.3049
N72720 X-2.5244 Y-0.2005 Z-0.305
N72725 X-2.3985 Y-0.0745 Z-0.3065
N72730 X-2.2725 Y0.0514 Z-0.3092
N72735 X-2.1639 Y0.16 Z-0.3124
N72740 X-2.0667 Y0.2572 Z-0.316
N72745 X-1.9701 Y0.3538 Z-0.3202
N72750 X-1.8629 Y0.461 Z-0.3255
N72755 X-1.7442 Y0.5797 Z-0.332
N72760 X-1.6162 Y0.7077 Z-0.3398
N72765 X-1.4875 Y0.8364 Z-0.3482
N72770 X-1.3374 Y0.9865 Z-0.3587
N72775 X-1.1766 Y1.1473 Z-0.3706
N72780 X-0.9837 Y1.3402 Z-0.3857
N72785 X-0.8337 Y1.4902 Z-0.3978
N72790 X-0.6087 Y1.7153 Z-0.4166
N72795 X-0.3944 Y1.9295 Z-0.435
N72800 X-0.1051 Y2.2188 Z-0.4605
N72805 X-0.1028 Y2.2211
N72810 X-0.1006 Y2.2233 Z-0.4601
N72815 X-0.0984 Y2.2256 Z-0.4593
N72820 X-0.0962 Y2.2277 Z-0.458
N72825 X-0.095 Y2.229 Z-0.4571
N72830 X-0.0925 Y2.2315 Z-0.4557
N72835 X-0.0898 Y2.2341 Z-0.4549
N72840 X-0.0872 Y2.2367 Z-0.4546
N72845 G3 X-0.1225 Y2.2721 I-0.0177 J0.0177
N72850 G1 X-0.1512 Y2.2434
N72855 X-0.1539 Y2.2407 Z-0.4549
N72860 X-0.1565 Y2.2381 Z-0.4557
N72865 X-0.159 Y2.2356 Z-0.4571
N72870 X-0.1611 Y2.2335 Z-0.4584
N72875 X-0.1633 Y2.2313 Z-0.4592
N72880 X-0.1656 Y2.229 Z-0.4596
N72885 X-0.1679 Y2.2268
N72890 X-0.3929 Y2.0017 Z-0.4399
N72895 X-0.6179 Y1.7767 Z-0.4206
N72900 X-0.8322 Y1.5624 Z-0.4027
N72905 X-0.9715 Y1.4231 Z-0.3915
N72910 X-1.1644 Y1.2302 Z-0.3764
N72915 X-1.3252 Y1.0694 Z-0.3645
N72920 X-1.4753 Y0.9193 Z-0.354
N72925 X-1.6147 Y0.7799 Z-0.3448
N72930 X-1.7327 Y0.6619 Z-0.3376
N72935 X-1.8507 Y0.544 Z-0.331
N72940 X-1.9579 Y0.4367 Z-0.3256
N72945 X-2.0652 Y0.3294 Z-0.3208
N72950 X-2.1622 Y0.2324 Z-0.317
N72955 X-2.2605 Y0.1341 Z-0.3138
N72960 X-2.3919 Y0.0027 Z-0.3107
N72965 X-2.5179 Y-0.1233 Z-0.3089
N72970 X-2.6438 Y-0.2492 Z-0.3083
N72975 X-2.7631 Y-0.3685 Z-0.309
N72980 X-2.7658 Y-0.3712 Z-0.3087
N72985 X-2.7685 Y-0.3738 Z-0.3079
N72990 X-2.771 Y-0.3764 Z-0.3064
N72995 X-2.7735 Y-0.3789 Z-0.305
N73000 X-2.7761 Y-0.3815 Z-0.3042
N73005 X-2.7788 Y-0.3841 Z-0.3039
N73010 X-2.7802 Y-0.3855
N73015 X-2.7817 Y-0.3867
N73020 X-2.7834 Y-0.3878
N73025 X-2.7851 Y-0.3887 Z-0.304
N73030 X-2.7869 Y-0.3896
N73035 X-2.7887 Y-0.3903 Z-0.3041
N73040 X-2.7906 Y-0.3908
N73045 X-2.7925 Y-0.3912 Z-0.3042
N73050 X-2.7945 Y-0.3914 Z-0.3043
N73055 X-2.7965 Y-0.3915 Z-0.3044
N73060 X-2.7984 Y-0.3914
N73065 X-2.8004 Y-0.3912 Z-0.3045
N73070 X-2.8023 Y-0.3908 Z-0.3046
N73075 X-2.8042 Y-0.3903 Z-0.3048
N73080 X-2.806 Y-0.3896 Z-0.3049
N73085 X-2.8078 Y-0.3888 Z-0.305
N73090 X-2.8095 Y-0.3878 Z-0.3051
N73095 X-2.8112 Y-0.3867 Z-0.3052
N73100 X-2.8127 Y-0.3855 Z-0.3053
N73105 X-2.8141 Y-0.3842 Z-0.3055
N73110 X-2.8155 Y-0.3827 Z-0.3056
N73115 X-2.8167 Y-0.3812 Z-0.3057
N73120 X-2.8178 Y-0.3796 Z-0.3058
N73125 X-2.8187 Y-0.3778 Z-0.306
N73130 X-2.8196 Y-0.3761 Z-0.3061
N73135 X-2.8202 Y-0.3742 Z-0.3062
N73140 X-2.8208 Y-0.3723 Z-0.3063
N73145 X-2.8212 Y-0.3704 Z-0.3064
N73150 X-2.8214 Y-0.3685 Z-0.3065
N73155 X-2.8215 Y-0.3665 Z-0.3066
N73160 X-2.8214 Y-0.3645 Z-0.3067
N73165 X-2.8211 Y-0.3626
N73170 X-2.8208 Y-0.3606 Z-0.3068
N73175 X-2.8202 Y-0.3588 Z-0.3069
N73180 X-2.8195 Y-0.3569
N73185 X-2.8187 Y-0.3551 Z-0.307
N73190 X-2.8178 Y-0.3534
N73195 X-2.8167 Y-0.3518
N73200 X-2.8154 Y-0.3502
N73205 X-2.8141 Y-0.3488 Z-0.3071
N73210 X-2.7783 Y-0.313
N73215 X-2.7756 Y-0.3103 Z-0.3073
N73220 X-2.773 Y-0.3077 Z-0.3082
N73225 X-2.7705 Y-0.3052 Z-0.3096
N73230 X-2.768 Y-0.3027 Z-0.311
N73235 X-2.7654 Y-0.3001 Z-0.3119
N73240 X-2.7627 Y-0.2974 Z-0.3122
N73245 X-2.6355 Y-0.1702 Z-0.3119
N73250 X-2.5096 Y-0.0442 Z-0.3128
N73255 X-2.3781 Y0.0872 Z-0.3151
N73260 X-2.2586 Y0.2068 Z-0.3183
N73265 X-2.1605 Y0.3048 Z-0.3216
N73270 X-2.0638 Y0.4016 Z-0.3255
N73275 X-1.9565 Y0.5089 Z-0.3304
N73280 X-1.8492 Y0.6161 Z-0.3359
N73285 X-1.7312 Y0.7341 Z-0.3426
N73290 X-1.6025 Y0.8628 Z-0.3505
N73295 X-1.4631 Y1.0022 Z-0.3598
N73300 X-1.3131 Y1.1523 Z-0.3703
N73305 X-1.1523 Y1.3131 Z-0.3823
N73310 X-0.9165 Y1.5488 Z-0.4008
N73315 X-0.7129 Y1.7525 Z-0.4174
N73320 X-0.5093 Y1.956 Z-0.4346
N73325 X-0.2307 Y2.2346 Z-0.4588
N73330 X-0.2284 Y2.2369
N73335 X-0.2261 Y2.2392 Z-0.4583
N73340 X-0.2239 Y2.2414 Z-0.4575
N73345 X-0.2218 Y2.2435 Z-0.4563
N73350 X-0.2207 Y2.2446 Z-0.4555
N73355 X-0.2182 Y2.2471 Z-0.4541
N73360 X-0.2156 Y2.2497 Z-0.4532
N73365 X-0.2129 Y2.2524 Z-0.4529
N73370 G3 Y2.2877 I-0.0177 J0.0177
N73375 X-0.2483 I-0.0177 J-0.0177
N73380 G1 X-0.2768 Y2.2592
N73385 X-0.2795 Y2.2566 Z-0.4532
N73390 X-0.2821 Y2.2539 Z-0.4541
N73395 X-0.2846 Y2.2514 Z-0.4555
N73400 X-0.2867 Y2.2493 Z-0.4567
N73405 X-0.2889 Y2.2471 Z-0.4576
N73410 X-0.2912 Y2.2449 Z-0.458
N73415 X-0.2934 Y2.2426
N73420 X-0.5185 Y2.0176 Z-0.4386
N73425 X-0.7328 Y1.8032 Z-0.4206
N73430 X-0.915 Y1.6211 Z-0.4058
N73435 X-1.1508 Y1.3853 Z-0.3873
N73440 X-1.3115 Y1.2245 Z-0.3754
N73445 X-1.4616 Y1.0744 Z-0.3648
N73450 X-1.601 Y0.935 Z-0.3555
N73455 X-1.7297 Y0.8063 Z-0.3476
N73460 X-1.8477 Y0.6884 Z-0.3408
N73465 X-1.9657 Y0.5704 Z-0.3347
N73470 X-2.073 Y0.4631 Z-0.3297
N73475 X-2.1805 Y0.3556 Z-0.3254
N73480 X-2.2785 Y0.2576 Z-0.3221
N73485 X-2.4035 Y0.1325 Z-0.3187
N73490 X-2.5349 Y0.0011 Z-0.3164
N73495 X-2.6664 Y-0.1303 Z-0.3154
N73500 X-2.7625 Y-0.2265
N73505 X-2.7652 Y-0.2291 Z-0.3151
N73510 X-2.7678 Y-0.2318 Z-0.3143
N73515 X-2.7703 Y-0.2343 Z-0.3129
N73520 X-2.7728 Y-0.2368 Z-0.3115
N73525 X-2.7754 Y-0.2394 Z-0.3106
N73530 X-2.7781 Y-0.242 Z-0.3103
N73535 X-2.7795 Y-0.2434
N73540 X-2.7811 Y-0.2446 Z-0.3104
N73545 X-2.7827 Y-0.2457
N73550 X-2.7844 Y-0.2466
N73555 X-2.7862 Y-0.2475 Z-0.3105
N73560 X-2.788 Y-0.2482
N73565 X-2.7899 Y-0.2487 Z-0.3106
N73570 X-2.7919 Y-0.2491 Z-0.3107
N73575 X-2.7938 Y-0.2493
N73580 X-2.7958 Y-0.2494 Z-0.3108
N73585 X-2.7977 Y-0.2493 Z-0.3109
N73590 X-2.7997 Y-0.2491 Z-0.311
N73595 X-2.8016 Y-0.2487 Z-0.3111
N73600 X-2.8035 Y-0.2482 Z-0.3113
N73605 X-2.8054 Y-0.2475 Z-0.3114
N73610 X-2.8071 Y-0.2467 Z-0.3115
N73615 X-2.8089 Y-0.2457 Z-0.3116
N73620 X-2.8105 Y-0.2446 Z-0.3118
N73625 X-2.812 Y-0.2434 Z-0.3119
N73630 X-2.8135 Y-0.2421 Z-0.312
N73635 X-2.8148 Y-0.2406 Z-0.3122
N73640 X-2.816 Y-0.2391 Z-0.3123
N73645 X-2.8171 Y-0.2375 Z-0.3124
N73650 X-2.8181 Y-0.2358 Z-0.3125
N73655 X-2.8189 Y-0.234 Z-0.3127
N73660 X-2.8196 Y-0.2321 Z-0.3128
N73665 X-2.8201 Y-0.2302 Z-0.3129
N73670 X-2.8205 Y-0.2283 Z-0.313
N73675 X-2.8207 Y-0.2264 Z-0.3131
N73680 X-2.8208 Y-0.2244 Z-0.3132
N73685 X-2.8207 Y-0.2224 Z-0.3133
N73690 X-2.8205 Y-0.2205 Z-0.3134
N73695 X-2.8201 Y-0.2185 Z-0.3135
N73700 X-2.8195 Y-0.2167
N73705 X-2.8189 Y-0.2148 Z-0.3136
N73710 X-2.818 Y-0.213
N73715 X-2.8171 Y-0.2113 Z-0.3137
N73720 X-2.816 Y-0.2097
N73725 X-2.8148 Y-0.2081
N73730 X-2.8134 Y-0.2067
N73735 X-2.7776 Y-0.1709
N73740 X-2.7749 Y-0.1682 Z-0.314
N73745 X-2.7723 Y-0.1656 Z-0.3149
N73750 X-2.7698 Y-0.1631 Z-0.3163
N73755 X-2.7673 Y-0.1606 Z-0.3177
N73760 X-2.7647 Y-0.158 Z-0.3185
N73765 X-2.7621 Y-0.1553 Z-0.3188
N73770 X-2.6535 Y-0.0468 Z-0.3191
N73775 X-2.5221 Y0.0846 Z-0.3206
N73780 X-2.3852 Y0.2216 Z-0.3234
N73785 X-2.2766 Y0.3302 Z-0.3266
N73790 X-2.1789 Y0.4278 Z-0.33
N73795 X-2.0715 Y0.5352 Z-0.3345
N73800 X-1.9643 Y0.6425 Z-0.3395
N73805 X-1.8463 Y0.7605 Z-0.3457
N73810 X-1.7283 Y0.8785 Z-0.3525
N73815 X-1.5996 Y1.0071 Z-0.3606
N73820 X-1.4602 Y1.1465 Z-0.3698
N73825 X-1.3101 Y1.2966 Z-0.3804
N73830 X-1.1386 Y1.4681 Z-0.3932
N73835 X-0.9457 Y1.661 Z-0.4083
N73840 X-0.8171 Y1.7896 Z-0.4186
N73845 X-0.6242 Y1.9825 Z-0.4345
N73850 X-0.3563 Y2.2504 Z-0.4573
N73855 X-0.354 Y2.2527
N73860 X-0.3518 Y2.255 Z-0.4569
N73865 X-0.3496 Y2.2572 Z-0.456
N73870 X-0.3475 Y2.2593 Z-0.4548
N73875 X-0.3465 Y2.2602 Z-0.4542
N73880 X-0.3441 Y2.2627 Z-0.4528
N73885 X-0.3414 Y2.2653 Z-0.4519
N73890 X-0.3388 Y2.268 Z-0.4516
N73895 G3 X-0.3741 Y2.3033 I-0.0177 J0.0177
N73900 G1 X-0.4025 Y2.275
N73905 X-0.4051 Y2.2723 Z-0.4519
N73910 X-0.4077 Y2.2697 Z-0.4528
N73915 X-0.4102 Y2.2672 Z-0.4542
N73920 X-0.4123 Y2.2651 Z-0.4554
N73925 X-0.4145 Y2.2629 Z-0.4562
N73930 X-0.4168 Y2.2607 Z-0.4566
N73935 X-0.4191 Y2.2584 Z-0.4567
N73940 X-0.6334 Y2.0441 Z-0.4386
N73945 X-0.837 Y1.8405 Z-0.4218
N73950 X-1.1263 Y1.5511 Z-0.399
N73955 X-1.2978 Y1.3796 Z-0.3863
N73960 X-1.4587 Y1.2188 Z-0.3749
N73965 X-1.598 Y1.0794 Z-0.3656
N73970 X-1.7375 Y0.94 Z-0.3569
N73975 X-1.8662 Y0.8113 Z-0.3495
N73980 X-1.9841 Y0.6933 Z-0.3433
N73985 X-2.1022 Y0.5753 Z-0.3378
N73990 X-2.2096 Y0.4678 Z-0.3334
N73995 X-2.3128 Y0.3646 Z-0.3298
N74000 X-2.4269 Y0.2505 Z-0.3266
N74005 X-2.5693 Y0.1081 Z-0.3238
N74010 X-2.7062 Y-0.0288 Z-0.3225
N74015 X-2.7619 Y-0.0844 Z-0.3223
N74020 X-2.7645 Y-0.0871 Z-0.322
N74025 X-2.7671 Y-0.0897 Z-0.3212
N74030 X-2.7696 Y-0.0922 Z-0.3198
N74035 X-2.7721 Y-0.0946 Z-0.3183
N74040 X-2.7747 Y-0.0973 Z-0.3175
N74045 X-2.7774 Y-0.0999 Z-0.3172
N74050 X-2.7788 Y-0.1013
N74055 X-2.7804 Y-0.1025
N74060 X-2.782 Y-0.1036 Z-0.3173
N74065 X-2.7837 Y-0.1045
N74070 X-2.7855 Y-0.1054
N74075 X-2.7874 Y-0.1061 Z-0.3174
N74080 X-2.7892 Y-0.1066 Z-0.3175
N74085 X-2.7912 Y-0.107
N74090 X-2.7931 Y-0.1072 Z-0.3176
N74095 X-2.7951 Y-0.1073 Z-0.3177
N74100 X-2.7971 Y-0.1072 Z-0.3178
N74105 X-2.799 Y-0.107 Z-0.3179
N74110 X-2.8009 Y-0.1066 Z-0.3181
N74115 X-2.8028 Y-0.1061 Z-0.3182
N74120 X-2.8047 Y-0.1054 Z-0.3183
N74125 X-2.8064 Y-0.1046 Z-0.3184
N74130 X-2.8082 Y-0.1036 Z-0.3186
N74135 X-2.8098 Y-0.1025 Z-0.3187
N74140 X-2.8113 Y-0.1013 Z-0.3188
N74145 X-2.8128 Y-0.1 Z-0.319
N74150 X-2.8141 Y-0.0985 Z-0.3191
N74155 X-2.8153 Y-0.097 Z-0.3193
N74160 X-2.8164 Y-0.0954 Z-0.3194
N74165 X-2.8174 Y-0.0936 Z-0.3195
N74170 X-2.8182 Y-0.0919 Z-0.3197
N74175 X-2.8189 Y-0.09 Z-0.3198
N74180 X-2.8194 Y-0.0881 Z-0.3199
N74185 X-2.8198 Y-0.0862 Z-0.32
N74190 X-2.82 Y-0.0843 Z-0.3202
N74195 X-2.8201 Y-0.0823 Z-0.3203
N74200 X-2.82 Y-0.0803
N74205 X-2.8198 Y-0.0784 Z-0.3204
N74210 X-2.8194 Y-0.0764 Z-0.3205
N74215 X-2.8189 Y-0.0746 Z-0.3206
N74220 X-2.8182 Y-0.0727
N74225 X-2.8173 Y-0.0709 Z-0.3207
N74230 X-2.8164 Y-0.0692
N74235 X-2.8153 Y-0.0676 Z-0.3208
N74240 X-2.8141 Y-0.066
N74245 X-2.8127 Y-0.0646
N74250 X-2.7769 Y-0.0287
N74255 X-2.7742 Y-0.0261 Z-0.3211
N74260 X-2.7716 Y-0.0235 Z-0.3219
N74265 X-2.7691 Y-0.021 Z-0.3233
N74270 X-2.7666 Y-0.0185 Z-0.3247
N74275 X-2.7641 Y-0.0159 Z-0.3256
N74280 X-2.7614 Y-0.0133 Z-0.3259
N74285 X-2.7032 Y0.0449 Z-0.3262
N74290 X-2.5663 Y0.1818 Z-0.3279
N74295 X-2.4239 Y0.3242 Z-0.331
N74300 X-2.3044 Y0.4438 Z-0.3346
N74305 X-2.207 Y0.5411 Z-0.3381
N74310 X-2.0997 Y0.6485 Z-0.3426
N74315 X-1.9817 Y0.7665 Z-0.3482
N74320 X-1.8637 Y0.8845 Z-0.3545
N74325 X-1.7361 Y1.0121 Z-0.3619
N74330 X-1.5967 Y1.1515 Z-0.3706
N74335 X-1.4466 Y1.3016 Z-0.3807
N74340 X-1.2857 Y1.4624 Z-0.3921
N74345 X-1.125 Y1.6232 Z-0.4041
N74350 X-0.8892 Y1.859 Z-0.4225
N74355 X-0.7391 Y2.009 Z-0.4346
N74360 X-0.4819 Y2.2662 Z-0.4561
N74365 X-0.4797 Y2.2685
N74370 X-0.4774 Y2.2708 Z-0.4557
N74375 X-0.4752 Y2.2729 Z-0.4548
N74380 X-0.4731 Y2.275 Z-0.4536
N74385 X-0.4724 Y2.2758 Z-0.4531
N74390 X-0.4699 Y2.2783 Z-0.4517
N74395 X-0.4673 Y2.2809 Z-0.4508
N74400 X-0.4646 Y2.2835 Z-0.4505
N74405 G3 X-0.5 Y2.3189 I-0.0177 J0.0177
N74410 G1 X-0.5281 Y2.2907
N74415 X-0.5308 Y2.2881 Z-0.4508
N74420 X-0.5334 Y2.2854 Z-0.4517
N74425 X-0.5359 Y2.283 Z-0.4531
N74430 X-0.538 Y2.2809 Z-0.4543
N74435 X-0.5402 Y2.2787 Z-0.4552
N74440 X-0.5424 Y2.2764 Z-0.4556
N74445 X-0.5447 Y2.2741
N74450 X-0.759 Y2.0598 Z-0.4379
N74455 X-0.8876 Y1.9312 Z-0.4276
N74460 X-1.1127 Y1.7062 Z-0.4099
N74465 X-1.2842 Y1.5347 Z-0.3971
N74470 X-1.445 Y1.3738 Z-0.3857
N74475 X-1.5951 Y1.2237 Z-0.3756
N74480 X-1.7345 Y1.0843 Z-0.3669
N74485 X-1.8632 Y0.9556 Z-0.3594
N74490 X-1.9812 Y0.8376 Z-0.3531
N74495 X-2.0992 Y0.7196 Z-0.3474
N74500 X-2.2065 Y0.6123 Z-0.3427
N74505 X-2.3145 Y0.5043 Z-0.3387
N74510 X-2.4395 Y0.3794 Z-0.3349
N74515 X-2.5819 Y0.237 Z-0.3317
N74520 X-2.7243 Y0.0946 Z-0.3298
N74525 X-2.7611 Y0.0577 Z-0.3295
N74530 X-2.7638 Y0.0551 Z-0.3292
N74535 X-2.7663 Y0.0525 Z-0.3284
N74540 X-2.7688 Y0.0501 Z-0.327
N74545 X-2.7713 Y0.0476 Z-0.3256
N74550 X-2.7739 Y0.0449 Z-0.3247
N74555 X-2.7766 Y0.0423 Z-0.3244
N74560 X-2.778 Y0.0409
N74565 X-2.7796 Y0.0397 Z-0.3245
N74570 X-2.7812 Y0.0386
N74575 X-2.7829 Y0.0377
N74580 X-2.7847 Y0.0368 Z-0.3246
N74585 X-2.7866 Y0.0362
N74590 X-2.7885 Y0.0356 Z-0.3247
N74595 X-2.7904 Y0.0352 Z-0.3248
N74600 X-2.7923 Y0.035 Z-0.3249
N74605 X-2.7943 Y0.0349 Z-0.325
N74610 X-2.7963 Y0.035 Z-0.3251
N74615 X-2.7982 Y0.0352 Z-0.3252
N74620 X-2.8001 Y0.0356 Z-0.3253
N74625 X-2.802 Y0.0361 Z-0.3255
N74630 X-2.8039 Y0.0368 Z-0.3256
N74635 X-2.8057 Y0.0376 Z-0.3257
N74640 X-2.8074 Y0.0386 Z-0.3259
N74645 X-2.809 Y0.0397 Z-0.326
N74650 X-2.8105 Y0.0409 Z-0.3262
N74655 X-2.812 Y0.0422 Z-0.3263
N74660 X-2.8133 Y0.0437 Z-0.3264
N74665 X-2.8145 Y0.0452 Z-0.3266
N74670 X-2.8156 Y0.0468 Z-0.3267
N74675 X-2.8166 Y0.0486 Z-0.3269
N74680 X-2.8174 Y0.0503 Z-0.327
N74685 X-2.8181 Y0.0522 Z-0.3271
N74690 X-2.8186 Y0.0541 Z-0.3273
N74695 X-2.819 Y0.056 Z-0.3274
N74700 X-2.8192 Y0.0579 Z-0.3275
N74705 X-2.8193 Y0.0599 Z-0.3276
N74710 X-2.8192 Y0.0619 Z-0.3277
N74715 X-2.819 Y0.0638 Z-0.3278
N74720 X-2.8186 Y0.0658 Z-0.3279
N74725 X-2.8181 Y0.0677 Z-0.328
N74730 X-2.8174 Y0.0695
N74735 X-2.8166 Y0.0713 Z-0.3281
N74740 X-2.8156 Y0.073
N74745 X-2.8145 Y0.0746
N74750 X-2.8133 Y0.0762 Z-0.3282
N74755 X-2.8119 Y0.0776
N74760 X-2.7763 Y0.1132
N74765 X-2.7737 Y0.1159 Z-0.3285
N74770 X-2.7711 Y0.1185 Z-0.3293
N74775 X-2.7686 Y0.121 Z-0.3307
N74780 X-2.7661 Y0.1235 Z-0.3321
N74785 X-2.7635 Y0.126 Z-0.333
N74790 X-2.7609 Y0.1287 Z-0.3333
N74795 X-2.7342 Y0.1554 Z-0.3335
N74800 X-2.5918 Y0.2978 Z-0.3356
N74805 X-2.4439 Y0.4456 Z-0.3391
N74810 X-2.3236 Y0.5659 Z-0.3429
N74815 X-2.2158 Y0.6738 Z-0.347
N74820 X-2.1085 Y0.7811 Z-0.3516
N74825 X-1.9905 Y0.8991 Z-0.3574
N74830 X-1.8617 Y1.0278 Z-0.3643
N74835 X-1.7331 Y1.1565 Z-0.3719
N74840 X-1.5829 Y1.3066 Z-0.3814
N74845 X-1.4328 Y1.4567 Z-0.3915
N74850 X-1.272 Y1.6176 Z-0.403
N74855 X-1.1112 Y1.7783 Z-0.415
N74860 X-0.8326 Y2.057 Z-0.4368
N74865 X-0.6075 Y2.282 Z-0.4552
N74870 X-0.6053 Y2.2843
N74875 X-0.603 Y2.2866 Z-0.4547
N74880 X-0.6008 Y2.2887 Z-0.4539
N74885 X-0.5987 Y2.2908 Z-0.4527
N74890 X-0.5982 Y2.2913 Z-0.4523
N74895 X-0.5957 Y2.2938 Z-0.4509
N74900 X-0.5931 Y2.2965 Z-0.4501
N74905 X-0.5904 Y2.2991 Z-0.4498
N74910 G3 X-0.6258 Y2.3345 I-0.0177 J0.0177
N74915 G1 X-0.6538 Y2.3065
N74920 X-0.6564 Y2.3038 Z-0.4501
N74925 X-0.6591 Y2.3012 Z-0.4509
N74930 X-0.6615 Y2.2987 Z-0.4523
N74935 X-0.6636 Y2.2966 Z-0.4536
N74940 X-0.6658 Y2.2944 Z-0.4544
N74945 X-0.6681 Y2.2922 Z-0.4548
N74950 X-0.6703 Y2.2899
N74955 X-0.8311 Y2.1291 Z-0.4418
N74960 X-1.0991 Y1.8612 Z-0.4208
N74965 X-1.2599 Y1.7004 Z-0.4088
N74970 X-1.4207 Y1.5396 Z-0.3973
N74975 X-1.5708 Y1.3895 Z-0.3871
N74980 X-1.7209 Y1.2394 Z-0.3775
N74985 X-1.8603 Y1.1 Z-0.3693
N74990 X-1.989 Y0.9713 Z-0.3623
N74995 X-2.107 Y0.8533 Z-0.3564
N75000 X-2.225 Y0.7352 Z-0.3512
N75005 X-2.3328 Y0.6275 Z-0.3471
N75010 X-2.4365 Y0.5238 Z-0.3437
N75015 X-2.5835 Y0.3768 Z-0.3399
N75020 X-2.7258 Y0.2344 Z-0.3375
N75025 X-2.7605 Y0.1997 Z-0.3371
N75030 X-2.7632 Y0.1971 Z-0.3368
N75035 X-2.7657 Y0.1945 Z-0.3359
N75040 X-2.7682 Y0.1921 Z-0.3345
N75045 X-2.7707 Y0.1896 Z-0.3331
N75050 X-2.7733 Y0.187 Z-0.3323
N75055 X-2.776 Y0.1843 Z-0.332
N75060 X-2.7774 Y0.183
N75065 X-2.779 Y0.1818
N75070 X-2.7806 Y0.1807
N75075 X-2.7823 Y0.1797 Z-0.3321
N75080 X-2.7841 Y0.1789
N75085 X-2.7859 Y0.1782 Z-0.3322
N75090 X-2.7878 Y0.1777 Z-0.3323
N75095 X-2.7898 Y0.1773
N75100 X-2.7917 Y0.177 Z-0.3324
N75105 X-2.7937 Z-0.3325
N75110 X-2.7956 Z-0.3327
N75115 X-2.7976 Y0.1773 Z-0.3328
N75120 X-2.7995 Y0.1776 Z-0.3329
N75125 X-2.8014 Y0.1782 Z-0.333
N75130 X-2.8033 Y0.1788 Z-0.3332
N75135 X-2.805 Y0.1797 Z-0.3333
N75140 X-2.8068 Y0.1806 Z-0.3335
N75145 X-2.8084 Y0.1817 Z-0.3336
N75150 X-2.8099 Y0.1829 Z-0.3338
N75155 X-2.8114 Y0.1843 Z-0.3339
N75160 X-2.8127 Y0.1857 Z-0.3341
N75165 X-2.8139 Y0.1872 Z-0.3342
N75170 X-2.815 Y0.1889 Z-0.3344
N75175 X-2.816 Y0.1906 Z-0.3345
N75180 X-2.8168 Y0.1924 Z-0.3347
N75185 X-2.8175 Y0.1942 Z-0.3348
N75190 X-2.818 Y0.1961 Z-0.3349
N75195 X-2.8184 Y0.198 Z-0.335
N75200 X-2.8186 Y0.2 Z-0.3352
N75205 X-2.8187 Y0.2019 Z-0.3353
N75210 X-2.8186 Y0.2039 Z-0.3354
N75215 X-2.8184 Y0.2059 Z-0.3355
N75220 X-2.818 Y0.2078 Z-0.3356
N75225 X-2.8174 Y0.2097
N75230 X-2.8168 Y0.2115 Z-0.3357
N75235 X-2.8159 Y0.2133 Z-0.3358
N75240 X-2.815 Y0.215
N75245 X-2.8139 Y0.2167
N75250 X-2.8127 Y0.2182
N75255 X-2.8113 Y0.2197
N75260 X-2.7757 Y0.2553
N75265 X-2.773 Y0.258 Z-0.3361
N75270 X-2.7704 Y0.2606 Z-0.337
N75275 X-2.7679 Y0.2631 Z-0.3384
N75280 X-2.7655 Y0.2655 Z-0.3398
N75285 X-2.7629 Y0.2681 Z-0.3406
N75290 X-2.7603 Y0.2707 Z-0.3409
N75295 X-2.7063 Y0.3247 Z-0.3417
N75300 X-2.5584 Y0.4725 Z-0.3447
N75305 X-2.4389 Y0.5921 Z-0.348
N75310 X-2.33 Y0.701 Z-0.3517
N75315 X-2.2224 Y0.8085 Z-0.356
N75320 X-2.1044 Y0.9266 Z-0.3613
N75325 X-1.9864 Y1.0446 Z-0.3672
N75330 X-1.8588 Y1.1722 Z-0.3742
N75335 X-1.7194 Y1.3116 Z-0.3825
N75340 X-1.5693 Y1.4617 Z-0.3922
N75345 X-1.4192 Y1.6118 Z-0.4023
N75350 X-1.2584 Y1.7726 Z-0.4139
N75355 X-1.0976 Y1.9334 Z-0.4258
N75360 X-0.8511 Y2.1799 Z-0.4451
N75365 X-0.7332 Y2.2978 Z-0.4546
N75370 X-0.7309 Y2.3001 Z-0.4545
N75375 X-0.7287 Y2.3023 Z-0.4541
N75380 X-0.7265 Y2.3045 Z-0.4533
N75385 X-0.7244 Y2.3066 Z-0.4521
N75390 X-0.7219 Y2.3091 Z-0.4507
N75395 X-0.7193 Y2.3117 Z-0.4498
N75400 X-0.7166 Y2.3144 Z-0.4495
N75405 G3 Y2.3497 I-0.0177 J0.0177
N75410 X-0.752 I-0.0177 J-0.0177
N75415 G1 X-0.7771 Y2.3246
N75420 X-0.7798 Y2.3219 Z-0.4498
N75425 X-0.7824 Y2.3193 Z-0.4507
N75430 X-0.7849 Y2.3168 Z-0.4521
N75435 X-0.787 Y2.3147 Z-0.4533
N75440 X-0.7892 Y2.3125 Z-0.4541
N75445 X-0.7914 Y2.3103 Z-0.4545
N75450 X-0.7937 Y2.308 Z-0.4546
N75455 X-0.796 Y2.3057 Z-0.4544
N75460 X-1.0854 Y2.0163 Z-0.4317
N75465 X-1.2461 Y1.8555 Z-0.4197
N75470 X-1.4069 Y1.6947 Z-0.4081
N75475 X-1.5678 Y1.5339 Z-0.3972
N75480 X-1.7179 Y1.3838 Z-0.3875
N75485 X-1.8573 Y1.2444 Z-0.3792
N75490 X-1.9849 Y1.1168 Z-0.3721
N75495 X-2.1136 Y0.988 Z-0.3656
N75500 X-2.2317 Y0.87 Z-0.3603
N75505 X-2.3392 Y0.7625 Z-0.3559
N75510 X-2.4479 Y0.6538 Z-0.3521
N75515 X-2.5674 Y0.5343 Z-0.3487
N75520 X-2.7153 Y0.3864 Z-0.3456
N75525 X-2.76 Y0.3417 Z-0.3449
N75530 X-2.7626 Y0.3391 Z-0.3446
N75535 X-2.7651 Y0.3366 Z-0.3437
N75540 X-2.7675 Y0.3341 Z-0.3423
N75545 X-2.77 Y0.3316 Z-0.3409
N75550 X-2.7727 Y0.329 Z-0.3401
N75555 X-2.7753 Y0.3264 Z-0.3398
N75560 X-2.7768 Y0.325
N75565 X-2.7783 Y0.3238
N75570 X-2.78 Y0.3227
N75575 X-2.7817 Y0.3217 Z-0.3399
N75580 X-2.7835 Y0.3209
N75585 X-2.7853 Y0.3202 Z-0.34
N75590 X-2.7872 Y0.3197 Z-0.3401
N75595 X-2.7891 Y0.3193 Z-0.3402
N75600 X-2.7911 Y0.3191 Z-0.3403
N75605 X-2.793 Y0.319 Z-0.3404
N75610 X-2.795 Y0.3191 Z-0.3405
N75615 X-2.797 Y0.3193 Z-0.3406
N75620 X-2.7989 Y0.3197 Z-0.3407
N75625 X-2.8008 Y0.3202 Z-0.3409
N75630 X-2.8026 Y0.3209 Z-0.341
N75635 X-2.8044 Y0.3217 Z-0.3412
N75640 X-2.8061 Y0.3227 Z-0.3413
N75645 X-2.8078 Y0.3238 Z-0.3415
N75650 X-2.8093 Y0.325 Z-0.3416
N75655 X-2.8107 Y0.3263 Z-0.3418
N75660 X-2.8121 Y0.3277 Z-0.3419
N75665 X-2.8133 Y0.3293 Z-0.3421
N75670 X-2.8144 Y0.3309 Z-0.3422
N75675 X-2.8153 Y0.3326 Z-0.3424
N75680 X-2.8162 Y0.3344 Z-0.3425
N75685 X-2.8168 Y0.3363 Z-0.3427
N75690 X-2.8174 Y0.3381 Z-0.3428
N75695 X-2.8177 Y0.3401 Z-0.343
N75700 X-2.818 Y0.342 Z-0.3431
N75705 Y0.344 Z-0.3432
N75710 Y0.346 Z-0.3433
N75715 X-2.8177 Y0.3479 Z-0.3434
N75720 X-2.8173 Y0.3498 Z-0.3435
N75725 X-2.8168 Y0.3517 Z-0.3436
N75730 X-2.8161 Y0.3536
N75735 X-2.8153 Y0.3554 Z-0.3437
N75740 X-2.8143 Y0.3571
N75745 X-2.8132 Y0.3587
N75750 X-2.812 Y0.3603 Z-0.3438
N75755 X-2.8107 Y0.3617
N75760 X-2.7751 Y0.3973
N75765 X-2.7724 Y0.4 Z-0.3441
N75770 X-2.7698 Y0.4026 Z-0.3449
N75775 X-2.7673 Y0.4051 Z-0.3463
N75780 X-2.7649 Y0.4075 Z-0.3477
N75785 X-2.7623 Y0.4101 Z-0.3486
N75790 X-2.7597 Y0.4127 Z-0.3489
N75795 X-2.7408 Y0.4316 Z-0.3492
N75800 X-2.5874 Y0.5849 Z-0.3525
N75805 X-2.4679 Y0.7045 Z-0.3559
N75810 X-2.3592 Y0.8132 Z-0.3597
N75815 X-2.241 Y0.9314 Z-0.3645
N75820 X-2.123 Y1.0494 Z-0.3699
N75825 X-1.9942 Y1.1782 Z-0.3765
N75830 X-1.8559 Y1.3165 Z-0.3842
N75835 X-1.7165 Y1.4559 Z-0.3925
N75840 X-1.5664 Y1.606 Z-0.4022
N75845 X-1.4055 Y1.7669 Z-0.4132
N75850 X-1.2447 Y1.9277 Z-0.4247
N75855 X-1.0839 Y2.0884 Z-0.4367
N75860 X-0.8588 Y2.3136 Z-0.4543
N75865 X-0.8566 Y2.3158
N75870 X-0.8543 Y2.3181 Z-0.4539
N75875 X-0.8522 Y2.3202 Z-0.4531
N75880 X-0.8501 Y2.3223 Z-0.4518
N75885 X-0.8476 Y2.3248 Z-0.4504
N75890 X-0.845 Y2.3274 Z-0.4496
N75895 X-0.8423 Y2.3301 Z-0.4493
N75900 G3 X-0.8776 Y2.3654 I-0.0177 J0.0177
N75905 G1 X-0.9046 Y2.3385
N75910 X-0.9073 Y2.3358 Z-0.4496
N75915 X-0.9099 Y2.3332 Z-0.4504
N75920 X-0.9124 Y2.3307 Z-0.4518
N75925 X-0.9145 Y2.3286 Z-0.4531
N75930 X-0.9167 Y2.3264 Z-0.4539
N75935 X-0.9189 Y2.3242 Z-0.4543
N75940 X-0.9211 Y2.322
N75945 X-0.9217 Y2.3214
N75950 X-1.0718 Y2.1713 Z-0.4426
N75955 X-1.2326 Y2.0105 Z-0.4306
N75960 X-1.3934 Y1.8497 Z-0.419
N75965 X-1.5542 Y1.6889 Z-0.408
N75970 X-1.7043 Y1.5388 Z-0.3982
N75975 X-1.8545 Y1.3886 Z-0.3891
N75980 X-1.9939 Y1.2492 Z-0.3813
