%
(1001)
(T2 D=0.3937 CR=0. TAPER=118DEG - ZMIN=-1.9427 - DRILL)
(T3 D=0.315 CR=0. TAPER=118DEG - ZMIN=-1.919 - DRILL)
(T4 D=0.2362 CR=0. TAPER=118DEG - ZMIN=-1.8675 - DRILL)
(T131 D=0.5 CR=0. TAPER=45DEG - ZMIN=-0.4202 - CHAMFER MILL)
(T133 D=0.5 CR=0.02 - ZMIN=-1.6643 - BULLNOSE END MILL)
(T134 D=0.5 CR=0. - ZMIN=-0.7212 - FLAT END MILL)
(T135 D=0.5 CR=0. - ZMIN=-1.6744 - FLAT END MILL)
(T137 D=0.5 CR=0.25 - ZMIN=-0.5888 - BALL END MILL)
(T171 D=2. CR=0. - ZMIN=-0.2817 - FACE MILL)
N10 G90 G94 G17 G91.1 G64 P0.01
N15 G20
N20 G53 G0 Z0.

(SCALLOP3 2)
N81235 G0 X-2.926 Y-1.4613
N81240 Z0.6
N81245 Z-0.2141
N81250 G1 Z-0.2397 F39.37
N81255 G18 G2 X-2.8725 Z-0.2896 I0.05 K0.
N81260 G1 X-2.6651 Z-0.2751
N81265 X-2.6525 Z-0.2744
N81270 X-2.6453 Z-0.2743
N81275 X-2.6446 Y-1.4259
N81280 X-2.6443 Y-1.4133
N81285 X-2.6422 Y-1.3754
N81290 X-2.64 Y-1.3502
N81295 X-2.6389 Y-1.3376
N81300 X-2.6376 Y-1.325
N81305 X-2.6329 Y-1.2871
N81310 X-2.6268 Y-1.2492
N81315 X-2.6245 Y-1.2366
N81320 X-2.617 Y-1.1988
N81325 X-2.608 Y-1.1609
N81330 X-2.6048 Y-1.1483
N81335 X-2.5978 Y-1.123
N81340 X-2.5943 Y-1.1104
N81345 X-2.5824 Y-1.0726
N81350 X-2.5691 Y-1.0347
N81355 X-2.564 Y-1.0214
N81360 X-2.5514 Y-0.9893
N81365 X-2.5382 Y-0.959
N81370 X-2.5326 Y-0.9463
N81375 X-2.5145 Y-0.9085
N81380 X-2.4947 Y-0.8706
N81385 X-2.4731 Y-0.8328
N81390 X-2.4498 Y-0.7949
N81395 X-2.4245 Y-0.757
N81400 X-2.3997 Y-0.7227
N81405 X-2.3971 Y-0.7192
N81410 X-2.3745 Y-0.6901
N81415 X-2.3673 Y-0.6813
N81420 X-2.3462 Y-0.6561
N81425 X-2.3351 Y-0.6435
N81430 X-2.3237 Y-0.6308
N81435 X-2.3113 Y-0.6172
N81440 X-2.286 Y-0.591
N81445 X-2.2733 Y-0.5787
N81450 X-2.2607 Y-0.5665
N81455 X-2.2481 Y-0.5545
N81460 X-2.2206 Y-0.5299
N81465 X-2.2056 Y-0.5173
N81470 X-2.1849 Y-0.5
N81475 X-2.1584 Y-0.4794
N81480 X-2.147 Y-0.4707
N81485 X-2.1217 Y-0.4525
N81490 X-2.109 Y-0.4437
N81495 X-2.0838 Y-0.4268
N81500 X-2.0711 Y-0.4187
N81505 X-2.0458 Y-0.4031
N81510 X-2.0332 Y-0.3957
N81515 X-2.0028 Y-0.3784
N81520 X-1.97 Y-0.3612
N81525 X-1.9574 Y-0.3549
N81530 X-1.9274 Y-0.3406
N81535 X-1.9195 Y-0.3369
N81540 X-1.8815 Y-0.3205
N81545 X-1.8436 Y-0.3056
N81550 X-1.831 Y-0.3011
N81555 X-1.7996 Y-0.2901
N81560 X-1.7592 Y-0.2775
N81565 X-1.7425 Y-0.2728
N81570 X-1.7172 Y-0.2659
N81575 X-1.7129 Y-0.2648
N81580 X-1.6793 Y-0.2569
N81585 X-1.6667 Y-0.2542
N81590 X-1.6288 Y-0.2467
N81595 X-1.5844 Y-0.2396
N81600 X-1.5529 Y-0.2357
N81605 X-1.5403 Y-0.2342
N81610 X-1.5024 Y-0.2308
N81615 X-1.4897 Y-0.23
N81620 X-1.4645 Y-0.2287
N81625 X-1.4518 Y-0.2281
N81630 X-1.4139 Y-0.2274
N81635 X-1.4013 Y-0.2275
N81640 X-1.376 Y-0.228
N81645 X-1.3633 Y-0.2284
N81650 X-1.3254 Y-0.2304
N81655 X-1.3128 Y-0.2315
N81660 X-1.2875 Y-0.2337
N81665 X-1.2749 Y-0.235
N81670 X-1.237 Y-0.2398
N81675 X-1.2243 Y-0.2418
N81680 X-1.199 Y-0.2459
N81685 X-1.1864 Y-0.2481
N81690 X-1.1485 Y-0.2557
N81695 X-1.1099 Y-0.2648
N81700 X-1.0979 Y-0.2679
N81705 X-1.0634 Y-0.2775
N81710 X-1.0347 Y-0.2864
N81715 X-1.0221 Y-0.2904
N81720 X-0.9968 Y-0.2993
N81725 X-0.9842 Y-0.3038
N81730 X-0.9715 Y-0.3085
N81735 X-0.9463 Y-0.3185
N81740 X-0.9336 Y-0.3237
N81745 X-0.8957 Y-0.3403
N81750 X-0.8578 Y-0.3585
N81755 X-0.8198 Y-0.3784
N81760 X-0.782 Y-0.4
N81765 X-0.7693 Y-0.4077
N81770 X-0.744 Y-0.4234
N81775 X-0.7169 Y-0.4415
N81780 X-0.7061 Y-0.4487
N81785 X-0.6809 Y-0.467
N81790 X-0.6682 Y-0.4763
N81795 X-0.6429 Y-0.496
N81800 X-0.6321 Y-0.5046
N81805 X-0.602 Y-0.5299
N81810 X-0.574 Y-0.5551
N81815 X-0.5671 Y-0.5614
N81820 X-0.5418 Y-0.5859
N81825 X-0.5347 Y-0.593
N81830 X-0.5104 Y-0.6182
N81835 X-0.5039 Y-0.6252
N81840 X-0.4786 Y-0.6535
N81845 X-0.4764 Y-0.6561
N81850 X-0.4534 Y-0.6837
N81855 X-0.4452 Y-0.6939
N81860 X-0.4256 Y-0.7192
N81865 X-0.4154 Y-0.733
N81870 X-0.3982 Y-0.757
N81875 X-0.3896 Y-0.7697
N81880 X-0.3728 Y-0.7949
N81885 X-0.3495 Y-0.8328
N81890 X-0.327 Y-0.8725
N81895 X-0.3082 Y-0.9085
N81900 X-0.3017 Y-0.9219
N81905 X-0.289 Y-0.9485
N81910 X-0.2844 Y-0.959
N81915 X-0.2735 Y-0.9842
N81920 X-0.2682 Y-0.9968
N81925 X-0.2584 Y-1.0221
N81930 X-0.2535 Y-1.0347
N81935 X-0.2403 Y-1.0726
N81940 X-0.2323 Y-1.0978
N81945 X-0.2284 Y-1.1104
N81950 X-0.2259 Y-1.1191
N81955 X-0.2179 Y-1.1483
N81960 X-0.2146 Y-1.1609
N81965 X-0.2057 Y-1.1988
N81970 X-0.2031 Y-1.2114
N81975 X-0.1981 Y-1.2366
N81980 X-0.1958 Y-1.2492
N81985 X-0.1896 Y-1.2882
N81990 X-0.1894
N81995 X-0.1813 Y-1.2871 Z-0.2745
N82000 X-0.1753 Y-1.2862 Z-0.2747
N82005 X0.0405 Y-1.2557 Z-0.29
N82010 Y-1.2554
N82015 X0.0375 Y-1.2366
N82020 X0.0359 Y-1.224
N82025 X0.0344 Y-1.2114
N82030 X0.0322 Y-1.1861 Z-0.2902
N82035 X0.0316 Y-1.1735 Z-0.2903
N82040 X0.0311 Y-1.1609 Z-0.2905
N82045 X0.0309 Y-1.1483 Z-0.2906
N82050 X0.031 Y-1.1357 Z-0.2908
N82055 X0.0313 Y-1.123 Z-0.2911
N82060 X0.0319 Y-1.1104 Z-0.2913
N82065 X0.0327 Y-1.0978 Z-0.2916
N82070 X0.0339 Y-1.0852 Z-0.2919
N82075 X0.0352 Y-1.0726 Z-0.2922
N82080 X0.037 Y-1.0599 Z-0.2925
N82085 X0.0389 Y-1.0473 Z-0.2929
N82090 X0.0413 Y-1.0347 Z-0.2933
N82095 X0.0439 Y-1.0221 Z-0.2937
N82100 X0.0468 Y-1.0094 Z-0.2942
N82105 X0.0501 Y-0.9968 Z-0.2947
N82110 X0.0536 Y-0.9842 Z-0.2952
N82115 X0.0576 Y-0.9716 Z-0.2957
N82120 X0.0618 Y-0.959 Z-0.2963
N82125 X0.0664 Y-0.9463 Z-0.2969
N82130 X0.0714 Y-0.9337 Z-0.2975
N82135 X0.0767 Y-0.9211 Z-0.2981
N82140 X0.0825 Y-0.9085 Z-0.2988
N82145 X0.0887 Y-0.8959 Z-0.2995
N82150 X0.0953 Y-0.8832 Z-0.3003
N82155 X0.1028 Y-0.8702 Z-0.3011
N82160 X0.1102 Y-0.858 Z-0.3019
N82165 X0.1154 Y-0.8497 Z-0.3024
N82170 X0.128 Y-0.8312 Z-0.3037
N82175 X0.1407 Y-0.8143 Z-0.305
N82180 X0.1533 Y-0.7987 Z-0.3063
N82185 X0.1566 Y-0.7949 Z-0.3066
N82190 X0.1677 Y-0.7823 Z-0.3076
N82195 X0.1797 Y-0.7697 Z-0.3087
N82200 X0.1925 Y-0.757 Z-0.3099
N82205 X0.2039 Y-0.7465 Z-0.3109
N82210 X0.2165 Y-0.7354 Z-0.3121
N82215 X0.2291 Y-0.7252 Z-0.3132
N82220 X0.2369 Y-0.7192 Z-0.3138
N82225 X0.2418 Y-0.7155 Z-0.3142
N82230 X0.2544 Y-0.7063 Z-0.3153
N82235 X0.2671 Y-0.6976 Z-0.3164
N82240 X0.2797 Y-0.6895 Z-0.3174
N82245 X0.2933 Y-0.6813 Z-0.3185
N82250 X0.305 Y-0.6745 Z-0.3195
N82255 X0.3934 Y-0.6268 Z-0.3265
N82260 X0.4819 Y-0.5788 Z-0.3335
N82265 X0.5704 Y-0.5304 Z-0.3405
N82270 X0.6589 Y-0.4817 Z-0.3476
N82275 X0.7538 Y-0.4289 Z-0.3552
N82280 X0.8484 Y-0.376 Z-0.3627
N82285 X0.9562 Y-0.3153 Z-0.3714
N82290 X1.0507 Y-0.2618 Z-0.3789
N82295 X1.1391 Y-0.2114 Z-0.386
N82300 X1.2276 Y-0.1606 Z-0.3932
N82305 X1.3161 Y-0.1094 Z-0.4003
N82310 X1.4046 Y-0.0578 Z-0.4074
N82315 X1.5036 Y0.0002 Z-0.4154
N82320 X1.5891 Y0.0507 Z-0.4224
N82325 X1.6741 Y0.1012 Z-0.4293
N82330 X1.7584 Y0.1516 Z-0.4361
N82335 X1.8469 Y0.205 Z-0.4433
N82340 X1.9354 Y0.2587 Z-0.4506
N82345 X2.0239 Y0.3128 Z-0.4578
N82350 X2.1123 Y0.3672 Z-0.465
N82355 X2.2134 Y0.4297 Z-0.4733
N82360 X2.3019 Y0.4849 Z-0.4806
N82365 X2.3945 Y0.5429 Z-0.4882
N82370 X2.4789 Y0.5961 Z-0.4952
N82375 X2.5673 Y0.6524 Z-0.5025
N82380 X2.6527 Y0.7069 Z-0.5095
N82385 X2.7316 Y0.7577 Z-0.5161
N82390 X2.7522 Y0.77 Z-0.5178
N82395 X2.7569 Y0.773 Z-0.5181
N82400 X2.7715 Y0.7827 Z-0.5194
N82405 X2.7822 Y0.7901 Z-0.5203
N82410 X2.7948 Y0.7993 Z-0.5213
N82415 X2.8075 Y0.8091 Z-0.5224
N82420 X2.8201 Y0.8192 Z-0.5236
N82425 X2.8361 Y0.8331 Z-0.525
N82430 X2.8454 Y0.8417 Z-0.5259
N82435 X2.858 Y0.8538 Z-0.527
N82440 X2.8626 Y0.8584 Z-0.5275
N82445 X2.8746 Y0.871 Z-0.5286
N82450 X2.8833 Y0.8805 Z-0.5295
N82455 X2.897 Y0.8962 Z-0.5309
N82460 X2.9086 Y0.9109 Z-0.5321
N82465 X2.9166 Y0.9215 Z-0.5329
N82470 X2.9257 Y0.9341 Z-0.5339
N82475 X2.9342 Y0.9467 Z-0.5348
N82480 X2.9424 Y0.9593 Z-0.5358
N82485 X2.9465 Y0.966 Z-0.5362
N82490 X2.9573 Y0.9846 Z-0.5375
N82495 X2.9591 Y0.9879 Z-0.5378
N82500 X2.9706 Y1.0098 Z-0.5392
N82505 X2.9766 Y1.0224 Z-0.54
N82510 X2.9824 Y1.0351 Z-0.5408
N82515 X2.9929 Y1.0603 Z-0.5423
N82520 X3.0021 Y1.0855 Z-0.5437
N82525 X3.01 Y1.1108 Z-0.5451
N82530 X3.0167 Y1.136 Z-0.5464
N82535 X3.0223 Y1.1622 Z-0.5477
N82540 X3.0264 Y1.1865 Z-0.5488
N82545 X3.0281 Y1.1991 Z-0.5493
N82550 X3.0296 Y1.2118 Z-0.5499
N82555 X3.0308 Y1.2244 Z-0.5504
N82560 X3.0317 Y1.237 Z-0.5509
N82565 X3.0324 Y1.2496 Z-0.5514
N82570 X3.0328 Y1.2622 Z-0.5519
N82575 X3.033 Y1.2749 Z-0.5524
N82580 X3.0326 Y1.3001 Z-0.5533
N82585 X3.0311 Y1.3253 Z-0.5541
N82590 X3.0286 Y1.3506 Z-0.5549
N82595 X3.0269 Y1.3632 Z-0.5553
N82600 X3.025 Y1.3758 Z-0.5557
N82605 X3.0228 Y1.3884 Z-0.556
N82610 X3.0202 Y1.4011 Z-0.5563
N82615 X3.0175 Y1.4137 Z-0.5567
N82620 X3.0144 Y1.4263 Z-0.557
N82625 X3.0112 Y1.4389 Z-0.5573
N82630 X3.0037 Y1.4642 Z-0.5578
N82635 X2.9949 Y1.4894 Z-0.5583
N82640 X2.9844 Y1.5157 Z-0.5587
N82645 X2.9211 Y1.6661 Z-0.5611
N82650 X2.8573 Y1.8175 Z-0.5638
N82655 X2.7935 Y1.969 Z-0.5669
N82660 X2.7316 Y2.116 Z-0.5702
N82665 X2.6684 Y2.2662 Z-0.5739
N82670 X2.6052 Y2.4165 Z-0.5778
N82675 X2.5388 Y2.5748 Z-0.5823
N82680 X2.5123 Y2.6379 Z-0.5842
N82685 X2.5068 Y2.6505 Z-0.5846
N82690 X2.5009 Y2.6631 Z-0.5849
N82695 X2.4945 Y2.6757 Z-0.5853
N82700 X2.4915 Y2.6816 Z-0.5854
N82705 X2.4878 Y2.6883 Z-0.5856
N82710 X2.4789 Y2.7038 Z-0.586
N82715 X2.4729 Y2.7136 Z-0.5862
N82720 X2.4662 Y2.724 Z-0.5864
N82725 X2.456 Y2.7388 Z-0.5867
N82730 X2.4468 Y2.7514 Z-0.5869
N82735 X2.4409 Y2.7591 Z-0.587
N82740 X2.437 Y2.7641 Z-0.5871
N82745 X2.4283 Y2.7747 Z-0.5872
N82750 X2.4155 Y2.7893 Z-0.5874
N82755 X2.403 Y2.8027 Z-0.5875
N82760 X2.3904 Y2.8153 Z-0.5876
N82765 X2.3776 Y2.8272
N82770 X2.3651 Y2.8381
N82775 X2.3525 Y2.8485 Z-0.5875
N82780 X2.3398 Y2.8581
N82785 X2.3272 Y2.8673 Z-0.5874
N82790 X2.3145 Y2.8758 Z-0.5873
N82795 X2.3019 Y2.8839 Z-0.5871
N82800 X2.2893 Y2.8915 Z-0.5869
N82805 X2.2766 Y2.8986 Z-0.5868
N82810 X2.264 Y2.9053 Z-0.5865
N82815 X2.2514 Y2.9116 Z-0.5863
N82820 X2.2431 Y2.9155 Z-0.5861
N82825 X2.2261 Y2.923 Z-0.5858
N82830 X2.2133 Y2.9281 Z-0.5855
N82835 X2.2008 Y2.9329 Z-0.5852
N82840 X2.1882 Y2.9372 Z-0.5849
N82845 X2.1755 Y2.9411 Z-0.5845
N82850 X2.1629 Y2.9448 Z-0.5842
N82855 X2.1502 Y2.9481 Z-0.5838
N82860 X2.1376 Y2.951 Z-0.5834
N82865 X2.125 Y2.9537 Z-0.583
N82870 X2.1123 Y2.9559 Z-0.5826
N82875 X2.0997 Y2.9579 Z-0.5821
N82880 X2.087 Y2.9596 Z-0.5817
N82885 X2.0744 Y2.961 Z-0.5812
N82890 X2.0618 Y2.9621 Z-0.5807
N82895 X2.0491 Y2.9629 Z-0.5802
N82900 X2.0365 Y2.9633 Z-0.5797
N82905 X2.0239 Y2.9635 Z-0.5791
N82910 X2.0112 Y2.9634 Z-0.5786
N82915 X1.9986 Y2.963 Z-0.578
N82920 X1.9859 Y2.9622 Z-0.5775
N82925 X1.9733 Y2.9611 Z-0.5769
N82930 X1.9607 Y2.9597 Z-0.5762
N82935 X1.948 Y2.958 Z-0.5756
N82940 X1.9354 Y2.956 Z-0.575
N82945 X1.9217 Y2.9534 Z-0.5742
N82950 X1.9101 Y2.9509 Z-0.5736
N82955 X1.8975 Y2.9478 Z-0.5729
N82960 X1.8848 Y2.9444 Z-0.5722
N82965 X1.8722 Y2.9407 Z-0.5715
N82970 X1.8596 Y2.9366 Z-0.5707
N82975 X1.8469 Y2.9322 Z-0.5699
N82980 X1.8343 Y2.9274 Z-0.5691
N82985 X1.8216 Y2.9222 Z-0.5683
N82990 X1.8065 Y2.9155 Z-0.5673
N82995 X1.7964 Y2.9106 Z-0.5666
N83000 X1.7812 Y2.9029 Z-0.5655
N83005 X1.7711 Y2.8973 Z-0.5648
N83010 X1.7584 Y2.89 Z-0.5639
N83015 X1.7458 Y2.8821 Z-0.5629
N83020 X1.7389 Y2.8777 Z-0.5624
N83025 X1.7332 Y2.8737 Z-0.5619
N83030 X1.7205 Y2.8648 Z-0.5609
N83035 X1.7079 Y2.8552 Z-0.5598
N83040 X1.6952 Y2.8451 Z-0.5587
N83045 X1.689 Y2.8398 Z-0.5582
N83050 X1.6447 Y2.8008 Z-0.5542
N83055 X1.6316 Y2.7893 Z-0.553
N83060 X1.5941 Y2.7581 Z-0.5497
N83065 X1.5859 Y2.7514 Z-0.549
N83070 X1.5538 Y2.7262 Z-0.5462
N83075 X1.5436 Y2.7182 Z-0.5454
N83080 X1.5035 Y2.6883 Z-0.542
N83085 X1.4857 Y2.6757 Z-0.5406
N83090 X1.4551 Y2.6542 Z-0.5381
N83095 X1.4114 Y2.6252 Z-0.5347
N83100 X1.4046 Y2.6208 Z-0.5342
N83105 X1.3666 Y2.5972 Z-0.5313
N83110 X1.354 Y2.5895 Z-0.5304
N83115 X1.3161 Y2.5673 Z-0.5276
N83120 X1.3071 Y2.5621 Z-0.527
N83125 X1.2612 Y2.5369 Z-0.5237
N83130 X1.2122 Y2.5117 Z-0.5204
N83135 X1.1644 Y2.4887 Z-0.5172
N83140 X1.1391 Y2.4773 Z-0.5155
N83145 X1.1139 Y2.466 Z-0.5139
N83150 X1.0633 Y2.4449 Z-0.5108
N83155 X1.0128 Y2.4253 Z-0.5077
N83160 X0.9622 Y2.4073 Z-0.5048
N83165 X0.9116 Y2.3908 Z-0.502
N83170 X0.8611 Y2.3757 Z-0.4993
N83175 X0.8105 Y2.3621 Z-0.4967
N83180 X0.7979 Y2.3589 Z-0.496
N83185 X0.76 Y2.3498 Z-0.4941
N83190 X0.7473 Y2.347 Z-0.4935
N83195 X0.7094 Y2.3389 Z-0.4917
N83200 X0.6968 Y2.3363 Z-0.4912
N83205 X0.6715 Y2.3314 Z-0.49
N83210 X0.6462 Y2.3269 Z-0.4889
N83215 X0.6182 Y2.3224 Z-0.4877
N83220 X0.5957 Y2.319 Z-0.4867
N83225 X0.583 Y2.3172 Z-0.4862
N83230 X0.5325 Y2.3107 Z-0.4842
N83235 X0.4819 Y2.3057 Z-0.4822
N83240 X0.4693 Y2.3046 Z-0.4818
N83245 X0.4187 Y2.3009 Z-0.48
N83250 X0.3682 Y2.2986 Z-0.4783
N83255 X0.3555 Y2.2981 Z-0.4779
N83260 X0.3303 Y2.2975 Z-0.4771
N83265 X0.305 Y2.2973 Z-0.4764
N83270 X0.2544 Y2.2977 Z-0.4749
N83275 X0.2418 Y2.298 Z-0.4746
N83280 X0.1912 Y2.2999 Z-0.4733
N83285 X0.1786 Y2.3006 Z-0.473
N83290 X0.1407 Y2.303 Z-0.4722
N83295 X0.128 Y2.3039 Z-0.4719
N83300 X0.0775 Y2.3085 Z-0.4709
N83305 X0.0648 Y2.3099 Z-0.4706
N83310 X0.0143 Y2.3159 Z-0.4697
N83315 X-0.1392 Y2.335 Z-0.4674
N83320 X-0.2764 Y2.3521 Z-0.4657
N83325 X-0.4154 Y2.3694 Z-0.4642
N83330 X-0.5436 Y2.3855 Z-0.4632
N83335 X-0.6809 Y2.4026 Z-0.4624
N83340 X-0.8072 Y2.4184 Z-0.462
N83345 X-1.0727 Y2.4516 Z-0.4621
N83350 X-1.199 Y2.4674 Z-0.4626
N83355 X-1.3254 Y2.4832 Z-0.4633
N83360 X-1.4521 Y2.499 Z-0.4644
N83365 X-1.5656 Y2.5132 Z-0.4656
N83370 X-1.692 Y2.5291 Z-0.4672
N83375 X-1.8183 Y2.5449 Z-0.469
N83380 X-1.9574 Y2.5624 Z-0.4714
N83385 X-2.0585 Y2.5752 Z-0.4733
N83390 X-2.0711 Y2.5766 Z-0.4735
N83395 X-2.0838 Y2.5779 Z-0.4738
N83400 X-2.0964 Y2.579 Z-0.474
N83405 X-2.109 Y2.5798 Z-0.4742
N83410 X-2.1217 Y2.5805 Z-0.4744
N83415 X-2.1343 Y2.5809 Z-0.4746
N83420 X-2.147 Y2.5811 Z-0.4747
N83425 X-2.1596 Z-0.4749
N83430 X-2.1722 Y2.5808 Z-0.4751
N83435 X-2.1849 Y2.5803 Z-0.4752
N83440 X-2.1975 Y2.5797 Z-0.4753
N83445 X-2.2101 Y2.5788 Z-0.4754
N83450 X-2.2228 Y2.5776 Z-0.4755
N83455 X-2.2354 Y2.5764 Z-0.4756
N83460 X-2.2481 Y2.5748 Z-0.4757
N83465 X-2.2607 Y2.573
N83470 X-2.2733 Y2.571 Z-0.4758
N83475 X-2.286 Y2.5688
N83480 X-2.2986 Y2.5663
N83485 X-2.3113 Y2.5637
N83490 X-2.3239 Y2.5607
N83495 X-2.3365 Y2.5575
N83500 X-2.3492 Y2.5542
N83505 X-2.3653 Y2.5495 Z-0.4757
N83510 X-2.3745 Y2.5466
N83515 X-2.3871 Y2.5425 Z-0.4756
N83520 X-2.4033 Y2.5369 Z-0.4755
N83525 X-2.4124 Y2.5335 Z-0.4754
N83530 X-2.425 Y2.5286 Z-0.4753
N83535 X-2.4376 Y2.5234 Z-0.4752
N83540 X-2.4503 Y2.5179 Z-0.475
N83545 X-2.464 Y2.5117 Z-0.4748
N83550 X-2.4756 Y2.5062 Z-0.4747
N83555 X-2.4897 Y2.499 Z-0.4745
N83560 X-2.5008 Y2.4931 Z-0.4743
N83565 X-2.5135 Y2.4862 Z-0.474
N83570 X-2.5261 Y2.4789 Z-0.4738
N83575 X-2.5388 Y2.4713 Z-0.4735
N83580 X-2.5546 Y2.4612 Z-0.4731
N83585 X-2.564 Y2.4549 Z-0.4729
N83590 X-2.5767 Y2.4462 Z-0.4726
N83595 X-2.5908 Y2.4359 Z-0.4722
N83600 X-2.6073 Y2.4233 Z-0.4717
N83605 X-2.6228 Y2.4107 Z-0.4711
N83610 X-2.6375 Y2.3981 Z-0.4706
N83615 X-2.6399 Y2.396 Z-0.4705
N83620 X-2.6525 Y2.3845 Z-0.47
N83625 X-2.6651 Y2.3724 Z-0.4695
N83630 X-2.6778 Y2.3597 Z-0.4689
N83635 X-2.6904 Y2.3463 Z-0.4683
N83640 X-2.7031 Y2.3323 Z-0.4677
N83645 X-2.7116 Y2.3224 Z-0.4672
N83650 X-2.7221 Y2.3097 Z-0.4666
N83655 X-2.732 Y2.2971 Z-0.466
N83660 X-2.7414 Y2.2845 Z-0.4654
N83665 X-2.7536 Y2.2674 Z-0.4646
N83670 X-2.7591 Y2.2592 Z-0.4641
N83675 X-2.7663 Y2.2485 Z-0.4636
N83680 X-2.7753 Y2.234 Z-0.4629
N83685 X-2.7828 Y2.2214 Z-0.4622
N83690 X-2.7915 Y2.206 Z-0.4614
N83695 X-2.7968 Y2.1961 Z-0.4609
N83700 X-2.8042 Y2.182 Z-0.4602
N83705 X-2.8096 Y2.1709 Z-0.4596
N83710 X-2.8168 Y2.1552 Z-0.4588
N83715 X-2.821 Y2.1457 Z-0.4582
N83720 X-2.8264 Y2.133 Z-0.4576
N83725 X-2.8313 Y2.1204 Z-0.4569
N83730 X-2.836 Y2.1078 Z-0.4562
N83735 X-2.8405 Y2.0952 Z-0.4555
N83740 X-2.8447 Y2.0826 Z-0.4547
N83745 X-2.8486 Y2.0699 Z-0.454
N83750 X-2.8523 Y2.0573 Z-0.4533
N83755 X-2.8557 Y2.0447 Z-0.4526
N83760 X-2.8588 Y2.0321 Z-0.4519
N83765 X-2.8617 Y2.0195 Z-0.4511
N83770 X-2.8644 Y2.0068 Z-0.4504
N83775 X-2.8674 Y1.9911 Z-0.4494
N83780 X-2.869 Y1.9816 Z-0.4489
N83785 X-2.8709 Y1.969 Z-0.4481
N83790 X-2.8726 Y1.9564 Z-0.4473
N83795 X-2.8741 Y1.9437 Z-0.4466
N83800 X-2.8753 Y1.9311 Z-0.4458
N83805 X-2.8763 Y1.9185 Z-0.445
N83810 X-2.8771 Y1.9059 Z-0.4442
N83815 X-2.8777 Y1.8933 Z-0.4434
N83820 X-2.878 Y1.8806 Z-0.4426
N83825 X-2.8781 Y1.868 Z-0.4418
N83830 X-2.8779 Y1.8554 Z-0.441
N83835 X-2.8722 Y1.6156 Z-0.4256
N83840 X-2.8682 Y1.4389 Z-0.4144
N83845 X-2.8648 Y1.2749 Z-0.4041
N83850 X-2.862 Y1.1234 Z-0.3947
N83855 X-2.8596 Y0.9846 Z-0.3862
N83860 X-2.8575 Y0.8458 Z-0.3778
N83865 X-2.8559 Y0.7196 Z-0.3704
N83870 X-2.8547 Y0.606 Z-0.3637
N83875 X-2.8537 Y0.4924 Z-0.3572
N83880 X-2.8531 Y0.3788 Z-0.3509
N83885 X-2.8527 Y0.2778 Z-0.3454
N83890 Y0.1769 Z-0.34
N83895 X-2.8528 Y0.0759 Z-0.3348
N83900 X-2.8533 Y-0.0251 Z-0.3297
N83905 X-2.8539 Y-0.1134 Z-0.3255
N83910 X-2.8548 Y-0.2017 Z-0.3214
N83915 X-2.8559 Y-0.2901 Z-0.3175
N83920 X-2.8572 Y-0.3784 Z-0.3138
N83925 X-2.8587 Y-0.4668 Z-0.3102
N83930 X-2.8604 Y-0.5551 Z-0.3069
N83935 X-2.8622 Y-0.6435 Z-0.3039
N83940 X-2.8641 Y-0.7318 Z-0.3011
N83945 X-2.8658 Y-0.8075 Z-0.299
N83950 X-2.8676 Y-0.8832 Z-0.297
N83955 X-2.869 Y-0.9463 Z-0.2956
N83960 X-2.8704 Y-1.0094 Z-0.2943
N83965 X-2.8717 Y-1.0726 Z-0.2931
N83970 X-2.873 Y-1.1357 Z-0.2921
N83975 X-2.8744 Y-1.2114 Z-0.2912
N83980 X-2.8754 Y-1.2745 Z-0.2906
N83985 X-2.8763 Y-1.3376 Z-0.2903
N83990 X-2.8777 Y-1.4613 Z-0.29
N83995 X-2.8725 Z-0.2896
N84000 X-2.8631 Y-1.4607 Z-0.289
N84005 X-2.8585 Y-1.46 Z-0.2886
N84010 X-2.8539 Y-1.4591 Z-0.2883
N84015 X-2.8449 Y-1.4565 Z-0.2877
N84020 X-2.8361 Y-1.4533 Z-0.2871
N84025 X-2.8273 Y-1.4495 Z-0.2865
N84030 X-2.8188 Y-1.4453 Z-0.2859
N84035 X-2.8103 Y-1.4409 Z-0.2853
N84040 X-2.7936 Y-1.4318 Z-0.2841
N84045 X-2.7851 Y-1.4273 Z-0.2835
N84050 X-2.7766 Y-1.4231 Z-0.2829
N84055 X-2.7678 Y-1.4193 Z-0.2823
N84060 X-2.759 Y-1.4161 Z-0.2817
N84065 X-2.7499 Y-1.4136 Z-0.2811
N84070 X-2.7454 Y-1.4126 Z-0.2808
N84075 X-2.7407 Y-1.4119 Z-0.2805
N84080 X-2.7361 Y-1.4115 Z-0.2802
N84085 X-2.7314 Y-1.4113 Z-0.2798
N84090 X-2.6946 Z-0.2773
N84095 X-2.6941 Y-1.4106 Z-0.2772
N84100 X-2.6922 Y-1.3754
N84105 X-2.6913 Y-1.3628
N84110 X-2.689 Y-1.3376
N84115 X-2.6878 Y-1.325
N84120 X-2.6864 Y-1.3123
N84125 X-2.6832 Y-1.2871
N84130 X-2.6814 Y-1.2745
N84135 X-2.6774 Y-1.2492
N84140 X-2.6752 Y-1.2366
N84145 X-2.6729 Y-1.224
N84150 X-2.6679 Y-1.1988
N84155 X-2.6651 Y-1.1855
N84160 X-2.6563 Y-1.1483
N84165 X-2.6525 Y-1.1336
N84170 X-2.6461 Y-1.1104
N84175 X-2.6426 Y-1.0978
N84180 X-2.6307 Y-1.0599
N84185 X-2.6264 Y-1.0473
N84190 X-2.6175 Y-1.0221
N84195 X-2.6129 Y-1.0094
N84200 X-2.608 Y-0.9968
N84205 X-2.5981 Y-0.9716
N84210 X-2.5872 Y-0.9463
N84215 X-2.5816 Y-0.9337
N84220 X-2.5767 Y-0.9228
N84225 X-2.5638 Y-0.8959
N84230 X-2.5576 Y-0.8832
N84235 X-2.5388 Y-0.8472
N84240 X-2.5234 Y-0.8201
N84245 X-2.5162 Y-0.8075
N84250 X-2.4929 Y-0.7697
N84255 X-2.4846 Y-0.757
N84260 X-2.4677 Y-0.7318
N84265 X-2.4629 Y-0.725
N84270 X-2.4405 Y-0.6939
N84275 X-2.4376 Y-0.6901
N84280 X-2.4124 Y-0.6576
N84285 X-2.3997 Y-0.6423
N84290 X-2.3871 Y-0.6272
N84295 X-2.3794 Y-0.6182
N84300 X-2.3681 Y-0.6056
N84305 X-2.3492 Y-0.5846
N84310 X-2.3207 Y-0.5551
N84315 X-2.3078 Y-0.5425
N84320 X-2.2946 Y-0.5299
N84325 X-2.2813 Y-0.5173
N84330 X-2.2531 Y-0.492
N84335 X-2.2354 Y-0.4771
N84340 X-2.2228 Y-0.4666
N84345 X-2.2101 Y-0.4564
N84350 X-2.191 Y-0.4415
N84355 X-2.1743 Y-0.4289
N84360 X-2.147 Y-0.4093
N84365 X-2.1389 Y-0.4037
N84370 X-2.12 Y-0.391
N84375 X-2.109 Y-0.3837
N84380 X-2.0964 Y-0.3757
N84385 X-2.0711 Y-0.3601
N84390 X-2.0585 Y-0.3526
N84395 X-2.0332 Y-0.3383
N84400 X-2.0206 Y-0.3313
N84405 X-1.9953 Y-0.3181
N84410 X-1.9826 Y-0.3117
N84415 X-1.9639 Y-0.3027
N84420 X-1.9447 Y-0.2936
N84425 X-1.9321 Y-0.288
N84430 X-1.9068 Y-0.277
N84435 X-1.8942 Y-0.2718
N84440 X-1.8689 Y-0.2619
N84445 X-1.8563 Y-0.2571
N84450 X-1.8183 Y-0.2437
N84455 X-1.8054 Y-0.2396
N84460 X-1.7804 Y-0.2318
N84465 X-1.7678 Y-0.228
N84470 X-1.7299 Y-0.2177
N84475 X-1.7163 Y-0.2144
N84480 X-1.692 Y-0.2086
N84485 X-1.6793 Y-0.2059
N84490 X-1.654 Y-0.2008
N84495 X-1.6414 Y-0.1983
N84500 X-1.6288 Y-0.1961
N84505 X-1.6035 Y-0.1921
N84510 X-1.5908 Y-0.1901
N84515 X-1.5529 Y-0.1854
N84520 X-1.5403 Y-0.1841
N84525 X-1.515 Y-0.1818
N84530 X-1.5024 Y-0.1808
N84535 X-1.4897 Y-0.18
N84540 X-1.4645 Y-0.1787
N84545 X-1.4518 Y-0.1782
N84550 X-1.4139 Y-0.1775
N84555 X-1.4013 Y-0.1776
N84560 X-1.376 Y-0.1781
N84565 X-1.3633 Y-0.1784
N84570 X-1.3254 Y-0.1804
N84575 X-1.3128 Y-0.1814
N84580 X-1.2875 Y-0.1836
N84585 X-1.2749 Y-0.1848
N84590 X-1.2622 Y-0.1863
N84595 X-1.237 Y-0.1895
N84600 X-1.2243 Y-0.1913
N84605 X-1.199 Y-0.1953
N84610 X-1.1864 Y-0.1974
N84615 X-1.1738 Y-0.1997
N84620 X-1.1485 Y-0.2048
N84625 X-1.1358 Y-0.2074
N84630 X-1.0979 Y-0.2164
N84635 X-1.0853 Y-0.2197
N84640 X-1.0587 Y-0.227
N84645 X-1.0474 Y-0.2302
N84650 X-1.0095 Y-0.2421
N84655 X-0.9968 Y-0.2464
N84660 X-0.9715 Y-0.2553
N84665 X-0.9589 Y-0.2599
N84670 X-0.9463 Y-0.2648
N84675 X-0.921 Y-0.2749
N84680 X-0.9148 Y-0.2775
N84685 X-0.8831 Y-0.2913
N84690 X-0.8704 Y-0.2971
N84695 X-0.8452 Y-0.3092
N84700 X-0.8325 Y-0.3154
N84705 X-0.7946 Y-0.3353
N84710 X-0.7567 Y-0.357
N84715 X-0.7314 Y-0.3725
N84720 X-0.7188 Y-0.3803
N84725 X-0.7026 Y-0.391
N84730 X-0.6809 Y-0.4056
N84735 X-0.6658 Y-0.4163
N84740 X-0.6429 Y-0.4329
N84745 X-0.6303 Y-0.4426
N84750 X-0.6154 Y-0.4541
N84755 X-0.605 Y-0.4624
N84760 X-0.5996 Y-0.4668
N84765 X-0.5695 Y-0.492
N84770 X-0.5414 Y-0.5173
N84775 X-0.5279 Y-0.5299
N84780 X-0.5039 Y-0.5532
N84785 X-0.4897 Y-0.5677
N84790 X-0.4776 Y-0.5804
N84795 X-0.4658 Y-0.593
N84800 X-0.4407 Y-0.621
N84805 X-0.4219 Y-0.6435
N84810 X-0.4154 Y-0.6513
N84815 X-0.4016 Y-0.6687
N84820 X-0.3902 Y-0.6834
N84825 X-0.3822 Y-0.6939
N84830 X-0.373 Y-0.7066
N84835 X-0.3639 Y-0.7192
N84840 X-0.355 Y-0.7318
N84845 X-0.3465 Y-0.7444
N84850 X-0.3298 Y-0.7697
N84855 X-0.3064 Y-0.8075
N84860 X-0.2849 Y-0.8454
N84865 X-0.2764 Y-0.8615
N84870 X-0.2638 Y-0.8857
N84875 X-0.2528 Y-0.9085
N84880 X-0.2468 Y-0.9211
N84885 X-0.241 Y-0.9337
N84890 X-0.23 Y-0.959
N84895 X-0.2247 Y-0.9716
N84900 X-0.2196 Y-0.9842
N84905 X-0.2097 Y-1.0094
N84910 X-0.2051 Y-1.0221
N84915 X-0.1962 Y-1.0473
N84920 X-0.1919 Y-1.0599
N84925 X-0.1801 Y-1.0978
N84930 X-0.1765 Y-1.1104
N84935 X-0.1696 Y-1.1357
N84940 X-0.1663 Y-1.1483
N84945 X-0.1574 Y-1.1861
N84950 X-0.1547 Y-1.1988
N84955 X-0.1486 Y-1.2299
N84960 X-0.1484 Y-1.231
N84965 X-0.148 Y-1.2319
N84970 X-0.0161 Y-1.2132 Z-0.2865
N84975 X-0.0156 Y-1.2124 Z-0.2866
N84980 X-0.0168 Y-1.1988 Z-0.2867
N84985 X-0.0177 Y-1.1861 Z-0.2868
N84990 X-0.0183 Y-1.1735 Z-0.2869
N84995 X-0.0188 Y-1.1609 Z-0.2871
N85000 X-0.0189 Y-1.1483 Z-0.2872
N85005 Y-1.1357 Z-0.2874
N85010 X-0.0186 Y-1.123 Z-0.2877
N85015 X-0.0181 Y-1.1104 Z-0.2879
N85020 X-0.0173 Y-1.0978 Z-0.2882
N85025 X-0.0162 Y-1.0852 Z-0.2885
N85030 X-0.015 Y-1.0726 Z-0.2888
N85035 X-0.0134 Y-1.0599 Z-0.2891
N85040 X-0.011 Y-1.0435 Z-0.2896
N85045 X-0.0095 Y-1.0347 Z-0.2899
N85050 X-0.0071 Y-1.0221 Z-0.2903
N85055 X-0.0044 Y-1.0094 Z-0.2908
N85060 X-0.0015 Y-0.9968 Z-0.2912
N85065 X0.0018 Y-0.9842 Z-0.2917
N85070 X0.0053 Y-0.9716 Z-0.2922
N85075 X0.0092 Y-0.959 Z-0.2928
N85080 X0.0143 Y-0.9437 Z-0.2935
N85085 X0.0179 Y-0.9337 Z-0.294
N85090 X0.0227 Y-0.9211 Z-0.2946
N85095 X0.0278 Y-0.9085 Z-0.2952
N85100 X0.0333 Y-0.8959 Z-0.2959
N85105 X0.0396 Y-0.8827 Z-0.2967
N85110 X0.0456 Y-0.8706 Z-0.2974
N85115 X0.0522 Y-0.858 Z-0.2981
N85120 X0.0594 Y-0.8454 Z-0.2989
N85125 X0.0671 Y-0.8328 Z-0.2998
N85130 X0.0751 Y-0.8201 Z-0.3006
N85135 X0.0837 Y-0.8075 Z-0.3015
N85140 X0.0901 Y-0.7985 Z-0.3022
N85145 X0.1028 Y-0.7817 Z-0.3035
N85150 X0.1154 Y-0.7661 Z-0.3047
N85155 X0.128 Y-0.7517 Z-0.306
N85160 X0.1347 Y-0.7444 Z-0.3066
N85165 X0.1407 Y-0.7382 Z-0.3072
N85170 X0.1469 Y-0.7318 Z-0.3078
N85175 X0.1533 Y-0.7255 Z-0.3083
N85180 X0.1598 Y-0.7192 Z-0.3089
N85185 X0.166 Y-0.7135 Z-0.3095
N85190 X0.1736 Y-0.7066 Z-0.3102
N85195 X0.1786 Y-0.7022 Z-0.3106
N85200 X0.1883 Y-0.6939 Z-0.3115
N85205 X0.2042 Y-0.6813 Z-0.3129
N85210 X0.2165 Y-0.6721 Z-0.3139
N85215 X0.2211 Y-0.6687 Z-0.3143
N85220 X0.2291 Y-0.663 Z-0.315
N85225 X0.2392 Y-0.6561 Z-0.3159
N85230 X0.2544 Y-0.6464 Z-0.3171
N85235 X0.2671 Y-0.6387 Z-0.3181
N85240 X0.2807 Y-0.6308 Z-0.3192
N85245 X0.3743 Y-0.5804 Z-0.3267
N85250 X0.4566 Y-0.5357 Z-0.3332
N85255 X0.5198 Y-0.5011 Z-0.3382
N85260 X0.583 Y-0.4664 Z-0.3433
N85265 X0.6509 Y-0.4289 Z-0.3487
N85270 X0.7221 Y-0.3894 Z-0.3544
N85275 X0.8232 Y-0.3328 Z-0.3625
N85280 X0.9216 Y-0.2775 Z-0.3704
N85285 X1.0128 Y-0.2259 Z-0.3777
N85290 X1.1012 Y-0.1755 Z-0.3848
N85295 X1.1897 Y-0.1247 Z-0.3919
N85300 X1.253 Y-0.0882 Z-0.397
N85305 X1.3399 Y-0.0377 Z-0.4041
N85310 X1.4298 Y0.0149 Z-0.4113
N85315 X1.5122 Y0.0633 Z-0.418
N85320 X1.5815 Y0.1043 Z-0.4236
N85325 X1.67 Y0.1569 Z-0.4308
N85330 X1.7458 Y0.2024 Z-0.437
N85335 X1.8343 Y0.2558 Z-0.4442
N85340 X1.9227 Y0.3095 Z-0.4514
N85345 X2.0112 Y0.3637 Z-0.4587
N85350 X2.0997 Y0.4181 Z-0.4659
N85355 X2.1882 Y0.4729 Z-0.4732
N85360 X2.2766 Y0.528 Z-0.4804
N85365 X2.3525 Y0.5755 Z-0.4867
N85370 X2.4283 Y0.6233 Z-0.4929
N85375 X2.5041 Y0.6714 Z-0.4992
N85380 X2.58 Y0.7197 Z-0.5055
N85385 X2.6584 Y0.77 Z-0.512
N85390 X2.7064 Y0.8009 Z-0.516
N85395 X2.719 Y0.8084 Z-0.517
N85400 X2.7316 Y0.8162 Z-0.518
N85405 X2.7443 Y0.8246 Z-0.5191
N85410 X2.7569 Y0.8335 Z-0.5202
N85415 X2.7695 Y0.8429 Z-0.5213
N85420 X2.7732 Y0.8458 Z-0.5216
N85425 X2.7889 Y0.8584 Z-0.523
N85430 X2.8034 Y0.871 Z-0.5243
N85435 X2.8169 Y0.8836 Z-0.5255
N85440 X2.8201 Y0.8867 Z-0.5258
N85445 X2.8296 Y0.8962 Z-0.5267
N85450 X2.8415 Y0.9089 Z-0.5279
N85455 X2.8454 Y0.9131 Z-0.5283
N85460 X2.858 Y0.9276 Z-0.5295
N85465 X2.8707 Y0.9436 Z-0.5309
N85470 X2.873 Y0.9467 Z-0.5311
N85475 X2.8833 Y0.9607 Z-0.5322
N85480 X2.891 Y0.972 Z-0.5331
N85485 X2.8992 Y0.9846 Z-0.534
N85490 X2.9086 Y1.0002 Z-0.5351
N85495 X2.9142 Y1.0098 Z-0.5358
N85500 X2.9212 Y1.0232 Z-0.5367
N85505 X2.9273 Y1.0351 Z-0.5375
N85510 X2.9339 Y1.0491 Z-0.5383
N85515 X2.9389 Y1.0603 Z-0.539
N85520 X2.9465 Y1.0788 Z-0.5402
N85525 X2.9535 Y1.0982 Z-0.5413
N85530 X2.9576 Y1.1108 Z-0.542
N85535 X2.9616 Y1.1234 Z-0.5426
N85540 X2.965 Y1.136 Z-0.5433
N85545 X2.9683 Y1.1486 Z-0.5439
N85550 X2.9718 Y1.1645 Z-0.5447
N85555 X2.9737 Y1.1739 Z-0.5452
N85560 X2.9758 Y1.1865 Z-0.5458
N85565 X2.9777 Y1.1991 Z-0.5463
N85570 X2.9793 Y1.2118 Z-0.5469
N85575 X2.9806 Y1.2244 Z-0.5474
N85580 X2.9816 Y1.237 Z-0.5479
N85585 X2.9824 Y1.2496 Z-0.5484
N85590 X2.9828 Y1.2622 Z-0.5489
N85595 X2.9831 Y1.2749 Z-0.5494
N85600 X2.9829 Y1.2875 Z-0.5499
N85605 X2.9826 Y1.3001 Z-0.5503
N85610 X2.9819 Y1.3127 Z-0.5508
N85615 X2.981 Y1.3253 Z-0.5512
N85620 X2.9797 Y1.338 Z-0.5516
N85625 X2.9782 Y1.3506 Z-0.552
N85630 X2.9764 Y1.3632 Z-0.5523
N85635 X2.9743 Y1.3758 Z-0.5527
N85640 X2.9718 Y1.3891 Z-0.553
N85645 X2.9692 Y1.4011 Z-0.5533
N85650 X2.9661 Y1.4137 Z-0.5537
N85655 X2.9629 Y1.4263 Z-0.5539
N85660 X2.9591 Y1.4389 Z-0.5542
N85665 X2.9552 Y1.4515 Z-0.5545
N85670 X2.9508 Y1.4642 Z-0.5547
N85675 X2.9462 Y1.4768 Z-0.5549
N85680 X2.9412 Y1.4894 Z-0.5551
N85685 X2.9339 Y1.5073 Z-0.5554
N85690 X2.8776 Y1.6408 Z-0.5576
N85695 X2.8138 Y1.7923 Z-0.5603
N85700 X2.7553 Y1.9311 Z-0.5632
N85705 X2.6937 Y2.0775 Z-0.5664
N85710 X2.6305 Y2.2277 Z-0.5701
N85715 X2.5695 Y2.3728 Z-0.5739
N85720 X2.5041 Y2.5284 Z-0.5783
N85725 X2.4662 Y2.6187 Z-0.581
N85730 X2.4634 Y2.6252 Z-0.5812
N85735 X2.4576 Y2.6379 Z-0.5816
N85740 X2.4514 Y2.6505 Z-0.5819
N85745 X2.4447 Y2.6631 Z-0.5823
N85750 X2.4375 Y2.6757 Z-0.5826
N85755 X2.4298 Y2.6883 Z-0.5828
N85760 X2.4215 Y2.701 Z-0.5831
N85765 X2.4157 Y2.7095 Z-0.5833
N85770 X2.4127 Y2.7136
N85775 X2.403 Y2.7266 Z-0.5835
N85780 X2.3904 Y2.7423 Z-0.5838
N85785 X2.3777 Y2.7567 Z-0.5839
N85790 X2.3708 Y2.7641 Z-0.584
N85795 X2.3651 Y2.77
N85800 X2.3584 Y2.7767 Z-0.5841
N85805 X2.3525 Y2.7824
N85810 X2.3451 Y2.7893
N85815 X2.3398 Y2.794
N85820 X2.3306 Y2.8019
N85825 X2.3272 Y2.8047
N85830 X2.3145 Y2.8147 Z-0.584
N85835 X2.3019 Y2.824 Z-0.5839
N85840 X2.2974 Y2.8272
N85845 X2.2893 Y2.8327 Z-0.5838
N85850 X2.2766 Y2.8408 Z-0.5837
N85855 X2.264 Y2.8485 Z-0.5835
N85860 X2.2514 Y2.8555 Z-0.5833
N85865 X2.2387 Y2.8622 Z-0.5831
N85870 X2.2261 Y2.8684 Z-0.5829
N85875 X2.2134 Y2.8741 Z-0.5826
N85880 X2.2051 Y2.8777 Z-0.5824
N85885 X2.2008 Y2.8794 Z-0.5823
N85890 X2.1882 Y2.8843 Z-0.582
N85895 X2.1755 Y2.8888 Z-0.5817
N85900 X2.171 Y2.8903 Z-0.5816
N85905 X2.1629 Y2.8928 Z-0.5813
N85910 X2.1502 Y2.8965 Z-0.581
N85915 X2.1376 Y2.8998 Z-0.5806
N85920 X2.1241 Y2.9029 Z-0.5802
N85925 X2.1123 Y2.9052 Z-0.5798
N85930 X2.0997 Y2.9074 Z-0.5794
N85935 X2.087 Y2.9093 Z-0.5789
N85940 X2.0744 Y2.9108 Z-0.5784
N85945 X2.0618 Y2.912 Z-0.578
N85950 X2.0491 Y2.9129 Z-0.5775
N85955 X2.0365 Y2.9134 Z-0.5769
N85960 X2.0239 Y2.9136 Z-0.5764
N85965 X2.0112 Y2.9135 Z-0.5758
N85970 X1.9986 Y2.913 Z-0.5753
N85975 X1.9859 Y2.9121 Z-0.5747
N85980 X1.9733 Y2.9109 Z-0.5741
N85985 X1.9607 Y2.9093 Z-0.5734
N85990 X1.948 Y2.9074 Z-0.5728
N85995 X1.9354 Y2.9051 Z-0.5721
N86000 X1.9227 Y2.9025 Z-0.5715
N86005 X1.9101 Y2.8995 Z-0.5707
N86010 X1.8975 Y2.896 Z-0.57
N86015 X1.8848 Y2.8923 Z-0.5693
N86020 X1.8787 Y2.8903 Z-0.5689
N86025 X1.8722 Y2.8881 Z-0.5685
N86030 X1.8596 Y2.8836 Z-0.5677
N86035 X1.8446 Y2.8777 Z-0.5668
N86040 X1.8343 Y2.8732 Z-0.5661
N86045 X1.8216 Y2.8673 Z-0.5652
N86050 X1.8169 Y2.865 Z-0.5649
N86055 X1.809 Y2.861 Z-0.5643
N86060 X1.7964 Y2.8542 Z-0.5634
N86065 X1.7837 Y2.8468 Z-0.5625
N86070 X1.7711 Y2.8389 Z-0.5615
N86075 X1.7584 Y2.8304 Z-0.5605
N86080 X1.7539 Y2.8272 Z-0.5601
N86085 X1.7458 Y2.8212 Z-0.5595
N86090 X1.737 Y2.8145 Z-0.5587
N86095 X1.7216 Y2.8019 Z-0.5574
N86100 X1.6826 Y2.7675 Z-0.5538
N86105 X1.6642 Y2.7514 Z-0.5522
N86110 X1.6321 Y2.7247 Z-0.5493
N86115 X1.6186 Y2.7136 Z-0.5482
N86120 X1.5815 Y2.6844 Z-0.545
N86125 X1.5689 Y2.6747 Z-0.5439
N86130 X1.5363 Y2.6505 Z-0.5412
N86135 X1.5309 Y2.6465 Z-0.5408
N86140 X1.5183 Y2.6376 Z-0.5397
N86145 X1.4828 Y2.6126 Z-0.5369
N86150 X1.4425 Y2.5859 Z-0.5337
N86155 X1.4298 Y2.5777 Z-0.5327
N86160 X1.3919 Y2.5541 Z-0.5299
N86165 X1.3793 Y2.5464 Z-0.5289
N86170 X1.3414 Y2.5242 Z-0.5261
N86175 X1.3287 Y2.517 Z-0.5252
N86180 X1.2908 Y2.4961 Z-0.5225
N86185 X1.2782 Y2.4894 Z-0.5216
N86190 X1.2402 Y2.4699 Z-0.519
N86195 X1.2276 Y2.4636 Z-0.5182
N86200 X1.1897 Y2.4454 Z-0.5156
N86205 X1.1771 Y2.4395 Z-0.5148
N86210 X1.1391 Y2.4225 Z-0.5123
N86215 X1.1265 Y2.4171 Z-0.5115
N86220 X1.0808 Y2.3981 Z-0.5087
N86225 X1.038 Y2.3815 Z-0.5061
N86230 X1.0254 Y2.3768 Z-0.5053
N86235 X0.9789 Y2.3602 Z-0.5026
N86240 X0.9369 Y2.3465 Z-0.5003
N86245 X0.9243 Y2.3424 Z-0.4996
N86250 X0.8737 Y2.3274 Z-0.4968
N86255 X0.8232 Y2.3138 Z-0.4942
N86260 X0.8068 Y2.3097 Z-0.4934
N86265 X0.7726 Y2.3015 Z-0.4917
N86270 X0.76 Y2.2986 Z-0.491
N86275 X0.7094 Y2.2879 Z-0.4886
N86280 X0.6841 Y2.283 Z-0.4875
N86285 X0.6589 Y2.2785 Z-0.4863
N86290 X0.6336 Y2.2743 Z-0.4852
N86295 X0.6183 Y2.2719 Z-0.4846
N86300 X0.5957 Y2.2686 Z-0.4836
N86305 X0.5704 Y2.2653 Z-0.4826
N86310 X0.5451 Y2.262 Z-0.4816
N86315 X0.5325 Y2.2606 Z-0.4811
N86320 X0.4946 Y2.2568 Z-0.4796
N86325 X0.4819 Y2.2556 Z-0.4791
N86330 X0.4693 Y2.2545 Z-0.4787
N86335 X0.4314 Y2.2518 Z-0.4773
N86340 X0.4187 Y2.2509 Z-0.4768
N86345 X0.3682 Y2.2487 Z-0.4752
N86350 X0.3555 Y2.2482 Z-0.4748
N86355 X0.3303 Y2.2477 Z-0.474
N86360 X0.305 Y2.2474 Z-0.4732
N86365 X0.2544 Y2.2478 Z-0.4718
N86370 X0.2418 Y2.2481 Z-0.4714
N86375 X0.1912 Y2.2499 Z-0.4701
N86380 X0.1786 Y2.2506 Z-0.4698
N86385 X0.1407 Y2.253 Z-0.4689
N86390 X0.128 Y2.2539 Z-0.4686
N86395 X0.1154 Y2.2549 Z-0.4684
N86400 X0.0775 Y2.2584 Z-0.4676
N86405 X0.0648 Y2.2597 Z-0.4674
N86410 X0.0143 Y2.2656 Z-0.4665
N86415 X-0.15 Y2.2861 Z-0.4639
N86420 X-0.289 Y2.3034 Z-0.4621
N86425 X-0.4281 Y2.3207 Z-0.4607
N86430 X-0.5545 Y2.3365 Z-0.4597
N86435 X-0.6809 Y2.3523 Z-0.459
N86440 X-0.8072 Y2.3682 Z-0.4585
N86445 X-1.0727 Y2.4014 Z-0.4586
N86450 X-1.199 Y2.4171 Z-0.4591
N86455 X-1.3254 Y2.4329 Z-0.4598
N86460 X-1.4518 Y2.4487 Z-0.4609
N86465 X-1.5656 Y2.463 Z-0.4621
N86470 X-1.692 Y2.4788 Z-0.4637
N86475 X-1.8183 Y2.4947 Z-0.4655
N86480 X-1.9574 Y2.5121 Z-0.4679
N86485 X-2.0585 Y2.5249 Z-0.4698
N86490 X-2.0711 Y2.5264 Z-0.4701
N86495 X-2.0838 Y2.5278 Z-0.4703
N86500 X-2.0964 Y2.5289 Z-0.4705
N86505 X-2.109 Y2.5298 Z-0.4708
N86510 X-2.1217 Y2.5305 Z-0.471
N86515 X-2.1343 Y2.531 Z-0.4711
N86520 X-2.147 Y2.5312 Z-0.4713
N86525 X-2.1596 Z-0.4715
N86530 X-2.1722 Y2.5309 Z-0.4716
N86535 X-2.1849 Y2.5304 Z-0.4718
N86540 X-2.1975 Y2.5297 Z-0.4719
N86545 X-2.2101 Y2.5287 Z-0.472
N86550 X-2.2228 Y2.5275 Z-0.4721
N86555 X-2.2354 Y2.5261 Z-0.4722
N86560 X-2.2488 Y2.5243
N86565 X-2.2607 Y2.5225 Z-0.4723
N86570 X-2.2733 Y2.5204
N86575 X-2.286 Y2.518
N86580 X-2.2986 Y2.5154
N86585 X-2.3144 Y2.5117
N86590 X-2.3239 Y2.5093
N86595 X-2.3365 Y2.5059
N86600 X-2.3492 Y2.5023 Z-0.4722
N86605 X-2.3618 Y2.4983
N86610 X-2.3745 Y2.4941 Z-0.4721
N86615 X-2.3871 Y2.4897 Z-0.472
N86620 X-2.3997 Y2.4849 Z-0.4719
N86625 X-2.4124 Y2.4799 Z-0.4718
N86630 X-2.4267 Y2.4738 Z-0.4716
N86635 X-2.4376 Y2.4689 Z-0.4715
N86640 X-2.4541 Y2.4612 Z-0.4712
N86645 X-2.4629 Y2.4567 Z-0.4711
N86650 X-2.4784 Y2.4486 Z-0.4708
N86655 X-2.4882 Y2.4432 Z-0.4707
N86660 X-2.5008 Y2.4359 Z-0.4704
N86665 X-2.5135 Y2.4282 Z-0.4701
N86670 X-2.5261 Y2.4202 Z-0.4698
N86675 X-2.5403 Y2.4107 Z-0.4695
N86680 X-2.5514 Y2.4029 Z-0.4692
N86685 X-2.5581 Y2.3981 Z-0.469
N86690 X-2.564 Y2.3936 Z-0.4688
N86695 X-2.5767 Y2.3839 Z-0.4684
N86700 X-2.5903 Y2.3728 Z-0.4679
N86705 X-2.605 Y2.3602 Z-0.4674
N86710 X-2.6189 Y2.3476 Z-0.4668
N86715 X-2.632 Y2.335 Z-0.4663
N86720 X-2.6399 Y2.327 Z-0.4659
N86725 X-2.6525 Y2.3138 Z-0.4653
N86730 X-2.6651 Y2.2998 Z-0.4647
N86735 X-2.6782 Y2.2845 Z-0.4639
N86740 X-2.6904 Y2.2692 Z-0.4632
N86745 X-2.698 Y2.2592 Z-0.4627
N86750 X-2.7031 Y2.2523 Z-0.4624
N86755 X-2.7072 Y2.2466 Z-0.4621
N86760 X-2.7159 Y2.234 Z-0.4615
N86765 X-2.7243 Y2.2214 Z-0.4608
N86770 X-2.7322 Y2.2088 Z-0.4602
N86775 X-2.7397 Y2.1961 Z-0.4595
N86780 X-2.7469 Y2.1835 Z-0.4589
N86785 X-2.7537 Y2.1709 Z-0.4582
N86790 X-2.7602 Y2.1583 Z-0.4575
N86795 X-2.7663 Y2.1456 Z-0.4569
N86800 X-2.772 Y2.133 Z-0.4562
N86805 X-2.7789 Y2.1171 Z-0.4553
N86810 X-2.7826 Y2.1078 Z-0.4548
N86815 X-2.7874 Y2.0952 Z-0.4541
N86820 X-2.792 Y2.0826 Z-0.4534
N86825 X-2.7963 Y2.0699 Z-0.4527
N86830 X-2.8002 Y2.0573 Z-0.452
N86835 X-2.8042 Y2.0439 Z-0.4512
N86840 X-2.8074 Y2.0321 Z-0.4505
N86845 X-2.8105 Y2.0195 Z-0.4498
N86850 X-2.8134 Y2.0068 Z-0.449
N86855 X-2.816 Y1.9942 Z-0.4483
N86860 X-2.8183 Y1.9816 Z-0.4475
N86865 X-2.8204 Y1.969 Z-0.4468
N86870 X-2.8222 Y1.9564 Z-0.446
N86875 X-2.8238 Y1.9437 Z-0.4452
N86880 X-2.8251 Y1.9311 Z-0.4444
N86885 X-2.8262 Y1.9185 Z-0.4436
N86890 X-2.827 Y1.9059 Z-0.4429
N86895 X-2.8276 Y1.8933 Z-0.4421
N86900 X-2.828 Y1.8806 Z-0.4413
N86905 X-2.8281 Y1.868 Z-0.4404
N86910 X-2.8279 Y1.8554 Z-0.4396
N86915 X-2.8222 Y1.6156 Z-0.4241
N86920 X-2.8182 Y1.4389 Z-0.4128
N86925 X-2.8148 Y1.2749 Z-0.4025
N86930 X-2.812 Y1.1234 Z-0.393
N86935 X-2.8096 Y0.9846 Z-0.3844
N86940 X-2.8075 Y0.8458 Z-0.376
N86945 X-2.8059 Y0.7196 Z-0.3684
N86950 X-2.8046 Y0.5933 Z-0.361
N86955 X-2.8037 Y0.4798 Z-0.3545
N86960 X-2.8031 Y0.3788 Z-0.3488
N86965 X-2.8028 Y0.2652 Z-0.3425
N86970 X-2.8027 Y0.1643 Z-0.3371
N86975 X-2.8029 Y0.0759 Z-0.3324
N86980 X-2.8034 Y-0.0251 Z-0.3273
N86985 X-2.804 Y-0.1134 Z-0.323
N86990 X-2.8049 Y-0.2017 Z-0.3188
N86995 X-2.806 Y-0.2901 Z-0.3148
N87000 X-2.8073 Y-0.3784 Z-0.311
N87005 X-2.8088 Y-0.4668 Z-0.3074
N87010 X-2.8104 Y-0.5551 Z-0.304
N87015 X-2.8122 Y-0.6435 Z-0.3009
N87020 X-2.8142 Y-0.7318 Z-0.298
N87025 X-2.8162 Y-0.8201 Z-0.2954
N87030 X-2.8179 Y-0.8959 Z-0.2935
N87035 X-2.8194 Y-0.959 Z-0.292
N87040 X-2.821 Y-1.0347 Z-0.2904
N87045 X-2.8223 Y-1.0978 Z-0.2893
N87050 X-2.8236 Y-1.1609 Z-0.2884
N87055 X-2.8247 Y-1.224 Z-0.2877
N87060 X-2.8257 Y-1.2871 Z-0.2871
N87065 X-2.8266 Y-1.3502 Z-0.2867
N87070 X-2.8273 Y-1.4106 Z-0.2866
N87075 X-2.8267 Y-1.4113 Z-0.2865
N87080 X-2.7314 Z-0.2798
N87085 X-2.7297 Y-1.4111 Z-0.2797
N87090 X-2.7281 Y-1.4107 Z-0.2796
N87095 X-2.7265 Y-1.41 Z-0.2795
N87100 X-2.725 Y-1.4091 Z-0.2794
N87105 X-2.723 Y-1.4074 Z-0.2793
N87110 X-2.7211 Y-1.4055 Z-0.2791
N87115 X-2.7201 Y-1.4041
N87120 X-2.719 Y-1.4026 Z-0.279
N87125 X-2.718 Y-1.4009 Z-0.2789
N87130 X-2.7164 Y-1.3975 Z-0.2788
N87135 X-2.7157 Y-1.3957
N87140 X-2.7151 Y-1.3939
N87145 X-2.7142 Y-1.3903 Z-0.2787
N87150 X-2.7135 Y-1.3859
N87155 X-2.7131 Y-1.3814
N87160 X-2.7128 Y-1.3725
N87165 X-2.713 Y-1.3681
N87170 X-2.7134 Y-1.3636
N87175 X-2.7149 Y-1.3548 Z-0.2789
N87180 X-2.7177 Y-1.3431 Z-0.2792
N87185 X-2.7239 Y-1.3199 Z-0.2797
N87190 X-2.7267 Y-1.3082 Z-0.28
N87195 X-2.729 Y-1.2966 Z-0.2803
N87200 X-2.7305 Y-1.2848 Z-0.2805
N87205 X-2.7308 Y-1.279 Z-0.2806
N87210 X-2.7309 Y-1.2731
N87215 X-2.7305 Y-1.2672 Z-0.2807
N87220 X-2.7298 Y-1.2613
N87225 X-2.7258 Y-1.2366
N87230 X-2.7236 Y-1.224
N87235 X-2.7213 Y-1.2114
N87240 X-2.7157 Y-1.1837
N87245 X-2.7136 Y-1.1735
N87250 X-2.7046 Y-1.1357
N87255 X-2.7013 Y-1.123
N87260 X-2.6944 Y-1.0978
N87265 X-2.6904 Y-1.0837
N87270 X-2.679 Y-1.0473
N87275 X-2.6778 Y-1.0434
N87280 X-2.6748 Y-1.0347
N87285 X-2.6651 Y-1.0071
N87290 X-2.6614 Y-0.9968
N87295 X-2.6525 Y-0.9737
N87300 X-2.6467 Y-0.959
N87305 X-2.6415 Y-0.9463
N87310 X-2.6272 Y-0.9136
N87315 X-2.6249 Y-0.9085
N87320 X-2.6191 Y-0.8959
N87325 X-2.607 Y-0.8706
N87330 X-2.602 Y-0.8604
N87335 X-2.5875 Y-0.8328
N87340 X-2.5807 Y-0.8201
N87345 X-2.5592 Y-0.7823
N87350 X-2.5359 Y-0.7444
N87355 X-2.5261 Y-0.7294
N87360 X-2.5108 Y-0.7066
N87365 X-2.5008 Y-0.6923
N87370 X-2.4838 Y-0.6687
N87375 X-2.4744 Y-0.6561
N87380 X-2.4548 Y-0.6308
N87385 X-2.4503 Y-0.6252
N87390 X-2.4341 Y-0.6056
N87395 X-2.4235 Y-0.593
N87400 X-2.4124 Y-0.5802
N87405 X-2.3997 Y-0.5661
N87410 X-2.3871 Y-0.5522
N87415 X-2.3745 Y-0.539
N87420 X-2.3618 Y-0.5259
N87425 X-2.3533 Y-0.5173
N87430 X-2.3365 Y-0.501
N87435 X-2.3239 Y-0.4889
N87440 X-2.3138 Y-0.4794
N87445 X-2.2856 Y-0.4541
N87450 X-2.2607 Y-0.4333
N87455 X-2.2555 Y-0.4289
N87460 X-2.2398 Y-0.4163
N87465 X-2.2228 Y-0.4031
N87470 X-2.2069 Y-0.391
N87475 X-2.1896 Y-0.3784
N87480 X-2.1718 Y-0.3658
N87485 X-2.1596 Y-0.3575
N87490 X-2.1341 Y-0.3406
N87495 X-2.1217 Y-0.3327
N87500 X-2.0964 Y-0.3171
N87505 X-2.0838 Y-0.3096
N87510 X-2.0585 Y-0.2953
N87515 X-2.0458 Y-0.2883
N87520 X-2.0206 Y-0.2751
N87525 X-2.0079 Y-0.2686
N87530 X-1.9953 Y-0.2624
N87535 X-1.97 Y-0.2504
N87540 X-1.9574 Y-0.2446
N87545 X-1.9321 Y-0.2336
N87550 X-1.9162 Y-0.227
N87555 X-1.8942 Y-0.2183
N87560 X-1.8815 Y-0.2134
N87565 X-1.8689 Y-0.2087
N87570 X-1.8436 Y-0.1998
N87575 X-1.831 Y-0.1954
N87580 X-1.8057 Y-0.1874
N87585 X-1.7931 Y-0.1835
N87590 X-1.7804 Y-0.1798
N87595 X-1.7425 Y-0.1694
N87600 X-1.7195 Y-0.1639
N87605 X-1.7046 Y-0.1604
N87610 X-1.692 Y-0.1576
N87615 X-1.6793 Y-0.155
N87620 X-1.654 Y-0.15
N87625 X-1.6414 Y-0.1477
N87630 X-1.6161 Y-0.1436
N87635 X-1.6035 Y-0.1416
N87640 X-1.5908 Y-0.1398
N87645 X-1.5656 Y-0.1367
N87650 X-1.5529 Y-0.1352
N87655 X-1.5403 Y-0.134
N87660 X-1.515 Y-0.1318
N87665 X-1.5024 Y-0.1308
N87670 X-1.4897 Y-0.1301
N87675 X-1.4645 Y-0.1288
N87680 X-1.4518 Y-0.1283
N87685 X-1.4139 Y-0.1277
N87690 X-1.4013 Y-0.1278
N87695 X-1.376 Y-0.1282
N87700 X-1.3633 Y-0.1285
N87705 X-1.3507 Y-0.1291
N87710 X-1.3254 Y-0.1305
N87715 X-1.3128 Y-0.1314
N87720 X-1.3002 Y-0.1324
N87725 X-1.2749 Y-0.1347
N87730 X-1.2622 Y-0.1361
N87735 X-1.237 Y-0.1392
N87740 X-1.2243 Y-0.1409
N87745 X-1.2117 Y-0.1428
N87750 X-1.1864 Y-0.1469
N87755 X-1.1738 Y-0.149
N87760 X-1.1611 Y-0.1514
N87765 X-1.1358 Y-0.1565
N87770 X-1.1232 Y-0.1591
N87775 X-1.0853 Y-0.1682
N87780 X-1.0727 Y-0.1714
N87785 X-1.0474 Y-0.1784
N87790 X-1.0347 Y-0.1819
N87795 X-1.0095 Y-0.1898
N87800 X-0.9968 Y-0.1938
N87805 X-0.9842 Y-0.198
N87810 X-0.9589 Y-0.2069
N87815 X-0.9463 Y-0.2115
N87820 X-0.9336 Y-0.2163
N87825 X-0.9083 Y-0.2262
N87830 X-0.8957 Y-0.2314
N87835 X-0.8704 Y-0.2424
N87840 X-0.8486 Y-0.2522
N87845 X-0.8199 Y-0.266
N87850 X-0.8072 Y-0.2723
N87855 X-0.7735 Y-0.2901
N87860 X-0.7693 Y-0.2923
N87865 X-0.7314 Y-0.314
N87870 X-0.7086 Y-0.3279
N87875 X-0.6935 Y-0.3373
N87880 X-0.6809 Y-0.3456
N87885 X-0.6556 Y-0.3625
N87890 X-0.6508 Y-0.3658
N87895 X-0.6331 Y-0.3784
N87900 X-0.6157 Y-0.391
N87905 X-0.605 Y-0.3991
N87910 X-0.5829 Y-0.4163
N87915 X-0.5671 Y-0.4289
N87920 X-0.537 Y-0.4541
N87925 X-0.5089 Y-0.4794
N87930 X-0.4954 Y-0.492
N87935 X-0.4693 Y-0.5173
N87940 X-0.466 Y-0.5206
N87945 X-0.4448 Y-0.5425
N87950 X-0.4329 Y-0.5551
N87955 X-0.4281 Y-0.5604
N87960 X-0.4028 Y-0.5886
N87965 X-0.378 Y-0.6182
N87970 X-0.3649 Y-0.6346
N87975 X-0.3483 Y-0.6561
N87980 X-0.3389 Y-0.6687
N87985 X-0.327 Y-0.6851
N87990 X-0.3143 Y-0.7029
N87995 X-0.3017 Y-0.7217
N88000 X-0.289 Y-0.7408
N88005 X-0.2867 Y-0.7444
N88010 X-0.2634 Y-0.7823
N88015 X-0.2419 Y-0.8201
N88020 X-0.2351 Y-0.8328
N88025 X-0.222 Y-0.858
N88030 X-0.2157 Y-0.8706
N88035 X-0.2036 Y-0.8959
N88040 X-0.1977 Y-0.9085
N88045 X-0.1921 Y-0.9211
N88050 X-0.1812 Y-0.9463
N88055 X-0.1753 Y-0.9607
N88060 X-0.166 Y-0.9842
N88065 X-0.1612 Y-0.9968
N88070 X-0.1566 Y-1.0094
N88075 X-0.1478 Y-1.0347
N88080 X-0.1436 Y-1.0473
N88085 X-0.1357 Y-1.0726
N88090 X-0.1318 Y-1.0852
N88095 X-0.1282 Y-1.0978
N88100 X-0.1214 Y-1.123
N88105 X-0.118 Y-1.1357
N88110 X-0.1087 Y-1.1751
N88115 X-0.108 Y-1.1757
N88120 X-0.0691 Y-1.1702 Z-0.2835
N88125 X-0.0684 Y-1.1695
N88130 X-0.0687 Y-1.1609 Z-0.2836
N88135 X-0.0688 Y-1.1483 Z-0.2838
N88140 Y-1.1357 Z-0.284
N88145 X-0.0685 Y-1.123 Z-0.2843
N88150 X-0.068 Y-1.1104 Z-0.2845
N88155 X-0.0673 Y-1.0978 Z-0.2848
N88160 X-0.0663 Y-1.0852 Z-0.2851
N88165 X-0.0651 Y-1.0726 Z-0.2854
N88170 X-0.0637 Y-1.0599 Z-0.2858
N88175 X-0.0615 Y-1.0442 Z-0.2862
N88180 X-0.0601 Y-1.0347 Z-0.2865
N88185 X-0.0579 Y-1.0221 Z-0.2869
N88190 X-0.0554 Y-1.0094 Z-0.2874
N88195 X-0.0527 Y-0.9968 Z-0.2878
N88200 X-0.0498 Y-0.9842 Z-0.2883
N88205 X-0.0465 Y-0.9716 Z-0.2888
N88210 X-0.043 Y-0.959 Z-0.2894
N88215 X-0.0391 Y-0.9463 Z-0.2899
N88220 X-0.035 Y-0.9337 Z-0.2905
N88225 X-0.0307 Y-0.9211 Z-0.2911
N88230 X-0.0236 Y-0.9025 Z-0.292
N88235 X-0.0209 Y-0.8959 Z-0.2924
N88240 X-0.0156 Y-0.8832 Z-0.2931
N88245 X-0.011 Y-0.8728 Z-0.2937
N88250 X-0.0039 Y-0.858 Z-0.2945
N88255 X0.0024 Y-0.8454 Z-0.2953
N88260 X0.0091 Y-0.8328 Z-0.2961
N88265 X0.0163 Y-0.8201 Z-0.2969
N88270 X0.024 Y-0.8075 Z-0.2977
N88275 X0.0319 Y-0.7949 Z-0.2986
N88280 X0.0404 Y-0.7823 Z-0.2995
N88285 X0.0493 Y-0.7697 Z-0.3005
N88290 X0.0587 Y-0.757 Z-0.3014
N88295 X0.0648 Y-0.7491 Z-0.3021
N88300 X0.0775 Y-0.7336 Z-0.3033
N88305 X0.0901 Y-0.7191 Z-0.3046
N88310 X0.1028 Y-0.7055 Z-0.3058
N88315 X0.1154 Y-0.6927 Z-0.307
N88320 X0.128 Y-0.6805 Z-0.3081
N88325 X0.141 Y-0.6687 Z-0.3093
N88330 X0.1557 Y-0.6561 Z-0.3106
N88335 X0.1714 Y-0.6435 Z-0.312
N88340 X0.1786 Y-0.638 Z-0.3126
N88345 X0.1912 Y-0.6287 Z-0.3137
N88350 X0.2061 Y-0.6182 Z-0.315
N88355 X0.2165 Y-0.6112 Z-0.3159
N88360 X0.2291 Y-0.6032 Z-0.3169
N88365 X0.2418 Y-0.5956 Z-0.3179
N88370 X0.2544 Y-0.5883 Z-0.319
N88375 X0.3682 Y-0.5268 Z-0.328
N88380 X0.4554 Y-0.4794 Z-0.3349
N88385 X0.5325 Y-0.4372 Z-0.3411
N88390 X0.6161 Y-0.391 Z-0.3478
N88395 X0.6968 Y-0.3462 Z-0.3542
N88400 X0.7979 Y-0.2897 Z-0.3623
N88405 X0.899 Y-0.2328 Z-0.3704
N88410 X0.9875 Y-0.1827 Z-0.3775
N88415 X1.0649 Y-0.1386 Z-0.3837
N88420 X1.1391 Y-0.0961 Z-0.3897
N88425 X1.215 Y-0.0524 Z-0.3958
N88430 X1.2908 Y-0.0084 Z-0.402
N88435 X1.3793 Y0.0432 Z-0.4091
N88440 X1.4677 Y0.0951 Z-0.4163
N88445 X1.5436 Y0.1399 Z-0.4224
N88450 X1.627 Y0.1895 Z-0.4292
N88455 X1.7113 Y0.24 Z-0.4361
N88460 X1.7837 Y0.2836 Z-0.442
N88465 X1.8596 Y0.3296 Z-0.4482
N88470 X1.9402 Y0.3788 Z-0.4548
N88475 X2.0112 Y0.4223 Z-0.4606
N88480 X2.087 Y0.4691 Z-0.4668
N88485 X2.1755 Y0.5239 Z-0.4741
N88490 X2.2514 Y0.5712 Z-0.4803
N88495 X2.3145 Y0.6107 Z-0.4856
N88500 X2.4071 Y0.6691 Z-0.4932
N88505 X2.4669 Y0.7069 Z-0.4981
N88510 X2.5547 Y0.7629 Z-0.5054
N88515 X2.6305 Y0.8115 Z-0.5117
N88520 X2.6684 Y0.836 Z-0.5148
N88525 X2.6811 Y0.844 Z-0.5159
N88530 X2.6937 Y0.8516 Z-0.5169
N88535 X2.7047 Y0.8584 Z-0.5178
N88540 X2.719 Y0.868 Z-0.519
N88545 X2.7233 Y0.871 Z-0.5194
N88550 X2.7316 Y0.877 Z-0.5201
N88555 X2.7404 Y0.8836 Z-0.5209
N88560 X2.7569 Y0.8968 Z-0.5223
N88565 X2.7707 Y0.9089 Z-0.5236
N88570 X2.7842 Y0.9215 Z-0.5248
N88575 X2.7948 Y0.9322 Z-0.5258
N88580 X2.8084 Y0.9467 Z-0.5272
N88585 X2.8201 Y0.9602 Z-0.5283
N88590 X2.8327 Y0.9763 Z-0.5297
N88595 X2.8388 Y0.9846 Z-0.5303
N88600 X2.8454 Y0.9938 Z-0.5311
N88605 X2.8477 Y0.9972 Z-0.5313
N88610 X2.856 Y1.0098 Z-0.5323
N88615 X2.858 Y1.013 Z-0.5325
N88620 X2.8637 Y1.0224 Z-0.5332
N88625 X2.871 Y1.0351 Z-0.534
N88630 X2.8776 Y1.0477 Z-0.5349
N88635 X2.8833 Y1.0589 Z-0.5356
N88640 X2.8898 Y1.0729 Z-0.5365
N88645 X2.8959 Y1.0872 Z-0.5374
N88650 X2.9004 Y1.0982 Z-0.5381
N88655 X2.905 Y1.1108 Z-0.5388
N88660 X2.9092 Y1.1234 Z-0.5395
N88665 X2.9132 Y1.136 Z-0.5402
N88670 X2.9167 Y1.1486 Z-0.5409
N88675 X2.92 Y1.1613 Z-0.5415
N88680 X2.9227 Y1.1739 Z-0.5421
N88685 X2.9252 Y1.1865 Z-0.5427
N88690 X2.9272 Y1.1991 Z-0.5433
N88695 X2.929 Y1.2118 Z-0.5439
N88700 X2.9304 Y1.2244 Z-0.5444
N88705 X2.9316 Y1.237 Z-0.545
N88710 X2.9324 Y1.2496 Z-0.5455
N88715 X2.9329 Y1.2622 Z-0.546
N88720 X2.9332 Y1.2749 Z-0.5465
N88725 X2.933 Y1.2875 Z-0.5469
N88730 X2.9326 Y1.3001 Z-0.5474
N88735 X2.9319 Y1.3127 Z-0.5478
N88740 X2.9308 Y1.3253 Z-0.5482
N88745 X2.9295 Y1.338 Z-0.5486
N88750 X2.9278 Y1.3506 Z-0.549
N88755 X2.9258 Y1.3632 Z-0.5494
N88760 X2.9235 Y1.3758 Z-0.5497
N88765 X2.9209 Y1.3884 Z-0.55
N88770 X2.9179 Y1.4011 Z-0.5503
N88775 X2.9146 Y1.4137 Z-0.5506
N88780 X2.9108 Y1.4263 Z-0.5509
N88785 X2.9086 Y1.4336 Z-0.5511
N88790 X2.9068 Y1.4389 Z-0.5512
N88795 X2.9024 Y1.4515 Z-0.5514
N88800 X2.8976 Y1.4642 Z-0.5516
N88805 X2.8925 Y1.4768 Z-0.5518
N88810 X2.8819 Y1.502 Z-0.5522
N88815 X2.8327 Y1.6188 Z-0.5541
N88820 X2.7703 Y1.7671 Z-0.5568
N88825 X2.7118 Y1.9059 Z-0.5597
N88830 X2.6534 Y2.0447 Z-0.5628
N88835 X2.5926 Y2.1892 Z-0.5663
N88840 X2.5294 Y2.3394 Z-0.5703
N88845 X2.4662 Y2.4899 Z-0.5745
N88850 X2.4199 Y2.6 Z-0.5779
N88855 X2.4143 Y2.6126 Z-0.5782
N88860 X2.4082 Y2.6252 Z-0.5786
N88865 X2.4016 Y2.6379 Z-0.5789
N88870 X2.3945 Y2.6505 Z-0.5792
N88875 X2.3867 Y2.6631 Z-0.5795
N88880 X2.3777 Y2.6766 Z-0.5798
N88885 X2.3693 Y2.6883 Z-0.58
N88890 X2.3651 Y2.694 Z-0.5801
N88895 X2.3596 Y2.701 Z-0.5802
N88900 X2.3525 Y2.7098 Z-0.5803
N88905 X2.3492 Y2.7136
N88910 X2.3398 Y2.7242 Z-0.5805
N88915 X2.3258 Y2.7388 Z-0.5806
N88920 X2.3126 Y2.7514
N88925 X2.3019 Y2.7608
N88930 X2.2981 Y2.7641
N88935 X2.2893 Y2.7711
N88940 X2.282 Y2.7767 Z-0.5805
N88945 X2.2766 Y2.7807
N88950 X2.264 Y2.7896 Z-0.5804
N88955 X2.2514 Y2.7978 Z-0.5802
N88960 X2.2387 Y2.8054 Z-0.5801
N88965 X2.2261 Y2.8125 Z-0.5799
N88970 X2.2134 Y2.819 Z-0.5797
N88975 X2.2008 Y2.825 Z-0.5794
N88980 X2.1882 Y2.8306 Z-0.5791
N88985 X2.1755 Y2.8357 Z-0.5788
N88990 X2.1629 Y2.8403 Z-0.5785
N88995 X2.1502 Y2.8445 Z-0.5782
N89000 X2.1376 Y2.8482 Z-0.5778
N89005 X2.125 Y2.8515 Z-0.5774
N89010 X2.1123 Y2.8543 Z-0.577
N89015 X2.0997 Y2.8568 Z-0.5766
N89020 X2.087 Y2.8588 Z-0.5762
N89025 X2.0744 Y2.8605 Z-0.5757
N89030 X2.0618 Y2.8619 Z-0.5752
N89035 X2.0491 Y2.8628 Z-0.5747
N89040 X2.0365 Y2.8634 Z-0.5742
N89045 X2.0239 Y2.8637 Z-0.5737
N89050 X2.0112 Y2.8635 Z-0.5731
N89055 X1.9986 Y2.8629 Z-0.5725
N89060 X1.9859 Y2.8619 Z-0.5719
N89065 X1.9733 Y2.8606 Z-0.5713
N89070 X1.9607 Y2.8588 Z-0.5707
N89075 X1.948 Y2.8567 Z-0.57
N89080 X1.9354 Y2.8541 Z-0.5693
N89085 X1.9227 Y2.8511 Z-0.5686
N89090 X1.9101 Y2.8477 Z-0.5679
N89095 X1.8975 Y2.8438 Z-0.5671
N89100 X1.8848 Y2.8396 Z-0.5663
N89105 X1.8722 Y2.8348 Z-0.5655
N89110 X1.8596 Y2.8297 Z-0.5647
N89115 X1.8538 Y2.8272 Z-0.5643
N89120 X1.8469 Y2.824 Z-0.5639
N89125 X1.8343 Y2.8178 Z-0.563
N89130 X1.8216 Y2.8111 Z-0.5621
N89135 X1.809 Y2.8037 Z-0.5611
N89140 X1.7964 Y2.7957 Z-0.5602
N89145 X1.7869 Y2.7893 Z-0.5594
N89150 X1.7837 Y2.787 Z-0.5591
N89155 X1.7698 Y2.7767 Z-0.558
N89160 X1.7543 Y2.7641 Z-0.5566
N89165 X1.7113 Y2.7262 Z-0.5527
N89170 X1.6952 Y2.7122 Z-0.5512
N89175 X1.6573 Y2.6807 Z-0.5479
N89180 X1.6512 Y2.6757 Z-0.5474
N89185 X1.6193 Y2.6505 Z-0.5446
N89190 X1.603 Y2.6379 Z-0.5432
N89195 X1.5815 Y2.6218 Z-0.5414
N89200 X1.5689 Y2.6124 Z-0.5404
N89205 X1.5562 Y2.6032 Z-0.5393
N89210 X1.5183 Y2.5765 Z-0.5363
N89215 X1.5057 Y2.5678 Z-0.5353
N89220 X1.4677 Y2.5427 Z-0.5323
N89225 X1.4551 Y2.5346 Z-0.5313
N89230 X1.4172 Y2.5109 Z-0.5284
N89235 X1.4046 Y2.5033 Z-0.5275
N89240 X1.3666 Y2.481 Z-0.5247
N89245 X1.3539 Y2.4738 Z-0.5237
N89250 X1.3161 Y2.453 Z-0.521
N89255 X1.3034 Y2.4463 Z-0.5201
N89260 X1.2655 Y2.4267 Z-0.5175
N89265 X1.2529 Y2.4204 Z-0.5167
N89270 X1.215 Y2.4021 Z-0.5141
N89275 X1.2023 Y2.3962 Z-0.5133
N89280 X1.1771 Y2.3848 Z-0.5116
N89285 X1.1644 Y2.3791 Z-0.5108
N89290 X1.15 Y2.3728 Z-0.5099
N89295 X1.1265 Y2.3629 Z-0.5084
N89300 X1.1012 Y2.3525 Z-0.5068
N89305 X1.0759 Y2.3426 Z-0.5052
N89310 X1.0562 Y2.335 Z-0.504
N89315 X1.038 Y2.3282 Z-0.503
N89320 X1.0001 Y2.3148 Z-0.5007
N89325 X0.9852 Y2.3097 Z-0.4999
N89330 X0.9465 Y2.2971 Z-0.4977
N89335 X0.9369 Y2.2941 Z-0.4971
N89340 X0.8864 Y2.2791 Z-0.4944
N89345 X0.8358 Y2.2654 Z-0.4917
N89350 X0.8232 Y2.2623 Z-0.4911
N89355 X0.7853 Y2.2532 Z-0.4892
N89360 X0.7726 Y2.2503 Z-0.4886
N89365 X0.7221 Y2.2395 Z-0.4861
N89370 X0.7094 Y2.237 Z-0.4855
N89375 X0.6937 Y2.234 Z-0.4848
N89380 X0.6715 Y2.23 Z-0.4838
N89385 X0.6589 Y2.2278 Z-0.4832
N89390 X0.6336 Y2.2237 Z-0.4821
N89395 X0.6182 Y2.2214 Z-0.4815
N89400 X0.6083 Y2.2199 Z-0.481
N89405 X0.5957 Y2.2182 Z-0.4805
N89410 X0.5578 Y2.2133 Z-0.479
N89415 X0.5451 Y2.2118 Z-0.4784
N89420 X0.5325 Y2.2104 Z-0.4779
N89425 X0.4946 Y2.2066 Z-0.4765
N89430 X0.4819 Y2.2055 Z-0.476
N89435 X0.4566 Y2.2036 Z-0.4751
N89440 X0.4314 Y2.2018 Z-0.4742
N89445 X0.4187 Y2.201 Z-0.4737
N89450 X0.3682 Y2.1987 Z-0.472
N89455 X0.3555 Y2.1983 Z-0.4716
N89460 X0.3303 Y2.1978 Z-0.4708
N89465 X0.305 Y2.1975 Z-0.47
N89470 X0.2544 Y2.198 Z-0.4686
N89475 X0.2418 Y2.1982 Z-0.4682
N89480 X0.2039 Y2.1995 Z-0.4672
N89485 X0.1912 Y2.2 Z-0.4669
N89490 X0.1786 Y2.2006 Z-0.4666
N89495 X0.1407 Y2.203 Z-0.4657
N89500 X0.128 Y2.2039 Z-0.4654
N89505 X0.1154 Y2.2049 Z-0.4651
N89510 X0.0726 Y2.2088 Z-0.4643
N89515 X0.0648 Y2.2095 Z-0.4641
N89520 X0.0396 Y2.2124 Z-0.4636
N89525 X0.0016 Y2.2169 Z-0.463
N89530 X-0.1627 Y2.2374 Z-0.4604
N89535 X-0.3017 Y2.2547 Z-0.4586
N89540 X-0.4407 Y2.2721 Z-0.4572
N89545 X-0.5671 Y2.2879 Z-0.4562
N89550 X-0.6935 Y2.3037 Z-0.4555
N89555 X-0.8199 Y2.3195 Z-0.455
N89560 X-1.0727 Y2.3511 Z-0.4551
N89565 X-1.2117 Y2.3685 Z-0.4556
N89570 X-1.3254 Y2.3827 Z-0.4563
N89575 X-1.4518 Y2.3985 Z-0.4574
N89580 X-1.5656 Y2.4127 Z-0.4586
N89585 X-1.692 Y2.4285 Z-0.4602
N89590 X-1.8057 Y2.4428 Z-0.4618
N89595 X-1.952 Y2.4612 Z-0.4643
N89600 X-2.0711 Y2.4761 Z-0.4666
N89605 X-2.0838 Y2.4776 Z-0.4669
N89610 X-2.0964 Y2.4788 Z-0.4671
N89615 X-2.109 Y2.4798 Z-0.4673
N89620 X-2.1217 Y2.4806 Z-0.4675
N89625 X-2.1343 Y2.4811 Z-0.4677
N89630 X-2.147 Y2.4813 Z-0.4679
N89635 X-2.1596 Z-0.468
N89640 X-2.1722 Y2.481 Z-0.4682
N89645 X-2.1849 Y2.4804 Z-0.4683
N89650 X-2.1975 Y2.4796 Z-0.4684
N89655 X-2.2101 Y2.4786 Z-0.4685
N89660 X-2.2228 Y2.4773 Z-0.4686
N89665 X-2.2354 Y2.4758 Z-0.4687
N89670 X-2.2493 Y2.4738 Z-0.4688
N89675 X-2.2607 Y2.4719
N89680 X-2.2733 Y2.4696
N89685 X-2.286 Y2.467 Z-0.4689
N89690 X-2.2986 Y2.4642
N89695 X-2.3113 Y2.461 Z-0.4688
N89700 X-2.3239 Y2.4577
N89705 X-2.3365 Y2.4539
N89710 X-2.3534 Y2.4486 Z-0.4687
N89715 X-2.3618 Y2.4457 Z-0.4686
N89720 X-2.3745 Y2.4411 Z-0.4685
N89725 X-2.3878 Y2.4359 Z-0.4684
N89730 X-2.3997 Y2.4311 Z-0.4683
N89735 X-2.4124 Y2.4255 Z-0.4681
N89740 X-2.4173 Y2.4233 Z-0.468
N89745 X-2.425 Y2.4197 Z-0.4679
N89750 X-2.4376 Y2.4136 Z-0.4677
N89755 X-2.4503 Y2.407 Z-0.4675
N89760 X-2.4629 Y2.4002 Z-0.4673
N89765 X-2.4756 Y2.3929 Z-0.467
N89770 X-2.4882 Y2.3852 Z-0.4668
N89775 X-2.5008 Y2.3771 Z-0.4664
N89780 X-2.5135 Y2.3686 Z-0.4661
N89785 X-2.5261 Y2.3596 Z-0.4658
N89790 X-2.5421 Y2.3476 Z-0.4653
N89795 X-2.5514 Y2.3402 Z-0.465
N89800 X-2.5578 Y2.335 Z-0.4647
N89805 X-2.5725 Y2.3224 Z-0.4642
N89810 X-2.5863 Y2.3097 Z-0.4636
N89815 X-2.5992 Y2.2971 Z-0.4631
N89820 X-2.602 Y2.2944 Z-0.4629
N89825 X-2.6146 Y2.2813 Z-0.4623
N89830 X-2.6272 Y2.2674 Z-0.4617
N89835 X-2.6399 Y2.2525 Z-0.461
N89840 X-2.6525 Y2.2366 Z-0.4602
N89845 X-2.6651 Y2.2196 Z-0.4594
N89850 X-2.6727 Y2.2088 Z-0.4588
N89855 X-2.6812 Y2.1961 Z-0.4582
N89860 X-2.6904 Y2.1814 Z-0.4574
N89865 X-2.6967 Y2.1709 Z-0.4569
N89870 X-2.7038 Y2.1583 Z-0.4562
N89875 X-2.7105 Y2.1457 Z-0.4555
N89880 X-2.7157 Y2.1355 Z-0.455
N89885 X-2.7229 Y2.1204 Z-0.4542
N89890 X-2.7285 Y2.1078 Z-0.4535
N89895 X-2.7339 Y2.0952 Z-0.4528
N89900 X-2.741 Y2.0768 Z-0.4517
N89905 X-2.7435 Y2.0699 Z-0.4513
N89910 X-2.7478 Y2.0573 Z-0.4506
N89915 X-2.7518 Y2.0447 Z-0.4499
N89920 X-2.7556 Y2.0321 Z-0.4492
N89925 X-2.759 Y2.0195 Z-0.4484
N89930 X-2.7621 Y2.0068 Z-0.4477
N89935 X-2.765 Y1.9942 Z-0.4469
N89940 X-2.7675 Y1.9816 Z-0.4462
N89945 X-2.7697 Y1.969 Z-0.4454
N89950 X-2.7717 Y1.9564 Z-0.4447
N89955 X-2.7734 Y1.9437 Z-0.4439
N89960 X-2.7749 Y1.9311 Z-0.4431
N89965 X-2.776 Y1.9185 Z-0.4423
N89970 X-2.777 Y1.9059 Z-0.4415
N89975 X-2.7776 Y1.8933 Z-0.4407
N89980 X-2.778 Y1.8806 Z-0.4399
N89985 X-2.7781 Y1.868 Z-0.4391
N89990 X-2.7779 Y1.8554 Z-0.4383
N89995 X-2.7722 Y1.6156 Z-0.4227
N90000 X-2.7688 Y1.4642 Z-0.413
N90005 X-2.7653 Y1.3001 Z-0.4025
N90010 X-2.7627 Y1.1613 Z-0.3937
N90015 X-2.7605 Y1.0351 Z-0.3859
N90020 X-2.7583 Y0.8962 Z-0.3773
N90025 X-2.7566 Y0.77 Z-0.3696
N90030 X-2.7553 Y0.6565 Z-0.3628
N90035 X-2.7543 Y0.5555 Z-0.3569
N90040 X-2.7535 Y0.4419 Z-0.3503
N90045 X-2.753 Y0.3409 Z-0.3445
N90050 X-2.7528 Y0.24 Z-0.3389
N90055 Y0.139 Z-0.3335
N90060 X-2.7531 Y0.0507 Z-0.3288
N90065 X-2.7534 Y-0.0251 Z-0.3249
N90070 X-2.7541 Y-0.1134 Z-0.3205
N90075 X-2.7548 Y-0.1891 Z-0.3168
N90080 X-2.7559 Y-0.2775 Z-0.3127
N90085 X-2.7574 Y-0.3784 Z-0.3082
N90090 X-2.7588 Y-0.4668 Z-0.3045
N90095 X-2.7605 Y-0.5551 Z-0.3011
N90100 X-2.7623 Y-0.6435 Z-0.2979
N90105 X-2.7643 Y-0.7318 Z-0.2949
N90110 X-2.7663 Y-0.8201 Z-0.2923
N90115 X-2.7683 Y-0.9085 Z-0.2899
N90120 X-2.77 Y-0.9842 Z-0.2881
N90125 X-2.7714 Y-1.0473 Z-0.2869
N90130 X-2.7727 Y-1.1104 Z-0.2858
N90135 X-2.7739 Y-1.1735 Z-0.2848
N90140 X-2.7748 Y-1.224 Z-0.2842
N90145 X-2.776 Y-1.2997 Z-0.2835
N90150 X-2.7768 Y-1.3558 Z-0.2832
N90155 X-2.7769 Y-1.3609
N90160 X-2.7761 Y-1.3613 Z-0.2831
N90165 X-2.7415 Z-0.2807
N90170 X-2.7411 Y-1.3605
N90175 X-2.7391 Y-1.3376
N90180 X-2.7379 Y-1.325
N90185 X-2.7365 Y-1.3123
N90190 X-2.7334 Y-1.2871
N90195 X-2.7318 Y-1.2745
N90200 X-2.7298 Y-1.2613
N90205 X-2.7283 Y-1.2513
N90210 X-2.7271 Y-1.2413
N90215 X-2.726 Y-1.2313 Z-0.2808
N90220 X-2.725 Y-1.2212
N90225 X-2.7243 Y-1.2111 Z-0.2809
N90230 X-2.7236 Y-1.2011 Z-0.281
N90235 X-2.7231 Y-1.191 Z-0.2811
N90240 X-2.7223 Y-1.1708 Z-0.2813
N90245 X-2.7216 Y-1.1404 Z-0.2818
N90250 X-2.7209 Y-1.1101 Z-0.2822
N90255 X-2.7202 Y-1.0899 Z-0.2826
N90260 X-2.7197 Y-1.0799 Z-0.2827
N90265 X-2.7191 Y-1.07 Z-0.2829
N90270 X-2.7184 Y-1.06 Z-0.283
N90275 X-2.7176 Y-1.05 Z-0.2832
N90280 X-2.7166 Y-1.0401 Z-0.2833
N90285 X-2.7154 Y-1.0301 Z-0.2835
N90290 X-2.7141 Y-1.0202 Z-0.2836
N90295 X-2.7125 Y-1.0104 Z-0.2837
N90300 X-2.7107 Y-1.0006 Z-0.2838
N90305 X-2.7086 Y-0.9908 Z-0.2839
N90310 X-2.7063 Y-0.9812 Z-0.284
N90315 X-2.7037 Y-0.9715 Z-0.2841
N90320 X-2.7009 Y-0.962
N90325 X-2.6976 Y-0.9526 Z-0.2842
N90330 X-2.6941 Y-0.9433
N90335 X-2.6903 Y-0.9337
N90340 X-2.6849 Y-0.9211
N90345 X-2.6739 Y-0.8959
N90350 X-2.6682 Y-0.8832
N90355 X-2.6623 Y-0.8706
N90360 X-2.6501 Y-0.8454
N90365 X-2.6438 Y-0.8328
N90370 X-2.6272 Y-0.8013
N90375 X-2.6238 Y-0.7949
N90380 X-2.602 Y-0.7566
N90385 X-2.5789 Y-0.7192
N90390 X-2.5708 Y-0.7066
N90395 X-2.5514 Y-0.6775
N90400 X-2.5452 Y-0.6687
N90405 X-2.5362 Y-0.6561
N90410 X-2.5261 Y-0.6421
N90415 X-2.5178 Y-0.6308
N90420 X-2.5135 Y-0.6251
N90425 X-2.4983 Y-0.6056
N90430 X-2.4882 Y-0.5928
N90435 X-2.4756 Y-0.5774
N90440 X-2.4629 Y-0.5624
N90445 X-2.4503 Y-0.5478
N90450 X-2.4342 Y-0.5299
N90455 X-2.4227 Y-0.5173
N90460 X-2.4106 Y-0.5046
N90465 X-2.3984 Y-0.492
N90470 X-2.3859 Y-0.4794
N90475 X-2.3729 Y-0.4668
N90480 X-2.3598 Y-0.4541
N90485 X-2.3462 Y-0.4415
N90490 X-2.3181 Y-0.4163
N90495 X-2.2986 Y-0.3999
N90500 X-2.286 Y-0.3894
N90505 X-2.2723 Y-0.3784
N90510 X-2.2561 Y-0.3658
N90515 X-2.2396 Y-0.3532
N90520 X-2.2354 Y-0.3501
N90525 X-2.2223 Y-0.3406
N90530 X-2.2046 Y-0.3279
N90535 X-2.1975 Y-0.323
N90540 X-2.1849 Y-0.3144
N90545 X-2.1673 Y-0.3027
N90550 X-2.1596 Y-0.2977
N90555 X-2.147 Y-0.2897
N90560 X-2.1217 Y-0.2741
N90565 X-2.1059 Y-0.2648
N90570 X-2.0837 Y-0.2522
N90575 X-2.0711 Y-0.2453
N90580 X-2.0458 Y-0.232
N90585 X-2.0332 Y-0.2255
N90590 X-2.0206 Y-0.2193
N90595 X-1.9953 Y-0.2072
N90600 X-1.9826 Y-0.2013
N90605 X-1.97 Y-0.1957
N90610 X-1.9548 Y-0.1891
N90615 X-1.9447 Y-0.1848
N90620 X-1.9321 Y-0.1796
N90625 X-1.9195 Y-0.1746
N90630 X-1.9068 Y-0.1697
N90635 X-1.8915 Y-0.1639
N90640 X-1.8815 Y-0.1602
N90645 X-1.856 Y-0.1513
N90650 X-1.8436 Y-0.1471
N90655 X-1.8167 Y-0.1386
N90660 X-1.8057 Y-0.1352
N90665 X-1.7931 Y-0.1315
N90670 X-1.7551 Y-0.1212
N90675 X-1.7425 Y-0.1181
N90680 X-1.7172 Y-0.1121
N90685 X-1.7046 Y-0.1093
N90690 X-1.692 Y-0.1067
N90695 X-1.6623 Y-0.1008
N90700 X-1.654 Y-0.0993
N90705 X-1.6414 Y-0.0972
N90710 X-1.6161 Y-0.0931
N90715 X-1.6035 Y-0.0912
N90720 X-1.5782 Y-0.088
N90725 X-1.5656 Y-0.0865
N90730 X-1.5529 Y-0.0851
N90735 X-1.5403 Y-0.0839
N90740 X-1.515 Y-0.0818
N90745 X-1.5024 Y-0.0809
N90750 X-1.4897 Y-0.0801
N90755 X-1.4645 Y-0.0789
N90760 X-1.4518 Y-0.0784
N90765 X-1.4139 Y-0.0778
N90770 X-1.4013 Y-0.0779
N90775 X-1.376 Y-0.0783
N90780 X-1.3633 Y-0.0786
N90785 X-1.3507 Y-0.0792
N90790 X-1.3254 Y-0.0805
N90795 X-1.3128 Y-0.0814
N90800 X-1.3002 Y-0.0824
N90805 X-1.2749 Y-0.0846
N90810 X-1.2622 Y-0.0859
N90815 X-1.2431 Y-0.0882
N90820 X-1.2243 Y-0.0906
N90825 X-1.2117 Y-0.0923
N90830 X-1.199 Y-0.0943
N90835 X-1.1738 Y-0.0984
N90840 X-1.1605 Y-0.1008
N90845 X-1.1485 Y-0.1031
N90850 X-1.1232 Y-0.1082
N90855 X-1.1106 Y-0.1109
N90860 X-1.0727 Y-0.1199
N90865 X-1.06 Y-0.1232
N90870 X-1.0347 Y-0.1301
N90875 X-1.0221 Y-0.1337
N90880 X-1.0059 Y-0.1386
N90885 X-0.9842 Y-0.1455
N90890 X-0.9667 Y-0.1513
N90895 X-0.9463 Y-0.1584
N90900 X-0.9311 Y-0.1639
N90905 X-0.921 Y-0.1677
N90910 X-0.8957 Y-0.1776
N90915 X-0.8831 Y-0.1827
N90920 X-0.8678 Y-0.1891
N90925 X-0.8392 Y-0.2017
N90930 X-0.8325 Y-0.2047
N90935 X-0.8122 Y-0.2144
N90940 X-0.7946 Y-0.2229
N90945 X-0.7864 Y-0.227
N90950 X-0.7567 Y-0.2425
N90955 X-0.744 Y-0.2493
N90960 X-0.7061 Y-0.271
N90965 X-0.6935 Y-0.2787
N90970 X-0.6682 Y-0.2943
N90975 X-0.6553 Y-0.3027
N90980 X-0.6303 Y-0.3194
N90985 X-0.6177 Y-0.3281
N90990 X-0.6003 Y-0.3406
N90995 X-0.5831 Y-0.3532
N91000 X-0.5665 Y-0.3658
N91005 X-0.5504 Y-0.3784
N91010 X-0.5347 Y-0.391
N91015 X-0.5039 Y-0.4168
N91020 X-0.4764 Y-0.4415
N91025 X-0.4628 Y-0.4541
N91030 X-0.4497 Y-0.4668
N91035 X-0.4367 Y-0.4794
N91040 X-0.4281 Y-0.488
N91045 X-0.412 Y-0.5046
N91050 X-0.4 Y-0.5173
N91055 X-0.3884 Y-0.5299
N91060 X-0.3649 Y-0.5562
N91065 X-0.3447 Y-0.5804
N91070 X-0.3396 Y-0.5864
N91075 X-0.3243 Y-0.6056
N91080 X-0.3143 Y-0.6184
N91085 X-0.3017 Y-0.6351
N91090 X-0.289 Y-0.6524
N91095 X-0.2764 Y-0.6701
N91100 X-0.2687 Y-0.6813
N91105 X-0.2519 Y-0.7066
N91110 X-0.2437 Y-0.7192
N91115 X-0.2204 Y-0.757
N91120 X-0.1989 Y-0.7949
N91125 X-0.1921 Y-0.8075
N91130 X-0.1789 Y-0.8328
N91135 X-0.1725 Y-0.8454
N91140 X-0.1627 Y-0.8658
N91145 X-0.1544 Y-0.8832
N91150 X-0.1487 Y-0.8959
N91155 X-0.1432 Y-0.9085
N91160 X-0.1374 Y-0.922
N91165 X-0.1324 Y-0.9337
N91170 X-0.1247 Y-0.9529
N91175 X-0.1175 Y-0.9716
N91180 X-0.1121 Y-0.986
N91185 X-0.1054 Y-1.0048
N91190 X-0.101 Y-0.9842 Z-0.2849
N91195 X-0.098 Y-0.9716 Z-0.2854
N91200 X-0.0948 Y-0.959 Z-0.286
N91205 X-0.0913 Y-0.9463 Z-0.2865
N91210 X-0.0868 Y-0.9317 Z-0.2872
N91215 X-0.0834 Y-0.9211 Z-0.2877
N91220 X-0.0791 Y-0.9085 Z-0.2883
N91225 X-0.0742 Y-0.895 Z-0.289
N91230 X-0.0697 Y-0.8832 Z-0.2896
N91235 X-0.0615 Y-0.8636 Z-0.2907
N91240 X-0.0591 Y-0.858 Z-0.291
N91245 X-0.0533 Y-0.8454 Z-0.2917
N91250 X-0.0472 Y-0.8328 Z-0.2925
N91255 X-0.0407 Y-0.8201 Z-0.2932
N91260 X-0.034 Y-0.8075 Z-0.294
N91265 X-0.0268 Y-0.7949 Z-0.2949
N91270 X-0.0192 Y-0.7823 Z-0.2957
N91275 X-0.011 Y-0.7693 Z-0.2967
N91280 X-0.0028 Y-0.757 Z-0.2976
N91285 X0.0016 Y-0.7506 Z-0.298
N91290 X0.006 Y-0.7444 Z-0.2985
N91295 X0.0152 Y-0.7318 Z-0.2995
N91300 X0.0248 Y-0.7192 Z-0.3005
N91305 X0.0396 Y-0.701 Z-0.302
N91310 X0.0522 Y-0.6865 Z-0.3032
N91315 X0.0648 Y-0.6728 Z-0.3045
N91320 X0.0775 Y-0.6599 Z-0.3057
N91325 X0.0813 Y-0.6561 Z-0.306
N91330 X0.0945 Y-0.6435 Z-0.3073
N91335 X0.1083 Y-0.6308 Z-0.3085
N91340 X0.123 Y-0.6182 Z-0.3099
N91345 X0.1407 Y-0.604 Z-0.3114
N91350 X0.1554 Y-0.593 Z-0.3127
N91355 X0.166 Y-0.5853 Z-0.3136
N91360 X0.1786 Y-0.5764 Z-0.3147
N91365 X0.1918 Y-0.5677 Z-0.3158
N91370 X0.2039 Y-0.5601 Z-0.3168
N91375 X0.2165 Y-0.5524 Z-0.3178
N91380 X0.2291 Y-0.5451 Z-0.3188
N91385 X0.2807 Y-0.5173 Z-0.3229
N91390 X0.3682 Y-0.47 Z-0.3299
N91395 X0.444 Y-0.4286 Z-0.3359
N91400 X0.5198 Y-0.3871 Z-0.342
N91405 X0.5957 Y-0.3452 Z-0.348
N91410 X0.6722 Y-0.3027 Z-0.3541
N91415 X0.7625 Y-0.2522 Z-0.3614
N91420 X0.8611 Y-0.1968 Z-0.3693
N91425 X0.9639 Y-0.1386 Z-0.3775
N91430 X1.0525 Y-0.0882 Z-0.3847
N91435 X1.1265 Y-0.0457 Z-0.3906
N91440 X1.206 Y0.0002 Z-0.3971
N91445 X1.2782 Y0.0421 Z-0.4029
N91450 X1.3919 Y0.1086 Z-0.4121
N91455 X1.4677 Y0.1532 Z-0.4183
N91460 X1.5309 Y0.1905 Z-0.4234
N91465 X1.614 Y0.24 Z-0.4301
N91470 X1.6952 Y0.2886 Z-0.4368
N91475 X1.7837 Y0.3421 Z-0.444
N91480 X1.865 Y0.3914 Z-0.4506
N91485 X1.9269 Y0.4293 Z-0.4557
N91490 X2.0112 Y0.4811 Z-0.4626
N91495 X2.0744 Y0.5201 Z-0.4678
N91500 X2.1722 Y0.5807 Z-0.4758
N91505 X2.2531 Y0.6312 Z-0.4825
N91510 X2.3272 Y0.6778 Z-0.4886
N91515 X2.3934 Y0.7196 Z-0.4941
N91520 X2.4536 Y0.7578 Z-0.4991
N91525 X2.5322 Y0.8079 Z-0.5056
N91530 X2.6109 Y0.8584 Z-0.5121
N91535 X2.6502 Y0.8836 Z-0.5154
N91540 X2.6558 Y0.8872 Z-0.5158
N91545 X2.6709 Y0.8962 Z-0.5171
N91550 X2.6811 Y0.9027 Z-0.5179
N91555 X2.6902 Y0.9089 Z-0.5187
N91560 X2.6937 Y0.9113 Z-0.519
N91565 X2.7076 Y0.9215 Z-0.5202
N91570 X2.719 Y0.9304 Z-0.5212
N91575 X2.7236 Y0.9341 Z-0.5216
N91580 X2.7316 Y0.9411 Z-0.5223
N91585 X2.738 Y0.9467 Z-0.5229
N91590 X2.7443 Y0.9526 Z-0.5235
N91595 X2.7513 Y0.9593 Z-0.5242
N91600 X2.7569 Y0.965 Z-0.5247
N91605 X2.7636 Y0.972 Z-0.5253
N91610 X2.7695 Y0.9783 Z-0.5259
N91615 X2.7751 Y0.9846 Z-0.5265
N91620 X2.7822 Y0.9928 Z-0.5272
N91625 X2.7856 Y0.9972 Z-0.5276
N91630 X2.7954 Y1.0098 Z-0.5286
N91635 X2.8044 Y1.0224 Z-0.5296
N91640 X2.8128 Y1.0351 Z-0.5305
N91645 X2.8206 Y1.0477 Z-0.5315
N91650 X2.8278 Y1.0603 Z-0.5323
N91655 X2.8344 Y1.0729 Z-0.5332
N91660 X2.8406 Y1.0855 Z-0.534
N91665 X2.8463 Y1.0982 Z-0.5348
N91670 X2.8516 Y1.1108 Z-0.5356
N91675 X2.8564 Y1.1234 Z-0.5363
N91680 X2.858 Y1.1278 Z-0.5366
N91685 X2.8608 Y1.136 Z-0.537
N91690 X2.8648 Y1.1486 Z-0.5377
N91695 X2.8684 Y1.1613 Z-0.5384
N91700 X2.8716 Y1.1739 Z-0.5391
N91705 X2.8743 Y1.1865 Z-0.5397
N91710 X2.8766 Y1.1991 Z-0.5403
N91715 X2.8786 Y1.2118 Z-0.5409
N91720 X2.8802 Y1.2244 Z-0.5414
N91725 X2.8814 Y1.237 Z-0.542
N91730 X2.8824 Y1.2496 Z-0.5425
N91735 X2.8829 Y1.2622 Z-0.543
N91740 X2.8832 Y1.2749 Z-0.5435
N91745 X2.8831 Y1.2875 Z-0.544
N91750 X2.8827 Y1.3001 Z-0.5444
N91755 X2.8818 Y1.3127 Z-0.5449
N91760 X2.8807 Y1.3253 Z-0.5453
N91765 X2.8791 Y1.338 Z-0.5457
N91770 X2.8773 Y1.3506 Z-0.546
N91775 X2.8751 Y1.3632 Z-0.5464
N91780 X2.8726 Y1.3758 Z-0.5467
N91785 X2.8696 Y1.3884 Z-0.547
N91790 X2.8663 Y1.4011 Z-0.5473
N91795 X2.8625 Y1.4137 Z-0.5476
N91800 X2.858 Y1.4273 Z-0.5479
N91805 X2.8538 Y1.4389 Z-0.5481
N91810 X2.8489 Y1.4515 Z-0.5483
N91815 X2.8437 Y1.4642 Z-0.5485
N91820 X2.7906 Y1.5904 Z-0.5506
N91825 X2.7268 Y1.7418 Z-0.5534
N91830 X2.6683 Y1.8806 Z-0.5562
N91835 X2.6046 Y2.0321 Z-0.5596
N91840 X2.5462 Y2.1709 Z-0.5631
N91845 X2.4825 Y2.3224 Z-0.5671
N91850 X2.4189 Y2.4738 Z-0.5714
N91855 X2.3764 Y2.5748 Z-0.5745
N91860 X2.3709 Y2.5874 Z-0.5749
N91865 X2.365 Y2.6 Z-0.5752
N91870 X2.3585 Y2.6126 Z-0.5756
N91875 X2.3514 Y2.6252 Z-0.5759
N91880 X2.3436 Y2.6379 Z-0.5762
N91885 X2.3398 Y2.6436 Z-0.5763
N91890 X2.3351 Y2.6505 Z-0.5764
N91895 X2.3259 Y2.6631 Z-0.5766
N91900 X2.3145 Y2.6774 Z-0.5768
N91905 X2.305 Y2.6883 Z-0.577
N91910 X2.3019 Y2.6917
N91915 X2.293 Y2.701 Z-0.5771
N91920 X2.2893 Y2.7047
N91925 X2.28 Y2.7136
N91930 X2.2766 Y2.7166
N91935 X2.2656 Y2.7262
N91940 X2.2514 Y2.7373 Z-0.577
N91945 X2.2387 Y2.7464 Z-0.5769
N91950 X2.2261 Y2.7548 Z-0.5768
N91955 X2.2134 Y2.7624 Z-0.5766
N91960 X2.2008 Y2.7694 Z-0.5764
N91965 X2.1882 Y2.7758 Z-0.5762
N91970 X2.1755 Y2.7817 Z-0.5759
N91975 X2.1629 Y2.787 Z-0.5757
N91980 X2.1571 Y2.7893 Z-0.5755
N91985 X2.1502 Y2.7918 Z-0.5753
N91990 X2.1376 Y2.7961 Z-0.575
N91995 X2.125 Y2.7999 Z-0.5747
N92000 X2.1123 Y2.8032 Z-0.5743
N92005 X2.0997 Y2.806 Z-0.5739
N92010 X2.087 Y2.8083 Z-0.5734
N92015 X2.0744 Y2.8102 Z-0.573
N92020 X2.0618 Y2.8117 Z-0.5725
N92025 X2.0491 Y2.8128 Z-0.572
N92030 X2.0365 Y2.8134 Z-0.5715
N92035 X2.0239 Y2.8137 Z-0.5709
N92040 X2.0112 Y2.8135 Z-0.5704
N92045 X1.9986 Y2.8128 Z-0.5698
N92050 X1.9859 Y2.8117 Z-0.5692
N92055 X1.9733 Y2.8102 Z-0.5685
N92060 X1.9607 Y2.8082 Z-0.5679
N92065 X1.948 Y2.8057 Z-0.5672
N92070 X1.9354 Y2.8028 Z-0.5665
N92075 X1.9227 Y2.7993 Z-0.5657
N92080 X1.9101 Y2.7954 Z-0.565
N92085 X1.8975 Y2.7909 Z-0.5642
N92090 X1.8931 Y2.7893 Z-0.5639
N92095 X1.8848 Y2.786 Z-0.5634
N92100 X1.8722 Y2.7806 Z-0.5625
N92105 X1.8596 Y2.7745 Z-0.5617
N92110 X1.8469 Y2.7679 Z-0.5608
N92115 X1.8343 Y2.7606 Z-0.5598
N92120 X1.8202 Y2.7514 Z-0.5587
N92125 X1.809 Y2.7435 Z-0.5578
N92130 X1.8026 Y2.7388 Z-0.5573
N92135 X1.7964 Y2.7339 Z-0.5567
N92140 X1.7869 Y2.7262 Z-0.5559
N92145 X1.7458 Y2.69 Z-0.5521
N92150 X1.7295 Y2.6757 Z-0.5506
N92155 X1.6952 Y2.6472 Z-0.5476
N92160 X1.6826 Y2.6368 Z-0.5465
N92165 X1.652 Y2.6126 Z-0.5439
N92170 X1.6321 Y2.5972 Z-0.5422
N92175 X1.602 Y2.5748 Z-0.5396
N92180 X1.5848 Y2.5621 Z-0.5382
N92185 X1.5489 Y2.5369 Z-0.5353
N92190 X1.5436 Y2.5332 Z-0.5349
N92195 X1.5305 Y2.5243 Z-0.5338
N92200 X1.4923 Y2.499 Z-0.5308
N92205 X1.4804 Y2.4914 Z-0.5299
N92210 X1.4425 Y2.4678 Z-0.527
N92215 X1.4298 Y2.4602 Z-0.5261
N92220 X1.3919 Y2.4379 Z-0.5232
N92225 X1.3793 Y2.4307 Z-0.5223
N92230 X1.3414 Y2.4099 Z-0.5196
N92235 X1.3287 Y2.4031 Z-0.5187
N92240 X1.2908 Y2.3835 Z-0.516
N92245 X1.2782 Y2.3772 Z-0.5152
N92250 X1.2655 Y2.371 Z-0.5143
N92255 X1.2402 Y2.3588 Z-0.5126
N92260 X1.2276 Y2.3528 Z-0.5118
N92265 X1.2023 Y2.3414 Z-0.5101
N92270 X1.1771 Y2.3301 Z-0.5084
N92275 X1.1589 Y2.3224 Z-0.5073
N92280 X1.1265 Y2.3088 Z-0.5052
N92285 X1.1139 Y2.3037 Z-0.5044
N92290 X1.0759 Y2.2891 Z-0.5021
N92295 X1.0633 Y2.2843 Z-0.5014
N92300 X1.0507 Y2.2797 Z-0.5006
N92305 X1.0128 Y2.2663 Z-0.4984
N92310 X1.0001 Y2.262 Z-0.4976
N92315 X0.9622 Y2.2497 Z-0.4955
N92320 X0.9496 Y2.2457 Z-0.4948
N92325 X0.9101 Y2.234 Z-0.4926
N92330 X0.899 Y2.2308 Z-0.492
N92335 X0.8484 Y2.2171 Z-0.4893
N92340 X0.8358 Y2.214 Z-0.4887
N92345 X0.7979 Y2.2049 Z-0.4867
N92350 X0.7853 Y2.2019 Z-0.4861
N92355 X0.7473 Y2.1938 Z-0.4843
N92360 X0.7347 Y2.1912 Z-0.4837
N92365 X0.7221 Y2.1886 Z-0.4831
N92370 X0.6968 Y2.1838 Z-0.4819
N92375 X0.6715 Y2.1794 Z-0.4807
N92380 X0.6462 Y2.1752 Z-0.4796
N92385 X0.6336 Y2.1732 Z-0.4791
N92390 X0.618 Y2.1709 Z-0.4784
N92395 X0.5957 Y2.1679 Z-0.4774
N92400 X0.5578 Y2.163 Z-0.4759
N92405 X0.5451 Y2.1616 Z-0.4754
N92410 X0.5072 Y2.1577 Z-0.4739
N92415 X0.4946 Y2.1565 Z-0.4734
N92420 X0.4819 Y2.1554 Z-0.4729
N92425 X0.4566 Y2.1535 Z-0.472
N92430 X0.4314 Y2.1518 Z-0.471
N92435 X0.4187 Y2.151 Z-0.4706
N92440 X0.3682 Y2.1488 Z-0.4689
N92445 X0.3429 Y2.1481 Z-0.4681
N92450 X0.3303 Y2.1478 Z-0.4677
N92455 X0.305 Y2.1476 Z-0.4669
N92460 X0.2544 Y2.1481 Z-0.4654
N92465 X0.2418 Y2.1483 Z-0.4651
N92470 X0.2165 Y2.1491 Z-0.4644
N92475 X0.1912 Y2.1501 Z-0.4637
N92480 X0.1786 Y2.1507 Z-0.4634
N92485 X0.1533 Y2.1522 Z-0.4628
N92490 X0.128 Y2.1539 Z-0.4622
N92495 X0.1154 Y2.1548 Z-0.4619
N92500 X0.0901 Y2.1571 Z-0.4614
N92505 X0.0648 Y2.1594 Z-0.4609
N92510 X0.0522 Y2.1607 Z-0.4606
N92515 X0.0143 Y2.1652 Z-0.4599
N92520 X-0.0236 Y2.1698 Z-0.4593
N92525 X-0.1753 Y2.1887 Z-0.4569
N92530 X-0.3143 Y2.206 Z-0.4551
N92535 X-0.4407 Y2.2218 Z-0.4538
N92540 X-0.5797 Y2.2392 Z-0.4527
N92545 X-0.7061 Y2.255 Z-0.4519
N92550 X-0.8199 Y2.2692 Z-0.4515
N92555 X-1.0474 Y2.2977
N92560 X-1.1864 Y2.315 Z-0.452
N92565 X-1.3128 Y2.3308 Z-0.4527
N92570 X-1.4518 Y2.3482 Z-0.4538
N92575 X-1.5656 Y2.3624 Z-0.455
N92580 X-1.692 Y2.3783 Z-0.4567
N92585 X-1.8183 Y2.3941 Z-0.4585
N92590 X-1.9504 Y2.4107 Z-0.4608
N92595 X-2.0711 Y2.4259 Z-0.4631
N92600 X-2.0838 Y2.4274 Z-0.4634
N92605 X-2.0964 Y2.4287 Z-0.4636
N92610 X-2.109 Y2.4298 Z-0.4639
N92615 X-2.1217 Y2.4306 Z-0.4641
N92620 X-2.1343 Y2.4312 Z-0.4643
N92625 X-2.147 Y2.4314 Z-0.4645
N92630 X-2.1596 Z-0.4646
N92635 X-2.1722 Y2.431 Z-0.4648
N92640 X-2.1849 Y2.4305 Z-0.4649
N92645 X-2.1975 Y2.4296 Z-0.465
N92650 X-2.2101 Y2.4285 Z-0.4651
N92655 X-2.2228 Y2.4271 Z-0.4652
N92660 X-2.2354 Y2.4254 Z-0.4653
N92665 X-2.2489 Y2.4233
N92670 X-2.2607 Y2.4212
N92675 X-2.2733 Y2.4187 Z-0.4654
N92680 X-2.286 Y2.4159
N92685 X-2.2986 Y2.4128
N92690 X-2.3113 Y2.4094 Z-0.4653
N92695 X-2.3239 Y2.4056
N92700 X-2.3365 Y2.4016 Z-0.4652
N92705 X-2.3469 Y2.3981 Z-0.4651
N92710 X-2.3618 Y2.3925 Z-0.465
N92715 X-2.3795 Y2.3855 Z-0.4648
N92720 X-2.3871 Y2.3822 Z-0.4647
N92725 X-2.3997 Y2.3765 Z-0.4646
N92730 X-2.4124 Y2.3704 Z-0.4644
N92735 X-2.425 Y2.3639 Z-0.4642
N92740 X-2.4376 Y2.3571 Z-0.4639
N92745 X-2.4503 Y2.3499 Z-0.4637
N92750 X-2.4629 Y2.3421 Z-0.4634
N92755 X-2.4756 Y2.334 Z-0.4631
N92760 X-2.4882 Y2.3253 Z-0.4627
N92765 X-2.4924 Y2.3224 Z-0.4626
N92770 X-2.5008 Y2.3162 Z-0.4624
N92775 X-2.5095 Y2.3097 Z-0.4621
N92780 X-2.5135 Y2.3066 Z-0.462
N92785 X-2.5261 Y2.2964 Z-0.4615
N92790 X-2.54 Y2.2845 Z-0.461
N92795 X-2.5537 Y2.2719 Z-0.4604
N92800 X-2.564 Y2.2617 Z-0.46
N92805 X-2.5767 Y2.2487 Z-0.4594
N92810 X-2.5901 Y2.234 Z-0.4587
N92815 X-2.602 Y2.22 Z-0.458
N92820 X-2.6109 Y2.2088 Z-0.4574
N92825 X-2.6146 Y2.204 Z-0.4572
N92830 X-2.6204 Y2.1961 Z-0.4568
N92835 X-2.6272 Y2.1867 Z-0.4563
N92840 X-2.638 Y2.1709 Z-0.4555
N92845 X-2.646 Y2.1583 Z-0.4549
N92850 X-2.6536 Y2.1457 Z-0.4542
N92855 X-2.6607 Y2.133 Z-0.4535
N92860 X-2.6673 Y2.1204 Z-0.4528
N92865 X-2.6736 Y2.1078 Z-0.4522
N92870 X-2.6778 Y2.0989 Z-0.4517
N92875 X-2.685 Y2.0826 Z-0.4508
N92880 X-2.6904 Y2.0691 Z-0.45
N92885 X-2.6949 Y2.0573 Z-0.4493
N92890 X-2.6993 Y2.0447 Z-0.4486
N92895 X-2.7034 Y2.0321 Z-0.4479
N92900 X-2.7072 Y2.0195 Z-0.4472
N92905 X-2.7107 Y2.0068 Z-0.4464
N92910 X-2.7137 Y1.9942 Z-0.4457
N92915 X-2.7166 Y1.9816 Z-0.4449
N92920 X-2.719 Y1.969 Z-0.4441
N92925 X-2.7211 Y1.9564 Z-0.4434
N92930 X-2.723 Y1.9437 Z-0.4426
N92935 X-2.7246 Y1.9311 Z-0.4418
N92940 X-2.7259 Y1.9185 Z-0.441
N92945 X-2.7269 Y1.9059 Z-0.4402
N92950 X-2.7276 Y1.8933 Z-0.4394
N92955 X-2.728 Y1.8806 Z-0.4386
N92960 X-2.7281 Y1.868 Z-0.4378
N92965 X-2.7279 Y1.8554 Z-0.437
N92970 X-2.7222 Y1.6156 Z-0.4213
N92975 X-2.7188 Y1.4642 Z-0.4115
N92980 X-2.7154 Y1.3001 Z-0.401
N92985 X-2.7125 Y1.1486 Z-0.3914
N92990 X-2.7105 Y1.0351 Z-0.3842
N92995 X-2.7085 Y0.9089 Z-0.3764
N93000 X-2.7071 Y0.8079 Z-0.3702
N93005 X-2.7056 Y0.6817 Z-0.3625
N93010 X-2.7046 Y0.5807 Z-0.3565
N93015 X-2.7037 Y0.4671 Z-0.3498
N93020 X-2.7032 Y0.3788 Z-0.3447
N93025 X-2.7029 Y0.2652 Z-0.3382
N93030 X-2.7028 Y0.1643 Z-0.3326
N93035 X-2.703 Y0.0759 Z-0.3278
N93040 X-2.7034 Y-0.0124 Z-0.3232
N93045 X-2.704 Y-0.1008 Z-0.3187
N93050 X-2.7049 Y-0.1891 Z-0.3143
N93055 X-2.7059 Y-0.2775 Z-0.3101
N93060 X-2.7072 Y-0.3658 Z-0.3061
N93065 X-2.7087 Y-0.4541 Z-0.3023
N93070 X-2.7103 Y-0.5425 Z-0.2987
N93075 X-2.7122 Y-0.6308 Z-0.2954
N93080 X-2.7138 Y-0.7066 Z-0.2927
N93085 X-2.7155 Y-0.7823 Z-0.2903
N93090 X-2.7172 Y-0.858 Z-0.288
N93095 X-2.7193 Y-0.9463 Z-0.2857
N93100 X-2.7207 Y-1.0115 Z-0.2843
N93105 X-2.7203 Y-1.0136 Z-0.2842
N93110 X-2.7144 Y-0.9968
N93115 X-2.7099 Y-0.9842
N93120 X-2.7031 Y-0.9661
N93125 X-2.6941 Y-0.9433
N93130 X-2.6913 Y-0.936
N93135 X-2.6887 Y-0.9285
N93140 X-2.6862 Y-0.921 Z-0.2843
N93145 X-2.684 Y-0.9134
N93150 X-2.6819 Y-0.9058 Z-0.2844
N93155 X-2.68 Y-0.8981 Z-0.2845
N93160 X-2.6782 Y-0.8904 Z-0.2846
N93165 X-2.6766 Y-0.8827 Z-0.2847
N93170 X-2.6735 Y-0.8672 Z-0.285
N93175 X-2.6707 Y-0.8516 Z-0.2853
N93180 X-2.6653 Y-0.8204 Z-0.2859
N93185 X-2.6625 Y-0.8049 Z-0.2862
N93190 X-2.6609 Y-0.7972 Z-0.2864
N93195 X-2.6593 Y-0.7896 Z-0.2865
N93200 X-2.6576 Y-0.7819 Z-0.2867
N93205 X-2.6557 Y-0.7743 Z-0.2868
N93210 X-2.6537 Y-0.7667 Z-0.287
N93215 X-2.6516 Y-0.7592 Z-0.2871
N93220 X-2.6493 Y-0.7518 Z-0.2872
N93225 X-2.6468 Y-0.7444 Z-0.2873
N93230 X-2.6441 Y-0.7371 Z-0.2874
N93235 X-2.6412 Y-0.7298 Z-0.2875
N93240 X-2.638 Y-0.7227 Z-0.2876
N93245 X-2.6346 Y-0.7157
N93250 X-2.631 Y-0.7089
N93255 X-2.627 Y-0.7022 Z-0.2877
N93260 X-2.622 Y-0.6939
N93265 X-2.6139 Y-0.6813
N93270 X-2.5971 Y-0.6561
N93275 X-2.5884 Y-0.6435
N93280 X-2.5767 Y-0.6269
N93285 X-2.564 Y-0.6094
N93290 X-2.5514 Y-0.5926
N93295 X-2.5388 Y-0.5763
N93300 X-2.5261 Y-0.5603
N93305 X-2.5113 Y-0.5425
N93310 X-2.5008 Y-0.5299
N93315 X-2.4882 Y-0.5154
N93320 X-2.4672 Y-0.492
N93325 X-2.4629 Y-0.4873
N93330 X-2.4555 Y-0.4794
N93335 X-2.4376 Y-0.4608
N93340 X-2.425 Y-0.448
N93345 X-2.4185 Y-0.4415
N93350 X-2.3997 Y-0.4234
N93355 X-2.3871 Y-0.4114
N93360 X-2.3787 Y-0.4037
N93365 X-2.3505 Y-0.3784
N93370 X-2.3239 Y-0.3561
N93375 X-2.3204 Y-0.3532
N93380 X-2.3048 Y-0.3406
N93385 X-2.286 Y-0.3259
N93390 X-2.2722 Y-0.3153
N93395 X-2.2607 Y-0.3068
N93400 X-2.2375 Y-0.2901
N93405 X-2.2193 Y-0.2775
N93410 X-2.2005 Y-0.2648
N93415 X-2.1849 Y-0.2546
N93420 X-2.1722 Y-0.2466
N93425 X-2.147 Y-0.2311
N93430 X-2.1343 Y-0.2237
N93435 X-2.109 Y-0.2093
N93440 X-2.0954 Y-0.2017
N93445 X-2.0711 Y-0.1889
N93450 X-2.0585 Y-0.1824
N93455 X-2.0458 Y-0.1761
N93460 X-2.0204 Y-0.1639
N93465 X-2.0079 Y-0.1581
N93470 X-1.9928 Y-0.1513
N93475 X-1.97 Y-0.1414
N93480 X-1.9574 Y-0.1361
N93485 X-1.9447 Y-0.131
N93490 X-1.9195 Y-0.1211
N93495 X-1.9068 Y-0.1164
N93500 X-1.8942 Y-0.1118
N93505 X-1.8689 Y-0.103
N93510 X-1.8563 Y-0.0988
N93515 X-1.831 Y-0.0908
N93520 X-1.8183 Y-0.087
N93525 X-1.8057 Y-0.0833
N93530 X-1.7678 Y-0.0729
N93535 X-1.7425 Y-0.0668
N93540 X-1.7257 Y-0.0629
N93545 X-1.7172 Y-0.061
N93550 X-1.7046 Y-0.0583
N93555 X-1.6793 Y-0.0533
N93560 X-1.6633 Y-0.0503
N93565 X-1.6414 Y-0.0466
N93570 X-1.6288 Y-0.0446
N93575 X-1.6161 Y-0.0427
N93580 X-1.6035 Y-0.041
N93585 X-1.5773 Y-0.0377
N93590 X-1.5656 Y-0.0363
N93595 X-1.5529 Y-0.035
N93600 X-1.5277 Y-0.0328
N93605 X-1.515 Y-0.0318
N93610 X-1.5024 Y-0.0309
N93615 X-1.4897 Y-0.0302
N93620 X-1.4645 Y-0.0289
N93625 X-1.4518 Y-0.0285
N93630 X-1.4139 Y-0.0279
N93635 X-1.4013 Y-0.028
N93640 X-1.376 Y-0.0285
N93645 X-1.3633 Y-0.0287
N93650 X-1.3507 Y-0.0293
N93655 X-1.3254 Y-0.0306
N93660 X-1.3128 Y-0.0314
N93665 X-1.3002 Y-0.0323
N93670 X-1.2749 Y-0.0345
N93675 X-1.2622 Y-0.0358
N93680 X-1.2452 Y-0.0377
N93685 X-1.2243 Y-0.0403
N93690 X-1.2117 Y-0.042
N93695 X-1.199 Y-0.0438
N93700 X-1.1864 Y-0.0458
N93705 X-1.1611 Y-0.05
N93710 X-1.1485 Y-0.0523
N93715 X-1.1358 Y-0.0547
N93720 X-1.1106 Y-0.0599
N93725 X-1.0967 Y-0.0629
N93730 X-1.0727 Y-0.0686
N93735 X-1.06 Y-0.0717
N93740 X-1.0451 Y-0.0755
N93745 X-1.0221 Y-0.0819
N93750 X-1.0095 Y-0.0854
N93755 X-0.9968 Y-0.0892
N93760 X-0.9715 Y-0.0971
N93765 X-0.9589 Y-0.1013
N93770 X-0.9463 Y-0.1056
N93775 X-0.921 Y-0.1145
N93780 X-0.9083 Y-0.1192
N93785 X-0.8905 Y-0.126
N93790 X-0.8704 Y-0.134
N93795 X-0.8578 Y-0.1392
N93800 X-0.8452 Y-0.1446
N93805 X-0.8199 Y-0.1557
N93810 X-0.8072 Y-0.1615
N93815 X-0.7946 Y-0.1675
N93820 X-0.7693 Y-0.1798
N93825 X-0.7567 Y-0.1862
N93830 X-0.7272 Y-0.2017
N93835 X-0.7188 Y-0.2063
N93840 X-0.6809 Y-0.228
N93845 X-0.6618 Y-0.2396
N93850 X-0.6415 Y-0.2522
N93855 X-0.6303 Y-0.2595
N93860 X-0.6033 Y-0.2775
N93865 X-0.5924 Y-0.285
N93870 X-0.5797 Y-0.2939
N93875 X-0.5671 Y-0.3031
N93880 X-0.5504 Y-0.3153
N93885 X-0.534 Y-0.3279
N93890 X-0.5165 Y-0.3416
N93895 X-0.5022 Y-0.3532
N93900 X-0.4721 Y-0.3784
N93905 X-0.4407 Y-0.4066
N93910 X-0.4281 Y-0.4184
N93915 X-0.4154 Y-0.4305
N93920 X-0.4028 Y-0.4428
N93925 X-0.3902 Y-0.4555
N93930 X-0.3775 Y-0.4686
N93935 X-0.3649 Y-0.4818
N93940 X-0.3522 Y-0.4955
N93945 X-0.327 Y-0.5238
N93950 X-0.3017 Y-0.554
N93955 X-0.289 Y-0.5698
N93960 X-0.2764 Y-0.5859
N93965 X-0.2615 Y-0.6056
N93970 X-0.2511 Y-0.6197
N93975 X-0.2385 Y-0.6374
N93980 X-0.2342 Y-0.6435
N93985 X-0.2256 Y-0.6561
N93990 X-0.2132 Y-0.6746
N93995 X-0.2088 Y-0.6813
N94000 X-0.2006 Y-0.6941
N94005 X-0.1851 Y-0.7192
N94010 X-0.1774 Y-0.7318
N94015 X-0.1559 Y-0.7697
N94020 X-0.149 Y-0.7823
N94025 X-0.1358 Y-0.8075
N94030 X-0.1294 Y-0.8201
N94035 X-0.1232 Y-0.8328
N94040 X-0.1171 Y-0.8454
N94045 X-0.1121 Y-0.8551
N94050 X-0.1081 Y-0.8454 Z-0.2882
N94055 X-0.1024 Y-0.8328 Z-0.289
N94060 X-0.0966 Y-0.8201 Z-0.2897
N94065 X-0.0904 Y-0.8075 Z-0.2905
N94070 X-0.0839 Y-0.7949 Z-0.2913
N94075 X-0.0771 Y-0.7823 Z-0.2921
N94080 X-0.0699 Y-0.7697 Z-0.293
N94085 X-0.0615 Y-0.7558 Z-0.2939
N94090 X-0.0544 Y-0.7444 Z-0.2947
N94095 X-0.046 Y-0.7318 Z-0.2957
N94100 X-0.0363 Y-0.7176 Z-0.2968
N94105 X-0.0283 Y-0.7066 Z-0.2976
N94110 X-0.0188 Y-0.6939 Z-0.2986
N94115 X-0.011 Y-0.6839 Z-0.2994
N94120 X0.0016 Y-0.6685 Z-0.3007
N94125 X0.0143 Y-0.654 Z-0.302
N94130 X0.0269 Y-0.6402 Z-0.3032
N94135 X0.0396 Y-0.6272 Z-0.3045
N94140 X0.0486 Y-0.6182 Z-0.3053
N94145 X0.0618 Y-0.6056 Z-0.3066
N94150 X0.0757 Y-0.593 Z-0.3078
N94155 X0.0904 Y-0.5804 Z-0.3092
N94160 X0.106 Y-0.5677 Z-0.3106
N94165 X0.1154 Y-0.5605 Z-0.3114
N94170 X0.1225 Y-0.5551 Z-0.312
N94175 X0.1399 Y-0.5425 Z-0.3135
N94180 X0.1533 Y-0.5332 Z-0.3146
N94185 X0.166 Y-0.5249 Z-0.3157
N94190 X0.1786 Y-0.517 Z-0.3167
N94195 X0.1912 Y-0.5093 Z-0.3178
N94200 X0.2039 Y-0.502 Z-0.3188
N94205 X0.2291 Y-0.4883 Z-0.3208
N94210 X0.3176 Y-0.4405 Z-0.3278
N94215 X0.3934 Y-0.3993 Z-0.3339
N94220 X0.4777 Y-0.3532 Z-0.3406
N94225 X0.5578 Y-0.3091 Z-0.347
N94230 X0.6209 Y-0.274 Z-0.352
N94235 X0.7221 Y-0.2176 Z-0.3601
N94240 X0.8105 Y-0.1679 Z-0.3672
N94245 X0.9116 Y-0.1108 Z-0.3753
N94250 X0.9875 Y-0.0677 Z-0.3814
N94255 X1.0633 Y-0.0244 Z-0.3875
N94260 X1.1518 Y0.0266 Z-0.3947
N94265 X1.2276 Y0.0705 Z-0.4008
N94270 X1.3034 Y0.1147 Z-0.4069
N94275 X1.3919 Y0.1665 Z-0.4141
N94280 X1.4804 Y0.2187 Z-0.4213
N94285 X1.5689 Y0.2713 Z-0.4285
N94290 X1.6447 Y0.3166 Z-0.4347
N94295 X1.7079 Y0.3546 Z-0.4398
N94300 X1.7964 Y0.4082 Z-0.4471
N94305 X1.893 Y0.4671 Z-0.455
N94310 X1.9733 Y0.5164 Z-0.4616
N94315 X2.0491 Y0.5632 Z-0.4678
N94320 X2.1384 Y0.6186 Z-0.4751
N94325 X2.2261 Y0.6733 Z-0.4824
N94330 X2.2997 Y0.7196 Z-0.4884
N94335 X2.3651 Y0.7608 Z-0.4938
N94340 X2.4393 Y0.8079 Z-0.5
N94345 X2.5041 Y0.8493 Z-0.5053
N94350 X2.58 Y0.8979 Z-0.5116
N94355 X2.6179 Y0.9223 Z-0.5148
N94360 X2.6305 Y0.9303 Z-0.5158
N94365 X2.6432 Y0.9379 Z-0.5169
N94370 X2.6569 Y0.9467 Z-0.518
N94375 X2.6684 Y0.9548 Z-0.519
N94380 X2.6747 Y0.9593 Z-0.5195
N94385 X2.6811 Y0.9642 Z-0.5201
N94390 X2.6909 Y0.972 Z-0.521
N94395 X2.6937 Y0.9744 Z-0.5212
N94400 X2.7064 Y0.9856 Z-0.5224
N94405 X2.719 Y0.9977 Z-0.5236
N94410 X2.7316 Y1.011 Z-0.5248
N94415 X2.7417 Y1.0224 Z-0.5258
N94420 X2.7443 Y1.0255 Z-0.5261
N94425 X2.7517 Y1.0351 Z-0.5269
N94430 X2.7569 Y1.042 Z-0.5274
N94435 X2.761 Y1.0477 Z-0.5279
N94440 X2.7696 Y1.0603 Z-0.5288
N94445 X2.7774 Y1.0729 Z-0.5298
N94450 X2.7846 Y1.0855 Z-0.5307
N94455 X2.7911 Y1.0982 Z-0.5315
N94460 X2.7948 Y1.1057 Z-0.532
N94465 X2.7972 Y1.1108 Z-0.5323
N94470 X2.8027 Y1.1234 Z-0.5331
N94475 X2.8078 Y1.136 Z-0.5339
N94480 X2.8123 Y1.1486 Z-0.5346
N94485 X2.8164 Y1.1613 Z-0.5353
N94490 X2.8201 Y1.1741 Z-0.536
N94495 X2.8232 Y1.1865 Z-0.5367
N94500 X2.8259 Y1.1991 Z-0.5373
N94505 X2.8281 Y1.2118 Z-0.5379
N94510 X2.8299 Y1.2244 Z-0.5385
N94515 X2.8313 Y1.237 Z-0.539
N94520 X2.8323 Y1.2496 Z-0.5396
N94525 X2.8327 Y1.2569 Z-0.5399
N94530 X2.833 Y1.2622 Z-0.5401
N94535 X2.8333 Y1.2749 Z-0.5406
N94540 X2.8331 Y1.2875 Z-0.541
N94545 X2.8327 Y1.2987 Z-0.5414
N94550 X2.8317 Y1.3127 Z-0.5419
N94555 X2.8304 Y1.3253 Z-0.5423
N94560 X2.8287 Y1.338 Z-0.5427
N94565 X2.8267 Y1.3506 Z-0.5431
N94570 X2.8242 Y1.3632 Z-0.5434
N94575 X2.8213 Y1.3758 Z-0.5437
N94580 X2.818 Y1.3884 Z-0.544
N94585 X2.8141 Y1.4011 Z-0.5443
N94590 X2.8099 Y1.4137 Z-0.5446
N94595 X2.8075 Y1.4203 Z-0.5447
N94600 X2.8052 Y1.4263 Z-0.5448
N94605 X2.8002 Y1.4389 Z-0.545
N94610 X2.7897 Y1.4642 Z-0.5454
N94615 X2.7418 Y1.5777 Z-0.5473
N94620 X2.6886 Y1.7039 Z-0.5496
N94625 X2.6302 Y1.8428 Z-0.5525
N94630 X2.5664 Y1.9942 Z-0.5559
N94635 X2.5027 Y2.1457 Z-0.5596
N94640 X2.4409 Y2.2924 Z-0.5636
N94645 X2.3777 Y2.4428 Z-0.5679
N94650 X2.3329 Y2.5495 Z-0.5711
N94655 X2.3272 Y2.5629 Z-0.5715
N94660 X2.3217 Y2.5748 Z-0.5719
N94665 X2.3145 Y2.5891 Z-0.5723
N94670 X2.3084 Y2.6 Z-0.5725
N94675 X2.3019 Y2.6105 Z-0.5728
N94680 X2.3005 Y2.6126
N94685 X2.2918 Y2.6252 Z-0.5731
N94690 X2.2893 Y2.6287
N94695 X2.2823 Y2.6379 Z-0.5733
N94700 X2.2766 Y2.645 Z-0.5734
N94705 X2.2718 Y2.6505
N94710 X2.264 Y2.6592 Z-0.5735
N94715 X2.2602 Y2.6631 Z-0.5736
N94720 X2.2514 Y2.672
N94725 X2.2475 Y2.6757
N94730 X2.2387 Y2.6835
N94735 X2.2331 Y2.6883
N94740 X2.2261 Y2.6938
N94745 X2.2165 Y2.701 Z-0.5735
N94750 X2.2134 Y2.7032
N94755 X2.2008 Y2.7117 Z-0.5734
N94760 X2.1882 Y2.7194 Z-0.5732
N94765 X2.1755 Y2.7263 Z-0.573
N94770 X2.1629 Y2.7326 Z-0.5728
N94775 X2.1488 Y2.7388 Z-0.5724
N94780 X2.1376 Y2.7433 Z-0.5722
N94785 X2.125 Y2.7477 Z-0.5719
N94790 X2.1123 Y2.7516 Z-0.5715
N94795 X2.0997 Y2.7549 Z-0.5711
N94800 X2.087 Y2.7575 Z-0.5707
N94805 X2.0744 Y2.7597 Z-0.5702
N94810 X2.0618 Y2.7614 Z-0.5698
N94815 X2.0491 Y2.7627 Z-0.5693
N94820 X2.0365 Y2.7635 Z-0.5688
N94825 X2.0239 Y2.7638 Z-0.5682
N94830 X2.0112 Y2.7635 Z-0.5676
N94835 X1.9986 Y2.7627 Z-0.567
N94840 X1.9859 Y2.7614 Z-0.5664
N94845 X1.9733 Y2.7596 Z-0.5658
N94850 X1.9607 Y2.7573 Z-0.5651
N94855 X1.948 Y2.7544 Z-0.5644
N94860 X1.9371 Y2.7514 Z-0.5637
N94865 X1.9227 Y2.7469 Z-0.5629
N94870 X1.9101 Y2.7423 Z-0.5621
N94875 X1.9016 Y2.7388 Z-0.5615
N94880 X1.8975 Y2.7371 Z-0.5612
N94885 X1.8848 Y2.7313 Z-0.5604
N94890 X1.8722 Y2.7247 Z-0.5595
N94895 X1.8596 Y2.7174 Z-0.5585
N94900 X1.8536 Y2.7136 Z-0.558
N94905 X1.8469 Y2.7091 Z-0.5575
N94910 X1.8343 Y2.7001 Z-0.5565
N94915 X1.8196 Y2.6883 Z-0.5552
N94920 X1.7711 Y2.6457 Z-0.5508
N94925 X1.7621 Y2.6379 Z-0.5499
N94930 X1.7319 Y2.6126 Z-0.5472
N94935 X1.7165 Y2.6 Z-0.5459
N94940 X1.7007 Y2.5874 Z-0.5445
N94945 X1.6826 Y2.5731 Z-0.543
N94950 X1.6685 Y2.5621 Z-0.5417
N94955 X1.6518 Y2.5495 Z-0.5403
N94960 X1.6321 Y2.5348 Z-0.5387
N94965 X1.6177 Y2.5243 Z-0.5375
N94970 X1.5999 Y2.5117 Z-0.536
N94975 X1.5815 Y2.4987 Z-0.5345
N94980 X1.5689 Y2.4899 Z-0.5335
N94985 X1.5562 Y2.4814 Z-0.5325
N94990 X1.5257 Y2.4612 Z-0.5301
N94995 X1.5183 Y2.4564 Z-0.5295
N95000 X1.5057 Y2.4483 Z-0.5285
N95005 X1.4804 Y2.4325 Z-0.5266
N95010 X1.4654 Y2.4233 Z-0.5254
N95015 X1.4551 Y2.4171 Z-0.5247
N95020 X1.4172 Y2.3948 Z-0.5218
N95025 X1.4006 Y2.3855 Z-0.5206
N95030 X1.3666 Y2.3667 Z-0.5182
N95035 X1.354 Y2.3599 Z-0.5173
N95040 X1.3287 Y2.3468 Z-0.5155
N95045 X1.3161 Y2.3403 Z-0.5146
N95050 X1.3034 Y2.3339 Z-0.5137
N95055 X1.2908 Y2.3277 Z-0.5129
N95060 X1.2534 Y2.3097 Z-0.5103
N95065 X1.2402 Y2.3037 Z-0.5094
N95070 X1.215 Y2.2923 Z-0.5078
N95075 X1.1975 Y2.2845 Z-0.5066
N95080 X1.1771 Y2.2758 Z-0.5053
N95085 X1.1518 Y2.2652 Z-0.5037
N95090 X1.1371 Y2.2592 Z-0.5028
N95095 X1.1265 Y2.2551 Z-0.5021
N95100 X1.1012 Y2.2453 Z-0.5006
N95105 X1.0886 Y2.2405 Z-0.4998
N95110 X1.0711 Y2.234 Z-0.4987
N95115 X1.0356 Y2.2214 Z-0.4966
N95120 X1.0254 Y2.2178 Z-0.496
N95125 X1.0128 Y2.2136 Z-0.4953
N95130 X0.9748 Y2.2013 Z-0.4931
N95135 X0.9581 Y2.1961 Z-0.4922
N95140 X0.9154 Y2.1835 Z-0.4898
N95145 X0.9116 Y2.1825 Z-0.4896
N95150 X0.8611 Y2.1688 Z-0.4869
N95155 X0.8484 Y2.1657 Z-0.4863
N95160 X0.8105 Y2.1565 Z-0.4843
N95165 X0.7979 Y2.1536 Z-0.4837
N95170 X0.76 Y2.1455 Z-0.4818
N95175 X0.7473 Y2.1428 Z-0.4812
N95180 X0.7347 Y2.1402 Z-0.4806
N95185 X0.7094 Y2.1354 Z-0.4794
N95190 X0.6841 Y2.1309 Z-0.4782
N95195 X0.6589 Y2.1267 Z-0.4771
N95200 X0.6336 Y2.1228 Z-0.476
N95205 X0.6173 Y2.1204 Z-0.4753
N95210 X0.5957 Y2.1175 Z-0.4744
N95215 X0.5704 Y2.1143 Z-0.4733
N95220 X0.5578 Y2.1128 Z-0.4728
N95225 X0.5451 Y2.1114 Z-0.4723
N95230 X0.5072 Y2.1076 Z-0.4708
N95235 X0.4946 Y2.1064 Z-0.4703
N95240 X0.4693 Y2.1044 Z-0.4693
N95245 X0.444 Y2.1026 Z-0.4684
N95250 X0.4314 Y2.1018 Z-0.4679
N95255 X0.4187 Y2.1011 Z-0.4675
N95260 X0.3808 Y2.0994 Z-0.4662
N95265 X0.3682 Y2.0989 Z-0.4658
N95270 X0.3429 Y2.0982 Z-0.4649
N95275 X0.3176 Y2.0978 Z-0.4641
N95280 X0.305 Y2.0977 Z-0.4637
N95285 X0.2544 Y2.0982 Z-0.4622
N95290 X0.2418 Y2.0984 Z-0.4619
N95295 X0.2165 Y2.0992 Z-0.4612
N95300 X0.1912 Y2.1002 Z-0.4605
N95305 X0.1786 Y2.1007 Z-0.4602
N95310 X0.1533 Y2.1022 Z-0.4596
N95315 X0.128 Y2.1039 Z-0.459
N95320 X0.1154 Y2.1048 Z-0.4587
N95325 X0.0901 Y2.107 Z-0.4581
N95330 X0.0648 Y2.1093 Z-0.4576
N95335 X0.0522 Y2.1106 Z-0.4574
N95340 X0.0269 Y2.1134 Z-0.4569
N95345 X-0.011 Y2.118 Z-0.4562
N95350 X-0.15 Y2.1353 Z-0.454
N95355 X-0.2764 Y2.151 Z-0.4522
N95360 X-0.3775 Y2.1636 Z-0.4511
N95365 X-0.466 Y2.1747 Z-0.4502
N95370 X-0.5797 Y2.1889 Z-0.4492
N95375 X-0.7061 Y2.2047 Z-0.4485
N95380 X-0.8325 Y2.2205 Z-0.4481
N95385 X-1.0474 Y2.2474 Z-0.448
N95390 X-1.1864 Y2.2648 Z-0.4485
N95395 X-1.3254 Y2.2821 Z-0.4493
N95400 X-1.4518 Y2.2979 Z-0.4503
N95405 X-1.5656 Y2.3122 Z-0.4515
N95410 X-1.6793 Y2.3264 Z-0.453
N95415 X-1.8057 Y2.3423 Z-0.4548
N95420 X-1.9321 Y2.3581 Z-0.457
N95425 X-2.0711 Y2.3756 Z-0.4597
N95430 X-2.0838 Y2.3772 Z-0.4599
N95435 X-2.0964 Y2.3785 Z-0.4602
N95440 X-2.109 Y2.3797 Z-0.4604
N95445 X-2.1217 Y2.3806 Z-0.4606
N95450 X-2.1343 Y2.3812 Z-0.4608
N95455 X-2.147 Y2.3815 Z-0.461
N95460 X-2.1596 Z-0.4612
N95465 X-2.1722 Y2.3811 Z-0.4613
N95470 X-2.1849 Y2.3805 Z-0.4615
N95475 X-2.1975 Y2.3795 Z-0.4616
N95480 X-2.2101 Y2.3783 Z-0.4617
N95485 X-2.2228 Y2.3768 Z-0.4618
N95490 X-2.2354 Y2.3749
N95495 X-2.2481 Y2.3728 Z-0.4619
N95500 X-2.2607 Y2.3704
N95505 X-2.2733 Y2.3676
N95510 X-2.286 Y2.3645
N95515 X-2.2986 Y2.3611 Z-0.4618
N95520 X-2.3113 Y2.3573
N95525 X-2.3239 Y2.3532 Z-0.4617
N95530 X-2.3396 Y2.3476 Z-0.4616
N95535 X-2.3492 Y2.3439 Z-0.4615
N95540 X-2.3618 Y2.3388 Z-0.4613
N95545 X-2.3745 Y2.3332 Z-0.4612
N95550 X-2.3871 Y2.3272 Z-0.461
N95555 X-2.3997 Y2.3208 Z-0.4608
N95560 X-2.4124 Y2.3141 Z-0.4606
N95565 X-2.425 Y2.3069 Z-0.4603
N95570 X-2.4376 Y2.2991 Z-0.46
N95575 X-2.4503 Y2.2908 Z-0.4597
N95580 X-2.4596 Y2.2845 Z-0.4594
N95585 X-2.4629 Y2.2821 Z-0.4593
N95590 X-2.4768 Y2.2719 Z-0.4589
N95595 X-2.4927 Y2.2592 Z-0.4584
N95600 X-2.5008 Y2.2523 Z-0.4581
N95605 X-2.5074 Y2.2466 Z-0.4578
N95610 X-2.5135 Y2.2411 Z-0.4576
N95615 X-2.521 Y2.234 Z-0.4572
N95620 X-2.5261 Y2.229 Z-0.457
N95625 X-2.5337 Y2.2214 Z-0.4566
N95630 X-2.5388 Y2.2162 Z-0.4564
N95635 X-2.5456 Y2.2088 Z-0.456
N95640 X-2.5514 Y2.2024 Z-0.4557
N95645 X-2.5568 Y2.1961 Z-0.4554
N95650 X-2.564 Y2.1875 Z-0.455
N95655 X-2.5672 Y2.1835 Z-0.4548
N95660 X-2.577 Y2.1709 Z-0.4542
N95665 X-2.5862 Y2.1583 Z-0.4535
N95670 X-2.5948 Y2.1457 Z-0.4529
N95675 X-2.6029 Y2.133 Z-0.4522
N95680 X-2.6105 Y2.1204 Z-0.4516
N95685 X-2.6175 Y2.1078 Z-0.4509
N95690 X-2.6241 Y2.0952 Z-0.4502
N95695 X-2.6303 Y2.0826 Z-0.4495
N95700 X-2.636 Y2.0699 Z-0.4488
N95705 X-2.6399 Y2.0609 Z-0.4483
N95710 X-2.6463 Y2.0447 Z-0.4474
N95715 X-2.6508 Y2.0321 Z-0.4466
N95720 X-2.6525 Y2.0272 Z-0.4464
N95725 X-2.655 Y2.0195 Z-0.4459
N95730 X-2.6589 Y2.0068 Z-0.4452
N95735 X-2.6623 Y1.9942 Z-0.4444
N95740 X-2.6654 Y1.9816 Z-0.4437
N95745 X-2.6681 Y1.969 Z-0.4429
N95750 X-2.6705 Y1.9564 Z-0.4421
N95755 X-2.6725 Y1.9437 Z-0.4413
N95760 X-2.6742 Y1.9311 Z-0.4406
N95765 X-2.6756 Y1.9185 Z-0.4398
N95770 X-2.6767 Y1.9059 Z-0.439
N95775 X-2.6775 Y1.8933 Z-0.4382
N95780 X-2.678 Y1.8806 Z-0.4373
N95785 X-2.6781 Y1.868 Z-0.4365
N95790 X-2.6778 Y1.8485 Z-0.4352
N95795 X-2.6725 Y1.6282 Z-0.4208
N95800 X-2.6688 Y1.4642 Z-0.4101
N95805 X-2.6654 Y1.3001 Z-0.3995
N95810 X-2.6625 Y1.1486 Z-0.3898
N95815 X-2.6603 Y1.0224 Z-0.3818
N95820 X-2.6587 Y0.9215 Z-0.3755
N95825 X-2.6571 Y0.8079 Z-0.3685
N95830 X-2.6556 Y0.6817 Z-0.3607
N95835 X-2.6546 Y0.5807 Z-0.3546
N95840 X-2.6538 Y0.4798 Z-0.3486
N95845 X-2.6532 Y0.3788 Z-0.3427
N95850 X-2.6529 Y0.2652 Z-0.3361
N95855 Y0.1895 Z-0.3319
N95860 X-2.653 Y0.1012 Z-0.327
N95865 X-2.6534 Y0.0002 Z-0.3216
N95870 X-2.6539 Y-0.0755 Z-0.3176
N95875 X-2.6547 Y-0.1639 Z-0.3131
N95880 X-2.6555 Y-0.2396 Z-0.3094
N95885 X-2.6567 Y-0.3279 Z-0.3052
N95890 X-2.6581 Y-0.4163 Z-0.3012
N95895 X-2.6597 Y-0.5046 Z-0.2974
N95900 X-2.6614 Y-0.593 Z-0.2939
N95905 X-2.6633 Y-0.6813 Z-0.2906
N95910 X-2.6651 Y-0.7629 Z-0.2878
N95915 Y-0.7667 Z-0.2877
N95920 X-2.6453 Y-0.7318
N95925 X-2.627 Y-0.7022
N95930 X-2.6235 Y-0.6962
N95935 X-2.6202 Y-0.6901
N95940 X-2.617 Y-0.6838 Z-0.2878
N95945 X-2.6141 Y-0.6776
N95950 X-2.6113 Y-0.6712 Z-0.2879
N95955 X-2.6086 Y-0.6647 Z-0.288
N95960 X-2.6061 Y-0.6582 Z-0.2881
N95965 X-2.6037 Y-0.6517 Z-0.2882
N95970 X-2.6014 Y-0.6451 Z-0.2883
N95975 X-2.5971 Y-0.6318 Z-0.2886
N95980 X-2.5909 Y-0.6117 Z-0.2891
N95985 X-2.5848 Y-0.5917 Z-0.2896
N95990 X-2.5806 Y-0.5785 Z-0.2899
N95995 X-2.5783 Y-0.572 Z-0.29
N96000 X-2.576 Y-0.5655 Z-0.2902
N96005 X-2.5736 Y-0.559 Z-0.2903
N96010 X-2.571 Y-0.5526 Z-0.2905
N96015 X-2.5683 Y-0.5462 Z-0.2906
N96020 X-2.5655 Y-0.5399 Z-0.2907
N96025 X-2.5625 Y-0.5338 Z-0.2908
N96030 X-2.5593 Y-0.5277 Z-0.2909
N96035 X-2.5559 Y-0.5217 Z-0.291
N96040 X-2.5523 Y-0.5159 Z-0.2911
N96045 X-2.5485 Y-0.5101
N96050 X-2.5445 Y-0.5046
N96055 X-2.5402 Y-0.4993 Z-0.2912
N96060 X-2.5261 Y-0.483
N96065 X-2.5116 Y-0.4668
N96070 X-2.5002 Y-0.4541
N96075 X-2.4882 Y-0.4414
N96080 X-2.4756 Y-0.4283
N96085 X-2.4629 Y-0.4154 Z-0.2911
N96090 X-2.4503 Y-0.4029
N96095 X-2.4376 Y-0.3906 Z-0.2912
N96100 X-2.4248 Y-0.3784 Z-0.2911
N96105 X-2.4112 Y-0.3658 Z-0.2912
N96110 X-2.383 Y-0.3406
N96115 X-2.3618 Y-0.3228
N96120 X-2.3492 Y-0.3123
N96125 X-2.3365 Y-0.3021 Z-0.2911
N96130 X-2.3212 Y-0.2901 Z-0.2912
N96135 X-2.3048 Y-0.2775 Z-0.2911
N96140 X-2.2878 Y-0.2648 Z-0.2912
N96145 X-2.2703 Y-0.2522
N96150 X-2.2523 Y-0.2396 Z-0.2911
N96155 X-2.2336 Y-0.227 Z-0.2912
N96160 X-2.2144 Y-0.2144 Z-0.2911
N96165 X-2.1975 Y-0.2036 Z-0.2912
N96170 X-2.1722 Y-0.1881
N96175 X-2.1596 Y-0.1807
N96180 X-2.1343 Y-0.1663
N96185 X-2.1217 Y-0.1593
N96190 X-2.1067 Y-0.1513
N96195 X-2.0964 Y-0.1459
N96200 X-2.0824 Y-0.1386
N96205 X-2.0711 Y-0.133 Z-0.2911
N96210 X-2.0568 Y-0.126 Z-0.2912
N96215 X-2.0458 Y-0.1208
N96220 X-2.0302 Y-0.1134
N96225 X-2.0079 Y-0.1034
N96230 X-1.9826 Y-0.0926
N96235 X-1.97 Y-0.0874
N96240 X-1.9574 Y-0.0823
N96245 X-1.9321 Y-0.0726 Z-0.2911
N96250 X-1.9195 Y-0.0679 Z-0.2912
N96255 X-1.8942 Y-0.059 Z-0.2911
N96260 X-1.8815 Y-0.0546 Z-0.2912
N96265 X-1.8683 Y-0.0503
N96270 X-1.8436 Y-0.0425 Z-0.2911
N96275 X-1.8275 Y-0.0377 Z-0.2912
N96280 X-1.8183 Y-0.035
N96285 X-1.7804 Y-0.0247
N96290 X-1.7678 Y-0.0216
N96295 X-1.7425 Y-0.0156 Z-0.2911
N96300 X-1.7285 Y-0.0124 Z-0.2912
N96305 X-1.7172 Y-0.01
N96310 X-1.692 Y-0.0049 Z-0.2911
N96315 X-1.6793 Y-0.0025 Z-0.2912
N96320 X-1.664 Y0.0002
N96325 X-1.6414 Y0.0039 Z-0.2911
N96330 X-1.6288 Y0.0058 Z-0.2912
N96335 X-1.6161 Y0.0077 Z-0.2911
N96340 X-1.6035 Y0.0093 Z-0.2912
N96345 X-1.5782 Y0.0124
N96350 X-1.5656 Y0.0138 Z-0.2911
N96355 X-1.5529 Y0.0151 Z-0.2912
N96360 X-1.5277 Y0.0173
N96365 X-1.515 Y0.0182 Z-0.2911
N96370 X-1.5024 Y0.0191 Z-0.2912
N96375 X-1.4771 Y0.0204
N96380 X-1.4645 Y0.0209
N96385 X-1.4518 Y0.0214
N96390 X-1.4139 Y0.022
N96395 X-1.4013 Y0.0219
N96400 X-1.376 Y0.0214
N96405 X-1.3633 Y0.0211
N96410 X-1.3507 Y0.0206
N96415 X-1.3254 Y0.0194
N96420 X-1.3128 Y0.0186
N96425 X-1.3002 Y0.0177
N96430 X-1.2875 Y0.0166 Z-0.2911
N96435 X-1.2622 Y0.0143 Z-0.2912
N96440 X-1.2479 Y0.0128
N96445 X-1.237 Y0.0116
N96450 X-1.2243 Y0.01
N96455 X-1.2117 Y0.0083
N96460 X-1.199 Y0.0066
N96465 X-1.1864 Y0.0047
N96470 X-1.1611 Y0.0006
N96475 X-1.1485 Y-0.0016
N96480 X-1.1358 Y-0.0039
N96485 X-1.1106 Y-0.009
N96490 X-1.094 Y-0.0124
N96495 X-1.0853 Y-0.0144
N96500 X-1.06 Y-0.0203
N96505 X-1.0474 Y-0.0234
N96510 X-1.0347 Y-0.0267
N96515 X-1.0095 Y-0.0336
N96520 X-0.995 Y-0.0377
N96525 X-0.9842 Y-0.0409
N96530 X-0.9543 Y-0.0503
N96535 X-0.9463 Y-0.0529
N96540 X-0.9336 Y-0.0572 Z-0.2911
N96545 X-0.9083 Y-0.0661 Z-0.2912
N96550 X-0.8957 Y-0.0707
N96555 X-0.8828 Y-0.0755 Z-0.2911
N96560 X-0.8578 Y-0.0853 Z-0.2912
N96565 X-0.8452 Y-0.0905 Z-0.2911
N96570 X-0.8325 Y-0.0958 Z-0.2912
N96575 X-0.8199 Y-0.1012
N96580 X-0.8072 Y-0.1068
N96585 X-0.7925 Y-0.1134 Z-0.2911
N96590 X-0.782 Y-0.1183 Z-0.2912
N96595 X-0.7567 Y-0.1304
N96600 X-0.7402 Y-0.1386
N96605 X-0.7314 Y-0.1431
N96610 X-0.7061 Y-0.1565
N96615 X-0.6925 Y-0.1639
N96620 X-0.6556 Y-0.185
N96625 X-0.6429 Y-0.1927
N96630 X-0.6177 Y-0.2083
N96635 X-0.605 Y-0.2164
N96640 X-0.589 Y-0.227
N96645 X-0.5797 Y-0.2332
N96650 X-0.5671 Y-0.2418
N96655 X-0.5523 Y-0.2522
N96660 X-0.5292 Y-0.269 Z-0.2911
N96665 X-0.5165 Y-0.2784
N96670 X-0.5014 Y-0.2901 Z-0.2912
N96675 X-0.4853 Y-0.3027
N96680 X-0.4697 Y-0.3153
N96685 X-0.4396 Y-0.3406
N96690 X-0.4115 Y-0.3658 Z-0.2911
N96695 X-0.3978 Y-0.3784 Z-0.2912
N96700 X-0.3845 Y-0.391
N96705 X-0.3715 Y-0.4037 Z-0.2911
N96710 X-0.3588 Y-0.4163 Z-0.2912
N96715 X-0.3465 Y-0.4289
N96720 X-0.3344 Y-0.4415
N96725 X-0.3225 Y-0.4541 Z-0.2911
N96730 X-0.311 Y-0.4668 Z-0.2912
N96735 X-0.289 Y-0.4914
N96740 X-0.2638 Y-0.5216
N96745 X-0.2511 Y-0.5373
N96750 X-0.2372 Y-0.5551 Z-0.2911
N96755 X-0.2259 Y-0.57
N96760 X-0.2181 Y-0.5804 Z-0.2912
N96765 X-0.2089 Y-0.593 Z-0.2911
N96770 X-0.1999 Y-0.6056 Z-0.2912
N96775 X-0.1911 Y-0.6182
N96780 X-0.1825 Y-0.6308
N96785 X-0.1657 Y-0.6561
N96790 X-0.1576 Y-0.6687
N96795 X-0.1421 Y-0.6939
N96800 X-0.1344 Y-0.7066
N96805 X-0.1135 Y-0.7432
N96810 X-0.1128 Y-0.744
N96815 X-0.1054 Y-0.7318 Z-0.292
N96820 X-0.0975 Y-0.7192 Z-0.293
N96825 X-0.0868 Y-0.7029 Z-0.2942
N96830 X-0.0807 Y-0.6939 Z-0.2948
N96835 X-0.0717 Y-0.6813 Z-0.2958
N96840 X-0.0615 Y-0.6676 Z-0.2969
N96845 X-0.0527 Y-0.6561 Z-0.2979
N96850 X-0.0489 Y-0.6513 Z-0.2983
N96855 X-0.0363 Y-0.6359 Z-0.2996
N96860 X-0.0236 Y-0.6214 Z-0.3009
N96865 X-0.0091 Y-0.6056 Z-0.3023
N96870 X0.0031 Y-0.593 Z-0.3035
N96875 X0.0158 Y-0.5804 Z-0.3047
N96880 X0.0291 Y-0.5677 Z-0.306
N96885 X0.043 Y-0.5551 Z-0.3073
N96890 X0.0577 Y-0.5425 Z-0.3086
N96895 X0.0733 Y-0.5299 Z-0.31
N96900 X0.0775 Y-0.5266 Z-0.3104
N96905 X0.0901 Y-0.5169 Z-0.3115
N96910 X0.1069 Y-0.5046 Z-0.3129
N96915 X0.1154 Y-0.4986 Z-0.3136
N96920 X0.125 Y-0.492 Z-0.3145
N96925 X0.1407 Y-0.4817 Z-0.3158
N96930 X0.1533 Y-0.4738 Z-0.3168
N96935 X0.166 Y-0.4662 Z-0.3178
N96940 X0.1786 Y-0.4588 Z-0.3189
N96945 X0.1912 Y-0.4519 Z-0.3199
N96950 X0.2923 Y-0.3973 Z-0.3279
N96955 X0.3736 Y-0.3532 Z-0.3343
N96960 X0.4566 Y-0.3077 Z-0.341
N96965 X0.5451 Y-0.2589 Z-0.348
N96970 X0.6083 Y-0.2238 Z-0.3531
N96975 X0.6968 Y-0.1744 Z-0.3601
N96980 X0.783 Y-0.126 Z-0.3671
N96985 X0.8724 Y-0.0755 Z-0.3742
N96990 X0.9392 Y-0.0377 Z-0.3796
N96995 X1.0254 Y0.0116 Z-0.3865
N97000 X1.0935 Y0.0507 Z-0.392
N97005 X1.1808 Y0.1012 Z-0.3991
N97010 X1.2655 Y0.1505 Z-0.4059
N97015 X1.3414 Y0.1948 Z-0.4121
N97020 X1.4298 Y0.2469 Z-0.4193
N97025 X1.5057 Y0.2918 Z-0.4254
N97030 X1.5815 Y0.337 Z-0.4316
N97035 X1.6573 Y0.3826 Z-0.4378
N97040 X1.7205 Y0.4207 Z-0.4429
N97045 X1.809 Y0.4744 Z-0.4502
N97050 X1.9003 Y0.5302 Z-0.4577
N97055 X1.9859 Y0.5829 Z-0.4647
N97060 X2.087 Y0.6455 Z-0.473
N97065 X2.1654 Y0.6943 Z-0.4795
N97070 X2.2261 Y0.7323 Z-0.4845
N97075 X2.3272 Y0.796 Z-0.4928
N97080 X2.4056 Y0.8458 Z-0.4993
N97085 X2.4915 Y0.9005 Z-0.5064
N97090 X2.5926 Y0.9655 Z-0.5148
N97095 X2.6052 Y0.9734 Z-0.5159
N97100 X2.6179 Y0.9811 Z-0.5169
N97105 X2.6234 Y0.9846 Z-0.5174
N97110 X2.6305 Y0.9892 Z-0.518
N97115 X2.6432 Y0.9982 Z-0.519
N97120 X2.6581 Y1.0098 Z-0.5204
N97125 X2.6684 Y1.0187 Z-0.5213
N97130 X2.6726 Y1.0224 Z-0.5217
N97135 X2.6811 Y1.0306 Z-0.5225
N97140 X2.6855 Y1.0351 Z-0.5229
N97145 X2.6937 Y1.0436 Z-0.5237
N97150 X2.6973 Y1.0477 Z-0.5241
N97155 X2.7064 Y1.0581 Z-0.525
N97160 X2.7176 Y1.0729 Z-0.5262
N97165 X2.719 Y1.0749 Z-0.5264
N97170 X2.7263 Y1.0855 Z-0.5272
N97175 X2.7343 Y1.0982 Z-0.5281
N97180 X2.7414 Y1.1108 Z-0.529
N97185 X2.7479 Y1.1234 Z-0.5299
N97190 X2.7537 Y1.136 Z-0.5307
N97195 X2.7569 Y1.1434 Z-0.5311
N97200 X2.759 Y1.1486 Z-0.5315
N97205 X2.7638 Y1.1613 Z-0.5322
N97210 X2.768 Y1.1739 Z-0.5329
N97215 X2.7717 Y1.1865 Z-0.5336
N97220 X2.7748 Y1.1991 Z-0.5343
N97225 X2.7774 Y1.2118 Z-0.5349
N97230 X2.7794 Y1.2244 Z-0.5355
N97235 X2.781 Y1.237 Z-0.5361
N97240 X2.7822 Y1.2496 Z-0.5366
N97245 X2.783 Y1.2622 Z-0.5371
N97250 X2.7834 Y1.2749 Z-0.5376
N97255 X2.7832 Y1.2875 Z-0.5381
N97260 X2.7826 Y1.3001 Z-0.5386
N97265 X2.7815 Y1.3127 Z-0.539
N97270 X2.7801 Y1.3253 Z-0.5394
N97275 X2.7782 Y1.338 Z-0.5398
N97280 X2.7758 Y1.3506 Z-0.5401
N97285 X2.773 Y1.3632 Z-0.5405
N97290 X2.7695 Y1.3763 Z-0.5408
N97295 X2.7658 Y1.3884 Z-0.541
N97300 X2.7614 Y1.4011 Z-0.5413
N97305 X2.7565 Y1.4137 Z-0.5415
N97310 X2.7514 Y1.4263 Z-0.5417
N97315 X2.7408 Y1.4515 Z-0.5421
N97320 X2.6937 Y1.5634 Z-0.544
N97325 X2.6398 Y1.6913 Z-0.5464
N97330 X2.58 Y1.8334 Z-0.5493
N97335 X2.5229 Y1.969 Z-0.5524
N97340 X2.4645 Y2.1078 Z-0.5559
N97345 X2.4061 Y2.2466 Z-0.5596
N97350 X2.3424 Y2.3981 Z-0.5639
N97355 X2.2893 Y2.5246 Z-0.5678
N97360 X2.284 Y2.5369 Z-0.5681
N97365 X2.2766 Y2.5534 Z-0.5686
N97370 X2.2722 Y2.5621 Z-0.5689
