%
(1001)
(T2 D=0.3937 CR=0. TAPER=118DEG - ZMIN=-1.9427 - DRILL)
(T3 D=0.315 CR=0. TAPER=118DEG - ZMIN=-1.919 - DRILL)
(T4 D=0.2362 CR=0. TAPER=118DEG - ZMIN=-1.8675 - DRILL)
(T131 D=0.5 CR=0. TAPER=45DEG - ZMIN=-0.4202 - CHAMFER MILL)
(T133 D=0.5 CR=0.02 - ZMIN=-1.6643 - BULLNOSE END MILL)
(T134 D=0.5 CR=0. - ZMIN=-0.7212 - FLAT END MILL)
(T135 D=0.5 CR=0. - ZMIN=-1.6744 - FLAT END MILL)
(T137 D=0.5 CR=0.25 - ZMIN=-0.5888 - BALL END MILL)
(T171 D=2. CR=0. - ZMIN=-0.2817 - FACE MILL)
N15 G21
N10 G90 G94 G17 G91.1 G64 P0.01 (mm)
N15 G20
N20 G53 G0 Z0.

(PARALLEL12 2)
N32035 G0 X3.0351 Y1.0819
N32040 Z0.6
N32045 Z-0.4458
N32050 G1 Z-0.4921 F39.37
N32055 X3.0349 Y1.0817 Z-0.4976
N32060 X3.0342 Y1.081 Z-0.503
N32065 X3.0332 Y1.08 Z-0.5082
N32070 X3.0318 Y1.0785 Z-0.5133
N32075 X3.0299 Y1.0767 Z-0.5181
N32080 X3.0278 Y1.0745 Z-0.5226
N32085 X3.0252 Y1.072 Z-0.5267
N32090 X3.0224 Y1.0692 Z-0.5305
N32095 X3.0193 Y1.0661 Z-0.5337
N32100 X3.016 Y1.0628 Z-0.5365
N32105 X3.0125 Y1.0593 Z-0.5388
N32110 X3.0088 Y1.0556 Z-0.5404
N32115 X3.0051 Y1.0518 Z-0.5416
N32120 X3.0012 Y1.048 Z-0.5421
N32125 X2.9974 Y1.0441 Z-0.542
N32130 X2.6703 Y0.717 Z-0.5109
N32135 X2.5108 Y0.5576 Z-0.4958
N32140 X2.5094 Y0.5563 Z-0.4956
N32145 X2.5079 Y0.5551 Z-0.4955
N32150 X2.5062 Y0.554 Z-0.4954
N32155 X2.5045 Y0.553 Z-0.4952
N32160 X2.5027 Y0.5522 Z-0.4951
N32165 X2.5009 Y0.5515 Z-0.495
N32170 X2.499 Y0.551 Z-0.4948
N32175 X2.4971 Y0.5506 Z-0.4947
N32180 X2.4952 Y0.5504 Z-0.4946
N32185 X2.4932 Y0.5503 Z-0.4945
N32190 X2.4912 Y0.5504 Z-0.4943
N32195 X2.4893 Y0.5506 Z-0.4942
N32200 X2.4874 Y0.551 Z-0.4941
N32205 X2.4855 Y0.5516 Z-0.494
N32210 X2.4836 Y0.5522 Z-0.4939
N32215 X2.4819 Y0.5531
N32220 X2.4802 Y0.554 Z-0.4938
N32225 X2.4785 Y0.5551 Z-0.4937
N32230 X2.477 Y0.5563
N32235 X2.4755 Y0.5577 Z-0.4936
N32240 X2.4742 Y0.5591
N32245 X2.473 Y0.5607
N32250 X2.4719 Y0.5623
N32255 X2.4709 Y0.564
N32260 X2.4701 Y0.5658
N32265 X2.4694 Y0.5676
N32270 X2.4689 Y0.5695
N32275 X2.4685 Y0.5714 Z-0.4937
N32280 X2.4683 Y0.5734
N32285 X2.4682 Y0.5754 Z-0.4938
N32290 X2.4683 Y0.5773 Z-0.4939
N32295 X2.4685 Y0.5793 Z-0.494
N32300 X2.4689 Y0.5812
N32305 X2.4694 Y0.5831 Z-0.4941
N32310 X2.4701 Y0.5849 Z-0.4942
N32315 X2.4709 Y0.5867 Z-0.4944
N32320 X2.4719 Y0.5884 Z-0.4945
N32325 X2.473 Y0.59 Z-0.4946
N32330 X2.4742 Y0.5916 Z-0.4947
N32335 X2.4755 Y0.593 Z-0.4949
N32340 X3.0324 Y1.1499 Z-0.5478
N32345 X3.0347 Y1.1522 Z-0.5479
N32350 X3.037 Y1.1545 Z-0.5474
N32355 X3.0393 Y1.1567 Z-0.5466
N32360 X3.0414 Y1.1589 Z-0.5454
N32365 X3.0439 Y1.1614 Z-0.5439
N32370 X3.0465 Y1.164 Z-0.5431
N32375 X3.0492 Y1.1667 Z-0.5428
N32380 X3.0973 Y1.2148
N32385 X3.0987 Y1.2163
N32390 X3.0999 Y1.2178
N32395 X3.101 Y1.2195 Z-0.5429
N32400 X3.1019 Y1.2212
N32405 X3.1028 Y1.223
N32410 X3.1035 Y1.2248 Z-0.543
N32415 X3.104 Y1.2267 Z-0.5431
N32420 X3.1044 Y1.2286 Z-0.5432
N32425 X3.1046 Y1.2306 Z-0.5433
N32430 X3.1047 Y1.2325 Z-0.5434
N32435 X3.1046 Y1.2345 Z-0.5435
N32440 X3.1044 Y1.2365 Z-0.5436
N32445 X3.104 Y1.2384 Z-0.5437
N32450 X3.1035 Y1.2403 Z-0.5438
N32455 X3.1028 Y1.2421 Z-0.544
N32460 X3.102 Y1.2439 Z-0.5441
N32465 X3.101 Y1.2456 Z-0.5442
N32470 X3.0999 Y1.2472 Z-0.5444
N32475 X3.0987 Y1.2488 Z-0.5445
N32480 X3.0974 Y1.2502 Z-0.5447
N32485 X3.0959 Y1.2516 Z-0.5448
N32490 X3.0944 Y1.2528 Z-0.545
N32495 X3.0928 Y1.2539 Z-0.5451
N32500 X3.0911 Y1.2548 Z-0.5453
N32505 X3.0893 Y1.2556 Z-0.5454
N32510 X3.0874 Y1.2563 Z-0.5455
N32515 X3.0855 Y1.2569 Z-0.5457
N32520 X3.0836 Y1.2572 Z-0.5458
N32525 X3.0817 Y1.2575 Z-0.5459
N32530 X3.0797 Z-0.546
N32535 X3.0777 Z-0.5461
N32540 X3.0758 Y1.2572 Z-0.5462
N32545 X3.0739 Y1.2568 Z-0.5463
N32550 X3.072 Y1.2563 Z-0.5464
N32555 X3.0701 Y1.2556
N32560 X3.0683 Y1.2548 Z-0.5465
N32565 X3.0666 Y1.2538
N32570 X3.065 Y1.2527
N32575 X3.0634 Y1.2515 Z-0.5466
N32580 X3.062 Y1.2502
N32585 X3.0593 Y1.2475 Z-0.5469
N32590 X3.0567 Y1.2449 Z-0.5477
N32595 X3.0542 Y1.2424 Z-0.5491
N32600 X3.0521 Y1.2403 Z-0.5504
N32605 X3.0498 Y1.238 Z-0.5512
N32610 X3.0475 Y1.2357 Z-0.5516
N32615 X3.0452 Y1.2334
N32620 X2.4712 Y0.6594 Z-0.4968
N32625 X2.2851 Y0.4733 Z-0.4792
N32630 X2.1345 Y0.3227 Z-0.4649
N32635 X2.1331 Y0.3214 Z-0.4648
N32640 X2.1315 Y0.3202 Z-0.4646
N32645 X2.1299 Y0.3191 Z-0.4645
N32650 X2.1282 Y0.3181 Z-0.4644
N32655 X2.1264 Y0.3173 Z-0.4642
N32660 X2.1246 Y0.3166 Z-0.4641
N32665 X2.1227 Y0.3161 Z-0.464
N32670 X2.1208 Y0.3157 Z-0.4638
N32675 X2.1188 Y0.3155 Z-0.4637
N32680 X2.1169 Y0.3154 Z-0.4636
N32685 X2.1149 Y0.3155 Z-0.4635
N32690 X2.113 Y0.3157 Z-0.4633
N32695 X2.111 Y0.3161 Z-0.4632
N32700 X2.1092 Y0.3167 Z-0.4631
N32705 X2.1073 Y0.3173
N32710 X2.1055 Y0.3182 Z-0.463
N32715 X2.1038 Y0.3191 Z-0.4629
N32720 X2.1022 Y0.3202 Z-0.4628
N32725 X2.1007 Y0.3214
N32730 X2.0992 Y0.3228 Z-0.4627
N32735 X2.0979 Y0.3242
N32740 X2.0967 Y0.3258
N32745 X2.0956 Y0.3274
N32750 X2.0946 Y0.3291
N32755 X2.0938 Y0.3309
N32760 X2.0931 Y0.3327
N32765 X2.0926 Y0.3346
N32770 X2.0922 Y0.3365 Z-0.4628
N32775 X2.092 Y0.3385
N32780 X2.0919 Y0.3405 Z-0.4629
N32785 X2.092 Y0.3424 Z-0.463
N32790 X2.0922 Y0.3444
N32795 X2.0926 Y0.3463 Z-0.4631
N32800 X2.0931 Y0.3482 Z-0.4632
N32805 X2.0938 Y0.35 Z-0.4633
N32810 X2.0946 Y0.3518 Z-0.4634
N32815 X2.0956 Y0.3535 Z-0.4635
N32820 X2.0967 Y0.3551 Z-0.4637
N32825 X2.0979 Y0.3567 Z-0.4638
N32830 X2.0992 Y0.3581 Z-0.4639
N32835 X2.441 Y0.6999 Z-0.4963
N32840 X3.0471 Y1.306 Z-0.5544
N32845 X3.0494 Y1.3083
N32850 X3.0517 Y1.3106 Z-0.554
N32855 X3.0539 Y1.3128 Z-0.5531
N32860 X3.0561 Y1.315 Z-0.5519
N32865 X3.0585 Y1.3174 Z-0.5505
N32870 X3.0612 Y1.3201 Z-0.5496
N32875 X3.0638 Y1.3227 Z-0.5493
N32880 X3.0965 Y1.3554
N32885 G3 X3.0612 Y1.3908 I-0.0177 J0.0177
N32890 G1 X3.0585 Y1.3881 Z-0.5496
N32895 X3.0559 Y1.3855 Z-0.5505
N32900 X3.0534 Y1.383 Z-0.5519
N32905 X3.0504 Y1.38 Z-0.554
N32910 X3.0482 Y1.3778 Z-0.5552
N32915 X3.046 Y1.3756 Z-0.556
N32920 X3.0437 Y1.3733 Z-0.5565
N32925 X3.0414 Y1.371
N32930 X2.4021 Y0.7317 Z-0.495
N32935 X1.9168 Y0.2464 Z-0.449
N32940 X1.7738 Y0.1034 Z-0.4354
N32945 X1.7723 Y0.102 Z-0.4353
N32950 X1.7708 Y0.1008 Z-0.4352
N32955 X1.7691 Y0.0997 Z-0.435
N32960 X1.7674 Y0.0988 Z-0.4349
N32965 X1.7657 Y0.098 Z-0.4348
N32970 X1.7638 Y0.0973 Z-0.4346
N32975 X1.7619 Y0.0967 Z-0.4345
N32980 X1.76 Y0.0964 Z-0.4344
N32985 X1.7581 Y0.0961 Z-0.4342
N32990 X1.7561 Z-0.4341
N32995 X1.7541 Z-0.434
N33000 X1.7522 Y0.0964 Z-0.4339
N33005 X1.7503 Y0.0968 Z-0.4338
N33010 X1.7484 Y0.0973 Z-0.4337
N33015 X1.7466 Y0.098 Z-0.4336
N33020 X1.7448 Y0.0988 Z-0.4335
N33025 X1.7431 Y0.0998 Z-0.4334
N33030 X1.7414 Y0.1009
N33035 X1.7399 Y0.1021 Z-0.4333
N33040 X1.7385 Y0.1034
N33045 X1.7371 Y0.1049 Z-0.4332
N33050 X1.7359 Y0.1064
N33055 X1.7348 Y0.108
N33060 X1.7339 Y0.1097
N33065 X1.733 Y0.1115
N33070 X1.7324 Y0.1134
N33075 X1.7318 Y0.1153 Z-0.4333
N33080 X1.7314 Y0.1172
N33085 X1.7312 Y0.1191 Z-0.4334
N33090 X1.7311 Y0.1211
N33095 X1.7312 Y0.1231 Z-0.4335
N33100 X1.7314 Y0.125 Z-0.4336
N33105 X1.7318 Y0.1269 Z-0.4337
N33110 X1.7324 Y0.1288 Z-0.4338
N33115 X1.733 Y0.1307 Z-0.4339
N33120 X1.7339 Y0.1324 Z-0.434
N33125 X1.7348 Y0.1341 Z-0.4341
N33130 X1.7359 Y0.1358 Z-0.4342
N33135 X1.7371 Y0.1373 Z-0.4343
N33140 X1.7384 Y0.1388 Z-0.4345
N33145 X1.851 Y0.2513 Z-0.4451
N33150 X2.3574 Y0.7578 Z-0.4933
N33155 X3.0299 Y1.4303 Z-0.558
N33160 X3.0323 Y1.4326
N33165 X3.0346 Y1.4349 Z-0.5576
N33170 X3.0368 Y1.4371 Z-0.5568
N33175 X3.0389 Y1.4392 Z-0.5555
N33180 X3.0414 Y1.4417 Z-0.5541
N33185 X3.044 Y1.4443 Z-0.5533
N33190 X3.0467 Y1.447 Z-0.553
N33195 X3.0677 Y1.468
N33200 G3 X3.0323 Y1.5033 I-0.0177 J0.0177
N33205 G1 X3.0296 Y1.5007 Z-0.5533
N33210 X3.027 Y1.498 Z-0.5541
N33215 X3.0245 Y1.4955 Z-0.5555
N33220 X3.0229 Y1.4939 Z-0.5567
N33225 X3.0207 Y1.4917 Z-0.5579
N33230 X3.0185 Y1.4895 Z-0.5588
N33235 X3.0162 Y1.4872 Z-0.5592
N33240 X3.0139 Y1.4849
N33245 X2.321 Y0.792 Z-0.4923
N33250 X1.7943 Y0.2653 Z-0.442
N33255 X1.5638 Y0.0348 Z-0.4203
N33260 X1.4279 Y-0.101 Z-0.4075
N33265 X1.4265 Y-0.1024 Z-0.4073
N33270 X1.425 Y-0.1036 Z-0.4072
N33275 X1.4233 Y-0.1047 Z-0.4071
N33280 X1.4216 Y-0.1056 Z-0.4069
N33285 X1.4198 Y-0.1064 Z-0.4068
N33290 X1.418 Y-0.1071 Z-0.4067
N33295 X1.4161 Y-0.1076 Z-0.4065
N33300 X1.4142 Y-0.108 Z-0.4064
N33305 X1.4123 Y-0.1083 Z-0.4063
N33310 X1.4103 Z-0.4061
N33315 X1.4083 Y-0.1082 Z-0.406
N33320 X1.4064 Y-0.108 Z-0.4059
N33325 X1.4045 Y-0.1076 Z-0.4058
N33330 X1.4026 Y-0.1071 Z-0.4057
N33335 X1.4007 Y-0.1064 Z-0.4056
N33340 X1.399 Y-0.1056 Z-0.4055
N33345 X1.3973 Y-0.1046
N33350 X1.3956 Y-0.1035 Z-0.4054
N33355 X1.3941 Y-0.1023 Z-0.4053
N33360 X1.3926 Y-0.101
N33365 X1.3913 Y-0.0995
N33370 X1.3901 Y-0.098 Z-0.4052
N33375 X1.389 Y-0.0964
N33380 X1.3881 Y-0.0946
N33385 X1.3872 Y-0.0929
N33390 X1.3866 Y-0.091
N33395 X1.386 Y-0.0891 Z-0.4053
N33400 X1.3856 Y-0.0872
N33405 X1.3854 Y-0.0853 Z-0.4054
N33410 X1.3853 Y-0.0833
N33415 X1.3854 Y-0.0813 Z-0.4055
N33420 X1.3856 Y-0.0794 Z-0.4056
N33425 X1.386 Y-0.0775 Z-0.4057
N33430 X1.3866 Y-0.0756 Z-0.4058
N33435 X1.3872 Y-0.0737 Z-0.4059
N33440 X1.388 Y-0.072 Z-0.406
N33445 X1.389 Y-0.0702 Z-0.4061
N33450 X1.3901 Y-0.0686 Z-0.4062
N33455 X1.3913 Y-0.0671 Z-0.4063
N33460 X1.3926 Y-0.0656 Z-0.4065
N33465 X1.7401 Y0.2819 Z-0.4393
N33470 X2.2787 Y0.8204 Z-0.4908
N33475 X2.994 Y1.5357 Z-0.56
N33480 X2.9963 Y1.538
N33485 X2.9986 Y1.5403 Z-0.5596
N33490 X3.0008 Y1.5426 Z-0.5588
N33495 X3.003 Y1.5447 Z-0.5575
N33500 X3.0055 Y1.5472 Z-0.5561
N33505 X3.0081 Y1.5498 Z-0.5553
N33510 X3.0108 Y1.5525 Z-0.555
N33515 X3.0263 Y1.5681
N33520 G3 X2.991 Y1.6034 I-0.0177 J0.0177
N33525 G1 X2.9883 Y1.6007 Z-0.5553
N33530 X2.9857 Y1.5981 Z-0.5561
N33535 X2.9832 Y1.5956 Z-0.5575
N33540 X2.9821 Y1.5945 Z-0.5583
N33545 X2.9799 Y1.5924 Z-0.5596
N33550 X2.9777 Y1.5901 Z-0.5604
N33555 X2.9754 Y1.5878 Z-0.5608
N33560 X2.9731 Y1.5855
N33565 X2.2739 Y0.8864 Z-0.493
N33570 X1.6904 Y0.3028 Z-0.437
N33575 X1.2622 Y-0.1254 Z-0.3964
N33580 X1.2243 Y-0.1633 Z-0.3929
N33585 X1.0943 Y-0.2933 Z-0.3807
N33590 X1.0928 Y-0.2946 Z-0.3805
N33595 X1.0913 Y-0.2958 Z-0.3804
N33600 X1.0897 Y-0.2969 Z-0.3803
N33605 X1.088 Y-0.2979 Z-0.3801
N33610 X1.0862 Y-0.2987 Z-0.38
N33615 X1.0843 Y-0.2994 Z-0.3799
N33620 X1.0824 Y-0.2999 Z-0.3797
N33625 X1.0805 Y-0.3003 Z-0.3796
N33630 X1.0786 Y-0.3005 Z-0.3795
N33635 X1.0766 Y-0.3006 Z-0.3794
N33640 X1.0747 Y-0.3005 Z-0.3792
N33645 X1.0727 Y-0.3003 Z-0.3791
N33650 X1.0708 Y-0.2999 Z-0.379
N33655 X1.0689 Y-0.2994 Z-0.3789
N33660 X1.0671 Y-0.2987 Z-0.3788
N33665 X1.0653 Y-0.2978 Z-0.3787
N33670 X1.0636 Y-0.2969
N33675 X1.062 Y-0.2958 Z-0.3786
N33680 X1.0604 Y-0.2946 Z-0.3785
N33685 X1.059 Y-0.2932
N33690 X1.0576 Y-0.2918 Z-0.3784
N33695 X1.0564 Y-0.2903
N33700 X1.0553 Y-0.2886
N33705 X1.0544 Y-0.2869
N33710 X1.0536 Y-0.2851
N33715 X1.0529 Y-0.2833
N33720 X1.0524 Y-0.2814
N33725 X1.052 Y-0.2795 Z-0.3785
N33730 X1.0517 Y-0.2775
N33735 Y-0.2756 Z-0.3786
N33740 Y-0.2736
N33745 X1.052 Y-0.2716 Z-0.3787
N33750 X1.0523 Y-0.2697 Z-0.3788
N33755 X1.0529 Y-0.2678 Z-0.3789
N33760 X1.0536 Y-0.266 Z-0.379
N33765 X1.0544 Y-0.2642 Z-0.3791
N33770 X1.0553 Y-0.2625 Z-0.3792
N33775 X1.0564 Y-0.2609 Z-0.3793
N33780 X1.0576 Y-0.2593 Z-0.3795
N33785 X1.059 Y-0.2579 Z-0.3796
N33790 X1.1652 Y-0.1517 Z-0.3895
N33795 X1.603 Y0.2861 Z-0.4311
N33800 X2.1887 Y0.8718 Z-0.4874
N33805 X2.9521 Y1.6352 Z-0.5616
N33810 X2.9544 Y1.6375
N33815 X2.9567 Y1.6398 Z-0.5612
N33820 X2.9589 Y1.6421 Z-0.5604
N33825 X2.9611 Y1.6442 Z-0.5591
N33830 X2.9636 Y1.6467 Z-0.5577
N33835 X2.9662 Y1.6493 Z-0.5568
N33840 X2.9689 Y1.652 Z-0.5566
N33845 X2.9844 Y1.6675
N33850 G3 X2.949 Y1.7029 I-0.0177 J0.0177
N33855 G1 X2.9464 Y1.7002 Z-0.5568
N33860 X2.9437 Y1.6976 Z-0.5577
N33865 X2.9412 Y1.6951 Z-0.5591
N33870 X2.9401 Y1.6939 Z-0.5599
N33875 X2.9379 Y1.6918 Z-0.5612
N33880 X2.9357 Y1.6895 Z-0.562
N33885 X2.9334 Y1.6872 Z-0.5624
N33890 X2.9311 Y1.6849
N33895 X2.1109 Y0.8647 Z-0.4826
N33900 X1.5037 Y0.2576 Z-0.4241
N33905 X1.0723 Y-0.1739 Z-0.3831
N33910 X0.8963 Y-0.3498 Z-0.3665
N33915 X0.7712 Y-0.475 Z-0.3548
N33920 X0.7697 Y-0.4763 Z-0.3546
N33925 X0.7682 Y-0.4775 Z-0.3545
N33930 X0.7666 Y-0.4786 Z-0.3544
N33935 X0.7648 Y-0.4796 Z-0.3542
N33940 X0.7631 Y-0.4804 Z-0.3541
N33945 X0.7612 Y-0.4811 Z-0.354
N33950 X0.7593 Y-0.4816 Z-0.3538
N33955 X0.7574 Y-0.482 Z-0.3537
N33960 X0.7555 Y-0.4822 Z-0.3536
N33965 X0.7535 Y-0.4823 Z-0.3535
N33970 X0.7516 Y-0.4822 Z-0.3533
N33975 X0.7496 Y-0.482 Z-0.3532
N33980 X0.7477 Y-0.4816 Z-0.3531
N33985 X0.7458 Y-0.4811 Z-0.353
N33990 X0.744 Y-0.4804 Z-0.3529
N33995 X0.7422 Y-0.4795 Z-0.3528
N34000 X0.7405 Y-0.4786
N34005 X0.7388 Y-0.4775 Z-0.3527
N34010 X0.7373 Y-0.4763 Z-0.3526
N34015 X0.7359 Y-0.4749
N34020 X0.7345 Y-0.4735
N34025 X0.7333 Y-0.472 Z-0.3525
N34030 X0.7322 Y-0.4703
N34035 X0.7313 Y-0.4686
N34040 X0.7305 Y-0.4668
N34045 X0.7298 Y-0.465
N34050 X0.7292 Y-0.4631 Z-0.3526
N34055 X0.7289 Y-0.4612
N34060 X0.7286 Y-0.4592
N34065 Y-0.4573 Z-0.3527
N34070 Y-0.4553 Z-0.3528
N34075 X0.7289 Y-0.4533
N34080 X0.7292 Y-0.4514 Z-0.3529
N34085 X0.7298 Y-0.4495 Z-0.353
N34090 X0.7304 Y-0.4477 Z-0.3531
N34095 X0.7313 Y-0.4459 Z-0.3532
N34100 X0.7322 Y-0.4442 Z-0.3533
N34105 X0.7333 Y-0.4426 Z-0.3535
N34110 X0.7345 Y-0.441 Z-0.3536
N34115 X0.7359 Y-0.4396 Z-0.3537
N34120 X1.0085 Y-0.167 Z-0.3793
N34125 X1.4624 Y0.287 Z-0.4227
N34130 X2.0888 Y0.9134 Z-0.4832
N34135 X2.9101 Y1.7346 Z-0.5633
N34140 X2.9124 Y1.737
N34145 X2.9147 Y1.7393 Z-0.5629
N34150 X2.917 Y1.7415 Z-0.5621
N34155 X2.9191 Y1.7436 Z-0.5608
N34160 X2.9216 Y1.7461 Z-0.5594
N34165 X2.9242 Y1.7487 Z-0.5586
N34170 X2.9269 Y1.7514 Z-0.5583
N34175 X2.9426 Y1.7671
N34180 G3 Y1.8025 I-0.0177 J0.0177
N34185 X2.9072 I-0.0177 J-0.0177
N34190 G1 X2.9045 Y1.7998 Z-0.5586
N34195 X2.9019 Y1.7972 Z-0.5594
N34200 X2.8994 Y1.7947 Z-0.5608
N34205 X2.8982 Y1.7934 Z-0.5617
N34210 X2.896 Y1.7913 Z-0.5629
N34215 X2.8938 Y1.789 Z-0.5638
N34220 X2.8915 Y1.7867 Z-0.5642
N34225 X2.8892 Y1.7844
N34230 X1.95 Y0.8453 Z-0.4725
N34235 X1.313 Y0.2082 Z-0.4109
N34240 X0.8697 Y-0.235 Z-0.3685
N34245 X0.5775 Y-0.5273 Z-0.3411
N34250 X0.4573 Y-0.6475 Z-0.3298
N34255 X0.4558 Y-0.6488 Z-0.3297
N34260 X0.4543 Y-0.65 Z-0.3295
N34265 X0.4527 Y-0.6511 Z-0.3294
N34270 X0.4509 Y-0.6521 Z-0.3292
N34275 X0.4492 Y-0.6529 Z-0.3291
N34280 X0.4473 Y-0.6536 Z-0.329
N34285 X0.4454 Y-0.6541 Z-0.3288
N34290 X0.4435 Y-0.6545 Z-0.3287
N34295 X0.4416 Y-0.6547 Z-0.3286
N34300 X0.4396 Y-0.6548 Z-0.3285
N34305 X0.4377 Y-0.6547 Z-0.3283
N34310 X0.4357 Y-0.6545 Z-0.3282
N34315 X0.4338 Y-0.6541 Z-0.3281
N34320 X0.4319 Y-0.6535 Z-0.328
N34325 X0.4301 Y-0.6529 Z-0.3279
N34330 X0.4283 Y-0.652 Z-0.3278
N34335 X0.4266 Y-0.6511
N34340 X0.4249 Y-0.65 Z-0.3277
N34345 X0.4234 Y-0.6488 Z-0.3276
N34350 X0.422 Y-0.6474
N34355 X0.4206 Y-0.646
N34360 X0.4194 Y-0.6444 Z-0.3275
N34365 X0.4183 Y-0.6428
N34370 X0.4174 Y-0.6411
N34375 X0.4166 Y-0.6393
N34380 X0.4159 Y-0.6375
N34385 X0.4153 Y-0.6356 Z-0.3276
N34390 X0.415 Y-0.6337
N34395 X0.4147 Y-0.6317
N34400 Y-0.6297 Z-0.3277
N34405 Y-0.6278 Z-0.3278
N34410 X0.415 Y-0.6258
N34415 X0.4153 Y-0.6239 Z-0.3279
N34420 X0.4159 Y-0.622 Z-0.328
N34425 X0.4165 Y-0.6202 Z-0.3281
N34430 X0.4174 Y-0.6184 Z-0.3282
N34435 X0.4183 Y-0.6167 Z-0.3283
N34440 X0.4194 Y-0.6151 Z-0.3285
N34445 X0.4206 Y-0.6135 Z-0.3286
N34450 X0.422 Y-0.6121 Z-0.3287
N34455 X0.4332 Y-0.6008 Z-0.3298
N34460 X0.7609 Y-0.2732 Z-0.3606
N34465 X1.2148 Y0.1808 Z-0.404
N34470 X1.8733 Y0.8393 Z-0.4679
N34475 X2.8681 Y1.8341 Z-0.5651
N34480 X2.872 Y1.838 Z-0.5652
N34485 X2.8759 Y1.8418 Z-0.5647
N34490 X2.8796 Y1.8456 Z-0.5636
N34495 X2.8833 Y1.8493 Z-0.5619
N34500 X2.8868 Y1.8528 Z-0.5597
N34505 X2.8902 Y1.8561 Z-0.5569
N34510 X2.8933 Y1.8592 Z-0.5536
N34515 X2.8961 Y1.862 Z-0.5499
N34520 X2.8986 Y1.8646 Z-0.5457
N34525 X2.9008 Y1.8668 Z-0.5412
N34530 X2.9026 Y1.8686 Z-0.5364
N34535 X2.9041 Y1.87 Z-0.5314
N34540 X2.9051 Y1.8711 Z-0.5261
N34545 X2.9057 Y1.8717 Z-0.5207
N34550 X2.9059 Y1.8719 Z-0.5152
N34555 G0 Z0.2
N34560 X0.0874 Y-1.1588
N34565 Z-0.1956
N34570 G1 Z-0.2414 F39.37
N34575 X0.0872 Y-1.159 Z-0.2468
N34580 X0.0865 Y-1.1596 Z-0.2521
N34585 X0.0855 Y-1.1606 Z-0.2574
N34590 X0.0841 Y-1.1621 Z-0.2624
N34595 X0.0823 Y-1.1639 Z-0.2672
N34600 X0.0801 Y-1.166 Z-0.2717
N34605 X0.0777 Y-1.1685 Z-0.2758
N34610 X0.0749 Y-1.1713 Z-0.2795
N34615 X0.0718 Y-1.1743 Z-0.2828
N34620 X0.0685 Y-1.1776 Z-0.2856
N34625 X0.065 Y-1.1811 Z-0.2879
N34630 X0.0614 Y-1.1847 Z-0.2896
N34635 X0.0577 Y-1.1885 Z-0.2907
N34640 X0.0538 Y-1.1923 Z-0.2913
N34645 X0.05 Y-1.1961
N34650 X-0.0171 Y-1.2632 Z-0.2859
N34655 X-0.0194 Y-1.2656 Z-0.2855
N34660 X-0.0217 Y-1.2679 Z-0.2847
N34665 X-0.0239 Y-1.27 Z-0.2834
N34670 X-0.0264 Y-1.2725 Z-0.282
N34675 X-0.029 Y-1.2751 Z-0.2811
N34680 X-0.0316 Y-1.2778 Z-0.2808
N34685 X-0.0786 Y-1.3248
N34690 X-0.0801 Y-1.3261
N34695 X-0.0816 Y-1.3273
N34700 X-0.0833 Y-1.3284
N34705 X-0.085 Y-1.3294 Z-0.2807
N34710 X-0.0868 Y-1.3302 Z-0.2806
N34715 X-0.0886 Y-1.3309 Z-0.2805
N34720 X-0.0905 Y-1.3315 Z-0.2804
N34725 X-0.0925 Y-1.3319 Z-0.2803
N34730 X-0.0944 Y-1.3321 Z-0.2801
N34735 X-0.0964 Y-1.3322 Z-0.28
N34740 X-0.0984 Y-1.3321 Z-0.2798
N34745 X-0.1003 Y-1.3319 Z-0.2796
N34750 X-0.1022 Y-1.3315 Z-0.2795
N34755 X-0.1041 Y-1.331 Z-0.2793
N34760 X-0.106 Y-1.3303 Z-0.2791
N34765 X-0.1078 Y-1.3295 Z-0.2788
N34770 X-0.1095 Y-1.3285 Z-0.2786
N34775 X-0.1111 Y-1.3274 Z-0.2784
N34780 X-0.1127 Y-1.3262 Z-0.2782
N34785 X-0.1141 Y-1.3249 Z-0.2779
N34790 X-0.1154 Y-1.3235 Z-0.2777
N34795 X-0.1166 Y-1.3219 Z-0.2775
N34800 X-0.1177 Y-1.3203 Z-0.2773
N34805 X-0.1187 Y-1.3186 Z-0.277
N34810 X-0.1195 Y-1.3168 Z-0.2768
N34815 X-0.1202 Y-1.3149 Z-0.2766
N34820 X-0.1207 Y-1.313 Z-0.2764
N34825 X-0.1211 Y-1.3111 Z-0.2762
N34830 X-0.1213 Y-1.3092 Z-0.276
N34835 X-0.1214 Y-1.3072 Z-0.2759
N34840 X-0.1213 Y-1.3052 Z-0.2757
N34845 X-0.1211 Y-1.3033 Z-0.2756
N34850 X-0.1207 Y-1.3013 Z-0.2755
N34855 X-0.1201 Y-1.2994 Z-0.2753
N34860 X-0.1194 Y-1.2976
N34865 X-0.1186 Y-1.2958 Z-0.2752
N34870 X-0.1176 Y-1.2941 Z-0.2751
N34875 X-0.1165 Y-1.2924
N34880 X-0.1153 Y-1.2909 Z-0.275
N34885 X-0.114 Y-1.2894
N34890 X-0.1113 Y-1.2868 Z-0.2753
N34895 X-0.1087 Y-1.2841 Z-0.2762
N34900 X-0.1062 Y-1.2816 Z-0.2776
N34905 X-0.104 Y-1.2795 Z-0.2788
N34910 X-0.1018 Y-1.2772 Z-0.2797
N34915 X-0.0994 Y-1.2749 Z-0.2801
N34920 X0.0477 Y-1.1278 Z-0.2921
N34925 X0.0499 Y-1.1255
N34930 X0.0522 Y-1.1233 Z-0.2916
N34935 X0.0544 Y-1.1211 Z-0.2908
N34940 X0.0564 Y-1.119 Z-0.2896
N34945 X0.0589 Y-1.1165 Z-0.2882
N34950 X0.0616 Y-1.1139 Z-0.2873
N34955 X0.0642 Y-1.1112 Z-0.287
N34960 X0.1085 Y-1.067
N34965 G3 X0.0731 Y-1.0316 I-0.0177 J0.0177
N34970 G1 X0.0704 Y-1.0343 Z-0.2873
N34975 X0.0678 Y-1.0369 Z-0.2882
N34980 X0.0653 Y-1.0394 Z-0.2896
N34985 X0.0628 Y-1.0419 Z-0.2913
N34990 X0.0607 Y-1.044 Z-0.2926
N34995 X0.0585 Y-1.0462 Z-0.2934
N35000 X0.0563 Y-1.0485 Z-0.2938
N35005 X0.054 Y-1.0508
N35010 X-0.096 Y-1.2008 Z-0.2812
N35015 X-0.1731 Y-1.2779 Z-0.275
N35020 X-0.1755 Y-1.2802 Z-0.2746
N35025 X-0.1777 Y-1.2825 Z-0.2737
N35030 X-0.1799 Y-1.2847 Z-0.2725
N35035 X-0.1824 Y-1.2872 Z-0.271
N35040 X-0.185 Y-1.2898 Z-0.2702
N35045 X-0.1877 Y-1.2925 Z-0.2699
N35050 G2 X-0.2231 Y-1.2571 I-0.0177 J0.0177
N35055 G1 X-0.1982 Y-1.2322
N35060 X-0.1955 Y-1.2295 Z-0.2702
N35065 X-0.1929 Y-1.2269 Z-0.271
N35070 X-0.1904 Y-1.2244 Z-0.2725
N35075 X-0.1882 Y-1.2223 Z-0.2737
N35080 X-0.186 Y-1.22 Z-0.2746
N35085 X-0.1836 Y-1.2177 Z-0.275
N35090 X-0.0952 Y-1.1292 Z-0.2824
N35095 X0.0763 Y-0.9577 Z-0.2973
N35100 X0.0786 Y-0.9554 Z-0.2972
N35105 X0.0809 Y-0.9532 Z-0.2968
N35110 X0.0831 Y-0.951 Z-0.296
N35115 X0.0852 Y-0.9489 Z-0.2948
N35120 X0.0877 Y-0.9464 Z-0.2933
N35125 X0.0903 Y-0.9438 Z-0.2925
N35130 X0.0929 Y-0.9411 Z-0.2922
N35135 X0.2102 Y-0.8238
N35140 X0.2116 Y-0.8223
N35145 X0.2128 Y-0.8208 Z-0.2923
N35150 X0.2139 Y-0.8191
N35155 X0.2149 Y-0.8174 Z-0.2924
N35160 X0.2158 Y-0.8156 Z-0.2926
N35165 X0.2165 Y-0.8137 Z-0.2927
N35170 X0.217 Y-0.8118 Z-0.2929
N35175 X0.2174 Y-0.8099 Z-0.2931
N35180 X0.2177 Y-0.8079 Z-0.2933
N35185 X0.2178 Y-0.8059 Z-0.2935
N35190 X0.2177 Y-0.8039 Z-0.2938
N35195 X0.2175 Y-0.802 Z-0.2941
N35200 X0.2171 Y-0.8 Z-0.2944
N35205 X0.2166 Y-0.7981 Z-0.2947
N35210 X0.2159 Y-0.7963 Z-0.295
N35215 X0.2151 Y-0.7945 Z-0.2954
N35220 X0.2142 Y-0.7928 Z-0.2957
N35225 X0.2131 Y-0.7911 Z-0.2961
N35230 X0.2119 Y-0.7896 Z-0.2964
N35235 X0.2105 Y-0.7882 Z-0.2968
N35240 X0.2091 Y-0.7868 Z-0.2971
N35245 X0.2075 Y-0.7856 Z-0.2975
N35250 X0.2059 Y-0.7845 Z-0.2978
N35255 X0.2042 Y-0.7836 Z-0.2982
N35260 X0.2024 Y-0.7828 Z-0.2985
N35265 X0.2005 Y-0.7821 Z-0.2988
N35270 X0.1986 Y-0.7816 Z-0.2992
N35275 X0.1967 Y-0.7812 Z-0.2995
N35280 X0.1947 Y-0.781 Z-0.2997
N35285 X0.1928 Y-0.7809 Z-0.3
N35290 X0.1908 Y-0.781 Z-0.3002
N35295 X0.1888 Y-0.7813 Z-0.3005
N35300 X0.1869 Y-0.7817 Z-0.3007
N35305 X0.185 Y-0.7822 Z-0.3008
N35310 X0.1831 Y-0.7829 Z-0.301
N35315 X0.1813 Y-0.7838 Z-0.3011
N35320 X0.1796 Y-0.7847 Z-0.3012
N35325 X0.1779 Y-0.7859 Z-0.3013
N35330 X0.1763 Y-0.7871
N35335 X0.1749 Y-0.7885
N35340 X0.1722 Y-0.7911 Z-0.3016
N35345 X0.1696 Y-0.7937 Z-0.3025
N35350 X0.1671 Y-0.7962 Z-0.3039
N35355 X0.165 Y-0.7984 Z-0.3051
N35360 X0.1628 Y-0.8006 Z-0.306
N35365 X0.1605 Y-0.8028 Z-0.3064
N35370 X0.1582 Y-0.8051
N35375 X-0.0454 Y-1.0087 Z-0.2881
N35380 X-0.1965 Y-1.1598 Z-0.275
N35385 X-0.1983 Y-1.1616 Z-0.2747
N35390 X-0.2013 Y-1.1646 Z-0.2737
N35395 X-0.2042 Y-1.1676 Z-0.2721
N35400 X-0.2069 Y-1.1703 Z-0.2699
N35405 X-0.2094 Y-1.1728 Z-0.2673
N35410 X-0.2117 Y-1.175 Z-0.2642
N35415 X-0.2135 Y-1.1769 Z-0.2607
N35420 X-0.2151 Y-1.1784 Z-0.2568
N35425 X-0.2162 Y-1.1796 Z-0.2528
N35430 X-0.217 Y-1.1803 Z-0.2485
N35435 X-0.2173 Y-1.1807 Z-0.2441
N35440 X-0.2172 Y-1.1806 Z-0.2397
N35445 X-0.2167 Y-1.1801 Z-0.2353
N35450 X-0.2158 Y-1.1791 Z-0.2311
N35455 X-0.2145 Y-1.1778 Z-0.2272
N35460 X-0.2128 Y-1.1761 Z-0.2235
N35465 X-0.2107 Y-1.1741 Z-0.2201
N35470 X-0.2084 Y-1.1717 Z-0.2172
N35475 X-0.2058 Y-1.1691 Z-0.2148
N35480 X-0.203 Y-1.1663 Z-0.2129
N35485 X-0.2 Y-1.1634 Z-0.2115
N35490 X-0.197 Y-1.1603 Z-0.2107
N35495 X-0.1939 Y-1.1572 Z-0.2106
N35500 X-0.1908 Y-1.1541 Z-0.211
N35505 X0.2472 Y-0.7161 Z-0.3144
N35510 X0.2489 Y-0.7144 Z-0.3147
N35515 X0.3106 Y-0.6527 Z-0.3205
N35520 X0.6479 Y-0.3155 Z-0.3522
N35525 X1.1029 Y0.1396 Z-0.3959
N35530 X1.7839 Y0.8206 Z-0.462
N35535 X2.8471 Y1.8838 Z-0.5661
N35540 X2.8495 Y1.8861
N35545 X2.8518 Y1.8884 Z-0.5657
N35550 X2.854 Y1.8907 Z-0.5649
N35555 X2.8561 Y1.8928 Z-0.5636
N35560 X2.8586 Y1.8953 Z-0.5622
N35565 X2.8612 Y1.8979 Z-0.5613
N35570 X2.8639 Y1.9006 Z-0.5611
N35575 X2.8798 Y1.9165
N35580 G3 Y1.9518 I-0.0177 J0.0177
N35585 X2.8444 I-0.0177 J-0.0177
N35590 G1 X2.8418 Y1.9491 Z-0.5613
N35595 X2.8392 Y1.9465 Z-0.5622
N35600 X2.8367 Y1.944 Z-0.5636
N35605 X2.8352 Y1.9426 Z-0.5646
N35610 X2.8331 Y1.9404 Z-0.5659
N35615 X2.8308 Y1.9382 Z-0.5667
N35620 X2.8285 Y1.9359 Z-0.5671
N35625 X2.8262 Y1.9336
N35630 X1.6784 Y0.7858 Z-0.4546
N35635 X0.9749 Y0.0823 Z-0.3862
N35640 X0.5091 Y-0.3835 Z-0.3414
N35645 X0.1848 Y-0.7078 Z-0.3109
N35650 X-0.0402 Y-0.9328 Z-0.2902
N35655 X-0.2116 Y-1.1043 Z-0.275
N35660 X-0.2139 Y-1.1066 Z-0.2745
N35665 X-0.2162 Y-1.1088 Z-0.2737
N35670 X-0.2183 Y-1.1109 Z-0.2725
N35675 X-0.2208 Y-1.1134 Z-0.2711
N35680 X-0.2234 Y-1.1161 Z-0.2702
N35685 X-0.2261 Y-1.1187 Z-0.2699
N35690 G2 X-0.2615 I-0.0177 J0.0177
N35695 Y-1.0834 I0.0177 J0.0177
N35700 G1 X-0.2434 Y-1.0653
N35705 X-0.2407 Y-1.0626 Z-0.2702
N35710 X-0.2381 Y-1.06 Z-0.2711
N35715 X-0.2356 Y-1.0575 Z-0.2725
N35720 X-0.2334 Y-1.0554 Z-0.2737
N35725 X-0.2312 Y-1.0531 Z-0.2745
N35730 X-0.2289 Y-1.0508 Z-0.275
N35735 X-0.1339 Y-0.9559 Z-0.2835
N35740 X0.0877 Y-0.7342 Z-0.3039
N35745 X0.4132 Y-0.4087 Z-0.3347
N35750 X0.88 Y0.0581 Z-0.3797
N35755 X1.6049 Y0.783 Z-0.4503
N35760 X2.8052 Y1.9833 Z-0.5682
N35765 X2.8075 Y1.9856
N35770 X2.8098 Y1.9879 Z-0.5678
N35775 X2.812 Y1.9901 Z-0.5669
N35780 X2.8142 Y1.9923 Z-0.5657
N35785 X2.8167 Y1.9947 Z-0.5643
N35790 X2.8193 Y1.9974 Z-0.5634
N35795 X2.822 Y2. Z-0.5631
N35800 X2.8379 Y2.016
N35805 G3 X2.8025 Y2.0513 I-0.0177 J0.0177
N35810 G1 X2.7999 Y2.0486 Z-0.5634
N35815 X2.7972 Y2.046 Z-0.5643
N35820 X2.7947 Y2.0435 Z-0.5657
N35825 X2.7932 Y2.042 Z-0.5667
N35830 X2.791 Y2.0398 Z-0.568
N35835 X2.7888 Y2.0376 Z-0.5688
N35840 X2.7865 Y2.0353 Z-0.5693
N35845 X2.7842 Y2.033 Z-0.5692
N35850 X1.4972 Y0.746 Z-0.4428
N35855 X0.7434 Y-0.0078 Z-0.3692
N35860 X0.2755 Y-0.4757 Z-0.324
N35865 X-0.0381 Y-0.7894 Z-0.2943
N35870 X-0.2481 Y-0.9993 Z-0.275
N35875 X-0.2504 Y-1.0016 Z-0.2745
N35880 X-0.2526 Y-1.0038 Z-0.2737
N35885 X-0.2547 Y-1.0059 Z-0.2725
N35890 X-0.2572 Y-1.0084 Z-0.2711
N35895 X-0.2598 Y-1.011 Z-0.2702
N35900 X-0.2625 Y-1.0137 Z-0.2699
N35905 G2 X-0.2979 I-0.0177 J0.0177
N35910 Y-0.9784 I0.0177 J0.0177
N35915 G1 X-0.2834 Y-0.9639
N35920 X-0.2807 Y-0.9613 Z-0.2702
N35925 X-0.2781 Y-0.9586 Z-0.2711
N35930 X-0.2756 Y-0.9561 Z-0.2725
N35935 X-0.2735 Y-0.954 Z-0.2737
N35940 X-0.2713 Y-0.9518 Z-0.2745
N35945 X-0.269 Y-0.9495 Z-0.275
N35950 X-0.1876 Y-0.8681 Z-0.2825
N35955 X0.1153 Y-0.5652 Z-0.3112
N35960 X0.5714 Y-0.1091 Z-0.3553
N35965 X1.3241 Y0.6436 Z-0.4288
N35970 X2.7632 Y2.0827 Z-0.5703
N35975 X2.7655 Y2.085 Z-0.5704
N35980 X2.7678 Y2.0873 Z-0.5699
N35985 X2.77 Y2.0895 Z-0.5691
N35990 X2.7722 Y2.0917 Z-0.5679
N35995 X2.7747 Y2.0942 Z-0.5665
N36000 X2.7773 Y2.0968 Z-0.5656
N36005 X2.78 Y2.0995 Z-0.5653
N36010 X2.796 Y2.1155
N36015 G3 Y2.1509 I-0.0177 J0.0177
N36020 X2.7607 I-0.0177 J-0.0177
N36025 G1 X2.758 Y2.1482 Z-0.5656
N36030 X2.7554 Y2.1456 Z-0.5665
N36035 X2.7529 Y2.1431 Z-0.5679
N36040 X2.7512 Y2.1414 Z-0.569
N36045 X2.7491 Y2.1393 Z-0.5703
N36050 X2.7469 Y2.1371 Z-0.5711
N36055 X2.7446 Y2.1348 Z-0.5715
N36060 X2.7422 Y2.1324
N36065 X1.1819 Y0.5721 Z-0.4179
N36070 X0.3995 Y-0.2103 Z-0.3413
N36075 X-0.0437 Y-0.6535 Z-0.2985
N36080 X-0.2917 Y-0.9015 Z-0.275
N36085 X-0.2939 Y-0.9037 Z-0.2745
N36090 X-0.2962 Y-0.906 Z-0.2737
N36095 X-0.2983 Y-0.9081 Z-0.2725
N36100 X-0.3008 Y-0.9106 Z-0.2711
N36105 X-0.3034 Y-0.9132 Z-0.2702
N36110 X-0.3061 Y-0.9159 Z-0.2699
N36115 G2 X-0.3414 I-0.0177 J0.0177
N36120 Y-0.8805 I0.0177 J0.0177
N36125 G1 X-0.3305 Y-0.8696
N36130 X-0.3278 Y-0.8669 Z-0.2702
N36135 X-0.3252 Y-0.8643 Z-0.2711
N36140 X-0.3227 Y-0.8618 Z-0.2725
N36145 X-0.3206 Y-0.8597 Z-0.2737
N36150 X-0.3184 Y-0.8575 Z-0.2745
N36155 X-0.3161 Y-0.8552 Z-0.275
N36160 X-0.1857 Y-0.7248 Z-0.2874
N36165 X0.2457 Y-0.2934 Z-0.3292
N36170 X1.0422 Y0.5032 Z-0.4072
N36175 X2.7212 Y2.1821 Z-0.5727
N36180 X2.7236 Y2.1845
N36185 X2.7259 Y2.1868 Z-0.5723
N36190 X2.7281 Y2.189 Z-0.5714
N36195 X2.7302 Y2.1912 Z-0.5702
N36200 X2.7327 Y2.1936 Z-0.5688
N36205 X2.7353 Y2.1963 Z-0.5679
N36210 X2.738 Y2.1989 Z-0.5676
N36215 X2.7541 Y2.215
N36220 G3 Y2.2504 I-0.0177 J0.0177
N36225 X2.7188 I-0.0177 J-0.0177
N36230 G1 X2.7161 Y2.2477 Z-0.5679
N36235 X2.7135 Y2.2451 Z-0.5688
N36240 X2.711 Y2.2426 Z-0.5702
N36245 X2.7093 Y2.2409 Z-0.5714
N36250 X2.7071 Y2.2387 Z-0.5727
N36255 X2.7049 Y2.2365 Z-0.5735
N36260 X2.7026 Y2.2342 Z-0.5739
N36265 X2.7002 Y2.2319
N36270 X0.8307 Y0.3623 Z-0.3895
N36275 X0.0437 Y-0.4246 Z-0.3124
N36280 X-0.3422 Y-0.8106 Z-0.275
N36285 X-0.3445 Y-0.8129 Z-0.2745
N36290 X-0.3467 Y-0.8151 Z-0.2737
N36295 X-0.3488 Y-0.8172 Z-0.2725
N36300 X-0.3513 Y-0.8197 Z-0.2711
N36305 X-0.3539 Y-0.8223 Z-0.2702
N36310 X-0.3566 Y-0.8249 Z-0.2699
N36315 G2 X-0.3919 I-0.0177 J0.0177
N36320 Y-0.7896 I0.0177 J0.0177
N36325 G1 X-0.384 Y-0.7817
N36330 X-0.3814 Y-0.779 Z-0.2702
N36335 X-0.3787 Y-0.7764 Z-0.2711
N36340 X-0.3763 Y-0.7739 Z-0.2725
N36345 X-0.3762
N36350 X-0.3741 Y-0.7718 Z-0.2737
N36355 X-0.3719 Y-0.7696 Z-0.2745
N36360 X-0.3697 Y-0.7674 Z-0.275
N36365 X-0.1913 Y-0.589 Z-0.2923
N36370 X0.5753 Y0.1776 Z-0.3675
N36375 X2.6793 Y2.2817 Z-0.5752
N36380 X2.6817 Y2.284
N36385 X2.684 Y2.2863 Z-0.5747
N36390 X2.6862 Y2.2885 Z-0.5739
N36395 X2.6883 Y2.2907 Z-0.5727
N36400 X2.6908 Y2.2932 Z-0.5713
N36405 X2.6934 Y2.2958 Z-0.5704
N36410 X2.6961 Y2.2984 Z-0.5701
N36415 X2.7123 Y2.3147
N36420 G3 Y2.35 I-0.0177 J0.0177
N36425 X2.677 I-0.0177 J-0.0177
N36430 G1 X2.6743 Y2.3473 Z-0.5704
N36435 X2.6717 Y2.3447 Z-0.5713
N36440 X2.6692 Y2.3422 Z-0.5727
N36445 X2.6674 Y2.3404 Z-0.5739
N36450 X2.6652 Y2.3382 Z-0.5752
N36455 X2.663 Y2.336 Z-0.576
N36460 X2.6607 Y2.3337 Z-0.5765
N36465 X2.6583 Y2.3314 Z-0.5764
N36470 X0.2674 Y-0.0596 Z-0.3404
N36475 X-0.3987 Y-0.7257 Z-0.275
N36480 X-0.4009 Y-0.7279 Z-0.2745
N36485 X-0.4031 Y-0.7301 Z-0.2737
N36490 X-0.4052 Y-0.7322 Z-0.2725
N36495 X-0.4077 Y-0.7347 Z-0.2711
N36500 X-0.4103 Y-0.7373 Z-0.2702
N36505 X-0.413 Y-0.74 Z-0.2699
N36510 G2 X-0.4484 Y-0.7046 I-0.0177 J0.0177
N36515 G1 X-0.4435 Y-0.6998
N36520 X-0.4408 Y-0.6971 Z-0.2702
N36525 X-0.4382 Y-0.6945 Z-0.2711
N36530 X-0.4357 Y-0.692 Z-0.2725
N36535 X-0.4336 Y-0.6899 Z-0.2737
N36540 X-0.4314 Y-0.6877 Z-0.2745
N36545 X-0.4292 Y-0.6854 Z-0.275
N36550 X-0.4291
N36555 X-0.046 Y-0.3023 Z-0.3127
N36560 X2.6373 Y2.3811 Z-0.5777
N36565 X2.6397 Y2.3834 Z-0.5778
N36570 X2.642 Y2.3857 Z-0.5773
N36575 X2.6442 Y2.3879 Z-0.5765
N36580 X2.6463 Y2.3901 Z-0.5753
N36585 X2.6488 Y2.3926 Z-0.5739
N36590 X2.6514 Y2.3952 Z-0.573
N36595 X2.6541 Y2.3979 Z-0.5727
N36600 X2.6704 Y2.4141
N36605 G3 Y2.4495 I-0.0177 J0.0177
N36610 X2.6351 I-0.0177 J-0.0177
N36615 G1 X2.6324 Y2.4468 Z-0.573
N36620 X2.6298 Y2.4442 Z-0.5739
N36625 X2.6273 Y2.4417 Z-0.5753
N36630 X2.6254 Y2.4398 Z-0.5766
N36635 X2.6232 Y2.4376 Z-0.5778
N36640 X2.621 Y2.4354 Z-0.5787
N36645 X2.6187 Y2.4331 Z-0.5791
N36650 X2.6163 Y2.4308
N36655 X-0.461 Y-0.6466 Z-0.275
N36660 X-0.4633 Y-0.6488 Z-0.2745
N36665 X-0.4655 Y-0.651 Z-0.2737
N36670 X-0.4676 Y-0.6531 Z-0.2725
N36675 X-0.47 Y-0.6556 Z-0.2711
N36680 X-0.4727 Y-0.6582 Z-0.2702
N36685 X-0.4753 Y-0.6609 Z-0.2699
N36690 G2 X-0.5107 Y-0.6255 I-0.0177 J0.0177
N36695 G1 X-0.5087 Y-0.6235
N36700 X-0.506 Y-0.6208 Z-0.2702
N36705 X-0.5034 Y-0.6182 Z-0.2711
N36710 X-0.5009 Y-0.6157 Z-0.2725
N36715 X-0.4988 Y-0.6136 Z-0.2737
N36720 X-0.4966 Y-0.6114 Z-0.2745
N36725 X-0.4943 Y-0.6092 Z-0.275
N36730 X2.5955 Y2.4806 Z-0.5805
N36735 X2.5978 Y2.4829
N36740 X2.6001 Y2.4852 Z-0.5801
N36745 X2.6023 Y2.4875 Z-0.5792
N36750 X2.6045 Y2.4896 Z-0.578
N36755 X2.607 Y2.4921 Z-0.5766
N36760 X2.6096 Y2.4947 Z-0.5757
N36765 X2.6123 Y2.4974 Z-0.5754
N36770 X2.6286 Y2.5138
N36775 G3 X2.5933 Y2.5491 I-0.0177 J0.0177
N36780 G1 X2.5906 Y2.5464 Z-0.5757
N36785 X2.588 Y2.5438 Z-0.5766
N36790 X2.5855 Y2.5413 Z-0.578
N36795 X2.5835 Y2.5393 Z-0.5794
N36800 X2.5813 Y2.5372 Z-0.5806
N36805 X2.5791 Y2.5349 Z-0.5815
N36810 X2.5768 Y2.5326 Z-0.5819
N36815 X2.5744 Y2.5303
N36820 X-0.5291 Y-0.5733 Z-0.275
N36825 X-0.5314 Y-0.5755 Z-0.2745
N36830 X-0.5336 Y-0.5777 Z-0.2737
N36835 X-0.5357 Y-0.5798 Z-0.2725
N36840 X-0.5382 Y-0.5823 Z-0.2711
N36845 X-0.5408 Y-0.5849 Z-0.2702
N36850 X-0.5435 Y-0.5876 Z-0.2699
N36855 X-0.5444 Y-0.5885
N36860 G2 X-0.5797 I-0.0177 J0.0177
N36865 Y-0.5532 I0.0177 J0.0177
N36870 G1 X-0.577 Y-0.5505 Z-0.2702
N36875 X-0.5744 Y-0.5479 Z-0.2711
N36880 X-0.5719 Y-0.5454 Z-0.2725
N36885 X-0.5698 Y-0.5433 Z-0.2737
N36890 X-0.5676 Y-0.5411 Z-0.2745
N36895 X-0.5654 Y-0.5388 Z-0.275
N36900 X2.5535 Y2.58 Z-0.5833
N36905 X2.5558 Y2.5823
N36910 X2.5581 Y2.5847 Z-0.5829
N36915 X2.5603 Y2.5869 Z-0.5821
N36920 X2.5625 Y2.589 Z-0.5808
N36925 X2.565 Y2.5915 Z-0.5794
N36930 X2.5676 Y2.5941 Z-0.5786
N36935 X2.5703 Y2.5968 Z-0.5783
N36940 X2.5868 Y2.6134
N36945 G3 X2.5515 Y2.6487 I-0.0177 J0.0177
N36950 G1 X2.5488 Y2.6461 Z-0.5786
N36955 X2.5462 Y2.6435 Z-0.5794
N36960 X2.5437 Y2.641 Z-0.5808
N36965 X2.5416 Y2.6388 Z-0.5823
N36970 X2.5394 Y2.6367 Z-0.5836
N36975 X2.5372 Y2.6344 Z-0.5844
N36980 X2.5349 Y2.6321 Z-0.5848
N36985 X2.5326 Y2.6298
N36990 X-0.5437 Y-0.4465 Z-0.2808
N36995 X-0.603 Y-0.5057 Z-0.275
N37000 X-0.6052 Y-0.508 Z-0.2745
N37005 X-0.6074 Y-0.5101 Z-0.2737
N37010 X-0.6095 Y-0.5122 Z-0.2725
N37015 X-0.612 Y-0.5147 Z-0.2711
N37020 X-0.6146 Y-0.5174 Z-0.2702
N37025 X-0.6173 Y-0.52 Z-0.2699
N37030 X-0.621 Y-0.5237
N37035 G2 X-0.6563 I-0.0177 J0.0177
N37040 Y-0.4883 I0.0177 J0.0177
N37045 G1 X-0.6536 Y-0.4857 Z-0.2702
N37050 X-0.651 Y-0.4831 Z-0.2711
N37055 X-0.6485 Y-0.4806 Z-0.2725
N37060 X-0.6464 Y-0.4785 Z-0.2737
N37065 X-0.6442 Y-0.4763 Z-0.2745
N37070 X-0.642 Y-0.474 Z-0.275
N37075 X-0.2098 Y-0.0419 Z-0.3175
N37080 X2.5109 Y2.6789 Z-0.5862
N37085 X2.5132 Y2.6812
N37090 X2.5155 Y2.6835 Z-0.5858
N37095 X2.5177 Y2.6857 Z-0.585
N37100 X2.5199 Y2.6879 Z-0.5837
N37105 X2.5224 Y2.6904 Z-0.5823
N37110 X2.525 Y2.693 Z-0.5815
N37115 X2.5277 Y2.6956 Z-0.5812
N37120 X2.5393 Y2.7073
N37125 G3 X2.5039 Y2.7426 I-0.0177 J0.0177
N37130 G1 X2.5013 Y2.7399 Z-0.5815
N37135 X2.4986 Y2.7373 Z-0.5823
N37140 X2.4962 Y2.7348 Z-0.5837
N37145 X2.4946 Y2.7332 Z-0.5848
N37150 X2.4924 Y2.7311 Z-0.5861
N37155 X2.4902 Y2.7289 Z-0.5869
N37160 X2.4879 Y2.7266 Z-0.5873
N37165 X2.4856 Y2.7242
N37170 X0.0968 Y0.3355 Z-0.3515
N37175 X-0.6462 Y-0.4075 Z-0.2785
N37180 X-0.6824 Y-0.4438 Z-0.275
N37185 X-0.6847 Y-0.446 Z-0.2745
N37190 X-0.6869 Y-0.4482 Z-0.2737
N37195 X-0.689 Y-0.4503 Z-0.2725
N37200 X-0.6915 Y-0.4528 Z-0.2711
N37205 X-0.6941 Y-0.4554 Z-0.2702
N37210 X-0.6968 Y-0.4581 Z-0.2699
N37215 X-0.7033 Y-0.4647
N37220 G2 X-0.7387 Y-0.4293 I-0.0177 J0.0177
N37225 G1 X-0.736 Y-0.4266 Z-0.2702
N37230 X-0.7334 Y-0.424 Z-0.2711
N37235 X-0.7309 Y-0.4215 Z-0.2725
N37240 X-0.7288 Y-0.4194 Z-0.2737
N37245 X-0.7266 Y-0.4172 Z-0.2745
N37250 X-0.7244 Y-0.415 Z-0.275
N37255 X-0.475 Y-0.1656 Z-0.2992
N37260 X0.3238 Y0.6332 Z-0.3776
N37265 X2.4567 Y2.7661 Z-0.5881
N37270 X2.459 Y2.7684
N37275 X2.4613 Y2.7707 Z-0.5877
N37280 X2.4635 Y2.7729 Z-0.5869
N37285 X2.4657 Y2.7751 Z-0.5856
N37290 X2.4682 Y2.7776 Z-0.5842
N37295 X2.4708 Y2.7802 Z-0.5834
N37300 X2.4735 Y2.7829 Z-0.5831
N37305 X2.4773 Y2.7867
N37310 G3 Y2.8221 I-0.0177 J0.0177
N37315 X2.442 I-0.0177 J-0.0177
N37320 G1 X2.4393 Y2.8194 Z-0.5834
N37325 X2.4367 Y2.8168 Z-0.5842
N37330 X2.4342 Y2.8143 Z-0.5856
N37335 X2.4335 Y2.8136 Z-0.5861
N37340 X2.4313 Y2.8114 Z-0.5873
N37345 X2.4291 Y2.8092 Z-0.5882
N37350 X2.4268 Y2.8069 Z-0.5886
N37355 X2.4245 Y2.8046
N37360 X0.4865 Y0.8666 Z-0.3975
N37365 X-0.3326 Y0.0475 Z-0.3171
N37370 X-0.7566 Y-0.3765 Z-0.276
N37375 X-0.7677 Y-0.3876 Z-0.275
N37380 X-0.77 Y-0.3899 Z-0.2745
N37385 X-0.7722 Y-0.3921 Z-0.2737
N37390 X-0.7743 Y-0.3942 Z-0.2725
N37395 X-0.7768 Y-0.3967 Z-0.2711
N37400 X-0.7794 Y-0.3993 Z-0.2702
N37405 X-0.7821 Y-0.402 Z-0.2699
N37410 X-0.7918 Y-0.4117
N37415 G2 X-0.8271 I-0.0177 J0.0177
N37420 Y-0.3763 I0.0177 J0.0177
N37425 G1 X-0.8245 Y-0.3737 Z-0.2702
N37430 X-0.8218 Y-0.3711 Z-0.2711
N37435 X-0.8194 Y-0.3686 Z-0.2725
N37440 X-0.8172 Y-0.3664 Z-0.2737
N37445 X-0.815 Y-0.3642 Z-0.2745
N37450 X-0.8128 Y-0.362 Z-0.275
N37455 X-0.8127
N37460 X-0.6572 Y-0.2064 Z-0.2898
N37465 X-0.2011 Y0.2497 Z-0.334
N37470 X0.6265 Y1.0773 Z-0.4151
N37475 X2.389 Y2.8398 Z-0.5888
N37480 X2.3913 Y2.8421
N37485 X2.3936 Y2.8444 Z-0.5884
N37490 X2.3959 Y2.8467 Z-0.5875
N37495 X2.398 Y2.8488 Z-0.5863
N37500 X2.4005 Y2.8513 Z-0.5849
N37505 X2.4031 Y2.8539 Z-0.584
N37510 X2.4058 Y2.8566 Z-0.5837
N37515 G3 X2.3705 Y2.892 I-0.0177 J0.0177
N37520 G1 X2.3681 Y2.8896
N37525 X2.3654 Y2.8869 Z-0.584
N37530 X2.3628 Y2.8843 Z-0.5849
N37535 X2.3603 Y2.8818 Z-0.5863
N37540 X2.3582 Y2.8797 Z-0.5875
N37545 X2.3559 Y2.8774 Z-0.5884
N37550 X2.3536 Y2.8751 Z-0.5888
N37555 X2.3513 Y2.8728
N37560 X2.3501 Y2.8716 Z-0.5887
N37565 X0.7076 Y1.2291 Z-0.4269
N37570 X-0.1008 Y0.4207 Z-0.3478
N37575 X-0.5687 Y-0.0472 Z-0.3025
N37580 X-0.8546 Y-0.3331 Z-0.2754
N37585 X-0.8594 Y-0.3379 Z-0.275
N37590 X-0.8617 Y-0.3402 Z-0.2745
N37595 X-0.8639 Y-0.3424 Z-0.2737
N37600 X-0.866 Y-0.3445 Z-0.2725
N37605 X-0.8685 Y-0.347 Z-0.2711
N37610 X-0.8711 Y-0.3496 Z-0.2702
N37615 X-0.8738 Y-0.3523 Z-0.2699
N37620 X-0.8867 Y-0.3652
N37625 G2 X-0.9221 Y-0.3299 I-0.0177 J0.0177
N37630 G1 X-0.9194 Y-0.3272 Z-0.2702
N37635 X-0.9168 Y-0.3246 Z-0.2711
N37640 X-0.9143 Y-0.3221 Z-0.2725
N37645 X-0.9122 Y-0.32 Z-0.2737
N37650 X-0.91 Y-0.3178 Z-0.2745
N37655 X-0.9077 Y-0.3155 Z-0.275
N37660 X-0.7718 Y-0.1796 Z-0.2876
N37665 X-0.4634 Y0.1288 Z-0.3169
N37670 X0.0259 Y0.6182 Z-0.3642
N37675 X0.8236 Y1.4158 Z-0.4422
N37680 X2.3077 Y2.8999 Z-0.5882
N37685 X2.31 Y2.9023
N37690 X2.3123 Y2.9046 Z-0.5878
N37695 X2.3146 Y2.9068 Z-0.587
N37700 X2.3167 Y2.9089 Z-0.5857
N37705 X2.3178 Y2.91 Z-0.585
N37710 X2.3203 Y2.9125 Z-0.5836
N37715 X2.3229 Y2.9151 Z-0.5827
N37720 X2.3256 Y2.9178 Z-0.5824
N37725 G3 Y2.9531 I-0.0177 J0.0177
N37730 X2.2902 I-0.0177 J-0.0177
N37735 G1 X2.2787 Y2.9416
N37740 X2.276 Y2.9389 Z-0.5827
N37745 X2.2734 Y2.9363 Z-0.5836
N37750 X2.2709 Y2.9338 Z-0.585
N37755 X2.2687 Y2.9317 Z-0.5862
N37760 X2.2665 Y2.9294 Z-0.5871
N37765 X2.2642 Y2.9271 Z-0.5875
N37770 X2.2619 Y2.9248
N37775 X0.8849 Y1.5478 Z-0.4521
N37780 X0.0979 Y0.7608 Z-0.3753
N37785 X-0.3914 Y0.2715 Z-0.328
N37790 X-0.7105 Y-0.0476 Z-0.2978
N37795 X-0.9344 Y-0.2715 Z-0.2771
N37800 X-0.9577 Y-0.2948 Z-0.275
N37805 X-0.96 Y-0.2971 Z-0.2745
N37810 X-0.9622 Y-0.2993 Z-0.2737
N37815 X-0.9643 Y-0.3014 Z-0.2725
N37820 X-0.9668 Y-0.3039 Z-0.2711
N37825 X-0.9694 Y-0.3065 Z-0.2702
N37830 X-0.9721 Y-0.3092 Z-0.2699
N37835 X-0.9885 Y-0.3256
N37840 G2 X-1.0239 Y-0.2903 I-0.0177 J0.0177
N37845 G1 X-1.0212 Y-0.2876 Z-0.2702
N37850 X-1.0186 Y-0.285 Z-0.2711
N37855 X-1.0161 Y-0.2825 Z-0.2725
N37860 X-1.014 Y-0.2804 Z-0.2737
N37865 X-1.0117 Y-0.2781 Z-0.2746
N37870 X-1.0095 Y-0.2758 Z-0.275
N37875 X-0.8664 Y-0.1328 Z-0.2879
N37880 X-0.6329 Y0.1007 Z-0.3095
N37885 X-0.3031 Y0.4305 Z-0.3408
N37890 X0.1766 Y0.9102 Z-0.387
N37895 X0.9315 Y1.6651 Z-0.4606
N37900 X2.2121 Y2.9458 Z-0.5864
N37905 X2.2145 Y2.9481
N37910 X2.2168 Y2.9504 Z-0.586
N37915 X2.219 Y2.9526 Z-0.5852
N37920 X2.2211 Y2.9548 Z-0.5839
N37925 X2.2233 Y2.957 Z-0.5824
N37930 X2.2258 Y2.9595 Z-0.581
N37935 X2.2284 Y2.9621 Z-0.5801
N37940 X2.2311 Y2.9647 Z-0.5798
N37945 G3 X2.1958 Y3.0001 I-0.0177 J0.0177
N37950 G1 X2.1745 Y2.9788
N37955 X2.1718 Y2.9761 Z-0.5801
N37960 X2.1692 Y2.9735 Z-0.581
N37965 X2.1667 Y2.971 Z-0.5824
N37970 X2.1645 Y2.9689 Z-0.5836
N37975 X2.1623 Y2.9666 Z-0.5845
N37980 X2.16 Y2.9643 Z-0.5849
N37985 X2.1577 Y2.962
N37990 X0.952 Y1.7563 Z-0.4666
N37995 X0.2282 Y1.0325 Z-0.3961
N38000 X-0.2623 Y0.5421 Z-0.3489
N38005 X-0.5921 Y0.2122 Z-0.3177
N38010 X-0.8363 Y-0.0319 Z-0.2952
N38015 X-1.0269 Y-0.2226 Z-0.2781
N38020 X-1.0633 Y-0.2589 Z-0.275
N38025 X-1.0656 Y-0.2612 Z-0.2746
N38030 X-1.0678 Y-0.2635 Z-0.2737
N38035 X-1.07 Y-0.2656 Z-0.2725
N38040 X-1.0725 Y-0.2681 Z-0.2711
N38045 X-1.0751 Y-0.2707 Z-0.2702
N38050 X-1.0777 Y-0.2734 Z-0.2699
N38055 X-1.0984 Y-0.2941
N38060 G2 X-1.1338 Y-0.2588 I-0.0177 J0.0177
N38065 G1 X-1.1311 Y-0.2561 Z-0.2702
N38070 X-1.1285 Y-0.2535 Z-0.2711
N38075 X-1.126 Y-0.251 Z-0.2725
N38080 X-1.1239 Y-0.2488 Z-0.2737
N38085 X-1.1216 Y-0.2466 Z-0.2746
N38090 X-1.1193 Y-0.2443 Z-0.275
N38095 Y-0.2442
N38100 X-0.9935 Y-0.1185 Z-0.2858
N38105 X-0.7933 Y0.0818 Z-0.3037
N38110 X-0.5491 Y0.326 Z-0.3262
N38115 X-0.2085 Y0.6665 Z-0.3584
N38120 X0.2701 Y1.1451 Z-0.4043
N38125 X0.9832 Y1.8583 Z-0.4737
N38130 X2.0978 Y2.9728 Z-0.5829
N38135 X2.1001 Y2.9752
N38140 X2.1024 Y2.9775 Z-0.5824
N38145 X2.1047 Y2.9797 Z-0.5816
N38150 X2.1068 Y2.9818 Z-0.5804
N38155 X2.1093 Y2.9843 Z-0.579
N38160 X2.1119 Y2.987 Z-0.5781
N38165 X2.1146 Y2.9896 Z-0.5778
N38170 X2.1159 Y2.9911
N38175 X2.1171 Y2.9926
N38180 X2.1182 Y2.9942
N38185 X2.1192 Y2.996 Z-0.5777
N38190 X2.12 Y2.9977
N38195 X2.1207 Y2.9996
N38200 X2.1212 Y3.0015 Z-0.5776
N38205 X2.1216 Y3.0034
N38210 X2.1219 Y3.0054 Z-0.5775
N38215 Y3.0073 Z-0.5774
N38220 Y3.0093 Z-0.5773
N38225 X2.1216 Y3.0112
N38230 X2.1212 Y3.0132 Z-0.5772
N38235 X2.1207 Y3.0151 Z-0.5771
N38240 X2.12 Y3.0169 Z-0.577
N38245 X2.1192 Y3.0187 Z-0.5769
N38250 X2.1183 Y3.0204 Z-0.5768
N38255 X2.1172 Y3.022 Z-0.5767
N38260 X2.116 Y3.0236 Z-0.5766
N38265 X2.1146 Y3.025 Z-0.5765
N38270 X2.1132 Y3.0263 Z-0.5764
N38275 X2.1116 Y3.0276 Z-0.5763
N38280 X2.11 Y3.0286 Z-0.5762
N38285 X2.1083 Y3.0296 Z-0.5761
N38290 X2.1065 Y3.0304 Z-0.576
N38295 X2.1047 Y3.0311 Z-0.5759
N38300 X2.1028 Y3.0316 Z-0.5758
N38305 X2.1009 Y3.032 Z-0.5757
N38310 X2.0989 Y3.0322 Z-0.5756
N38315 X2.0969 Y3.0323 Z-0.5755
N38320 X2.095 Y3.0322
N38325 X2.093 Y3.032 Z-0.5754
N38330 X2.0911 Y3.0316 Z-0.5753
N38335 X2.0892 Y3.0311
N38340 X2.0874 Y3.0304
N38345 X2.0856 Y3.0296 Z-0.5752
N38350 X2.0839 Y3.0286
N38355 X2.0822 Y3.0275
N38360 X2.0807 Y3.0263
N38365 X2.0792 Y3.025
N38370 X2.0479 Y2.9936
N38375 X2.0452 Y2.991 Z-0.5754
N38380 X2.0426 Y2.9884 Z-0.5763
N38385 X2.0401 Y2.9859 Z-0.5777
N38390 X2.038 Y2.9837 Z-0.579
N38395 X2.0357 Y2.9815 Z-0.5798
N38400 X2.0334 Y2.9792 Z-0.5802
N38405 X2.0311 Y2.9769
N38410 X0.9871 Y1.9329 Z-0.4781
N38415 X0.2954 Y1.2412 Z-0.4109
N38420 X-0.1736 Y0.7721 Z-0.366
N38425 X-0.5153 Y0.4305 Z-0.3338
N38430 X-0.768 Y0.1778 Z-0.3106
N38435 X-0.9693 Y-0.0236 Z-0.2926
N38440 X-1.1289 Y-0.1832 Z-0.279
N38445 X-1.1774 Y-0.2317 Z-0.275
N38450 X-1.1797 Y-0.234 Z-0.2746
N38455 X-1.182 Y-0.2363 Z-0.2737
N38460 X-1.1842 Y-0.2384 Z-0.2725
N38465 X-1.1867 Y-0.2409 Z-0.2711
N38470 X-1.1893 Y-0.2435 Z-0.2702
N38475 X-1.1919 Y-0.2462 Z-0.2699
N38480 X-1.2173 Y-0.2715
N38485 G2 X-1.2526 I-0.0177 J0.0177
N38490 Y-0.2362 I0.0177 J0.0177
N38495 G1 X-1.25 Y-0.2335 Z-0.2702
N38500 X-1.2473 Y-0.2309 Z-0.2711
N38505 X-1.2449 Y-0.2284 Z-0.2725
N38510 X-1.2427 Y-0.2262 Z-0.2737
N38515 X-1.2404 Y-0.224 Z-0.2746
N38520 X-1.2381 Y-0.2216 Z-0.275
N38525 X-1.1039 Y-0.0875 Z-0.2859
N38530 X-0.9454 Y0.0711 Z-0.2994
N38535 X-0.7454 Y0.2711 Z-0.3172
N38540 X-0.4795 Y0.5369 Z-0.3416
N38545 X-0.139 Y0.8775 Z-0.3736
N38550 X0.3183 Y1.3347 Z-0.4173
N38555 X0.9768 Y1.9932 Z-0.4811
N38560 X1.9543 Y2.9708 Z-0.5766
N38565 X1.9566 Y2.9731
N38570 X1.9589 Y2.9754 Z-0.5762
N38575 X1.9612 Y2.9776 Z-0.5753
N38580 X1.9633 Y2.9798 Z-0.5741
N38585 X1.9658 Y2.9823 Z-0.5727
N38590 X1.9684 Y2.9849 Z-0.5718
N38595 X1.9711 Y2.9876 Z-0.5715
N38600 X1.9724 Y2.989
N38605 X1.9737 Y2.9906
N38610 X1.9748 Y2.9922
N38615 X1.9757 Y2.9939 Z-0.5714
N38620 X1.9766 Y2.9957 Z-0.5713
N38625 X1.9773 Y2.9976
N38630 X1.9778 Y2.9994 Z-0.5712
N38635 X1.9782 Y3.0014 Z-0.571
N38640 X1.9784 Y3.0033 Z-0.5709
N38645 X1.9785 Y3.0053 Z-0.5708
N38650 X1.9784 Y3.0073 Z-0.5706
N38655 X1.9782 Y3.0092 Z-0.5704
N38660 X1.9778 Y3.0112 Z-0.5703
N38665 X1.9773 Y3.013 Z-0.5701
N38670 X1.9766 Y3.0149 Z-0.5699
N38675 X1.9758 Y3.0167 Z-0.5697
N38680 X1.9748 Y3.0184 Z-0.5695
N38685 X1.9738 Y3.02 Z-0.5693
N38690 X1.9725 Y3.0216 Z-0.5691
N38695 X1.9712 Y3.023 Z-0.5689
N38700 X1.9698 Y3.0243 Z-0.5687
N38705 X1.9682 Y3.0256 Z-0.5685
N38710 X1.9666 Y3.0266 Z-0.5682
N38715 X1.9649 Y3.0276 Z-0.568
N38720 X1.9631 Y3.0284 Z-0.5678
N38725 X1.9612 Y3.0291 Z-0.5677
N38730 X1.9594 Y3.0296 Z-0.5675
N38735 X1.9574 Y3.03 Z-0.5673
N38740 X1.9555 Y3.0302 Z-0.5671
N38745 X1.9535 Y3.0303 Z-0.567
N38750 X1.9515 Y3.0302 Z-0.5668
N38755 X1.9496 Y3.03 Z-0.5667
N38760 X1.9476 Y3.0296 Z-0.5666
N38765 X1.9458 Y3.029 Z-0.5665
N38770 X1.9439 Y3.0284 Z-0.5664
N38775 X1.9421 Y3.0275 Z-0.5663
N38780 X1.9404 Y3.0266
N38785 X1.9388 Y3.0255 Z-0.5662
N38790 X1.9372 Y3.0242
N38795 X1.9358 Y3.0229
N38800 X1.8761 Y2.9633
N38805 X1.8734 Y2.9606 Z-0.5665
N38810 X1.8708 Y2.958 Z-0.5673
N38815 X1.8683 Y2.9555 Z-0.5688
N38820 X1.8662 Y2.9533 Z-0.57
N38825 X1.8639 Y2.9511 Z-0.5708
N38830 X1.8617 Y2.9488 Z-0.5713
N38835 X1.8593 Y2.9465 Z-0.5712
N38840 X0.9545 Y2.0417 Z-0.483
N38845 X0.3292 Y1.4164 Z-0.4226
N38850 X-0.1269 Y0.9602 Z-0.3791
N38855 X-0.4632 Y0.624 Z-0.3476
N38860 X-0.7213 Y0.3659 Z-0.324
N38865 X-0.9312 Y0.156 Z-0.3054
N38870 X-1.1004 Y-0.0132 Z-0.291
N38875 X-1.2353 Y-0.1482 Z-0.2801
N38880 X-1.3017 Y-0.2145 Z-0.275
N38885 X-1.304 Y-0.2169 Z-0.2746
N38890 X-1.3063 Y-0.2191 Z-0.2737
N38895 X-1.3085 Y-0.2213 Z-0.2725
N38900 Z-0.2724
N38905 X-1.311 Y-0.2238 Z-0.271
N38910 X-1.3136 Y-0.2264 Z-0.2702
N38915 X-1.3163 Y-0.2291 Z-0.2699
N38920 X-1.3475 Y-0.2603
N38925 G2 X-1.3828 Y-0.225 I-0.0177 J0.0177
N38930 G1 X-1.3802 Y-0.2223 Z-0.2702
N38935 X-1.3776 Y-0.2197 Z-0.271
N38940 X-1.3751 Y-0.2172 Z-0.2724
N38945 X-1.3729 Y-0.215 Z-0.2737
N38950 X-1.3705 Y-0.2127 Z-0.2746
N38955 X-1.3682 Y-0.2103 Z-0.275
N38960 X-1.364 Y-0.2062 Z-0.2753
N38965 X-1.2418 Y-0.084 Z-0.2845
N38970 X-1.0962 Y0.0617 Z-0.2962
N38975 X-0.928 Y0.2298 Z-0.3104
N38980 X-0.7278 Y0.4301 Z-0.3281
N38985 X-0.474 Y0.6839 Z-0.3511
N38990 X-0.1559 Y1.002 Z-0.3808
N38995 X0.2681 Y1.426 Z-0.421
N39000 X0.8506 Y2.0084 Z-0.4771
N39005 X1.6686 Y2.8265 Z-0.5566
N39010 X1.671 Y2.8288
N39015 X1.6733 Y2.8311 Z-0.5562
N39020 X1.6755 Y2.8333 Z-0.5554
N39025 X1.6776 Y2.8355 Z-0.5541
N39030 X1.6801 Y2.838 Z-0.5527
N39035 X1.6827 Y2.8406 Z-0.5518
N39040 X1.6854 Y2.8433 Z-0.5516
N39045 X1.6868 Y2.8448 Z-0.5515
N39050 X1.6881 Y2.8464 Z-0.5514
N39055 X1.6893 Y2.848 Z-0.5513
N39060 X1.6904 Y2.8498 Z-0.551
N39065 X1.6913 Y2.8516 Z-0.5508
N39070 X1.6921 Y2.8535 Z-0.5504
N39075 X1.6928 Y2.8554 Z-0.55
N39080 X1.6933 Y2.8573 Z-0.5496
N39085 X1.6937 Y2.8592 Z-0.5491
N39090 X1.6939 Y2.8612 Z-0.5485
N39095 X1.694 Y2.8632 Z-0.5479
N39100 Y2.8651 Z-0.5473
N39105 X1.6938 Y2.867 Z-0.5466
N39110 X1.6934 Y2.8689 Z-0.5458
N39115 X1.6929 Y2.8708 Z-0.5451
N39120 X1.6923 Y2.8726 Z-0.5443
N39125 X1.6915 Y2.8743 Z-0.5435
N39130 X1.6906 Y2.876 Z-0.5427
N39135 X1.6896 Y2.8775 Z-0.5418
N39140 X1.6884 Y2.879 Z-0.541
N39145 X1.6872 Y2.8804 Z-0.5401
N39150 X1.6858 Y2.8817 Z-0.5393
N39155 X1.6843 Y2.8828 Z-0.5384
N39160 X1.6828 Y2.8838 Z-0.5376
N39165 X1.6811 Y2.8847 Z-0.5368
N39170 X1.6794 Y2.8855 Z-0.5359
N39175 X1.6776 Y2.8861 Z-0.5352
N39180 X1.6757 Y2.8866 Z-0.5344
N39185 X1.6738 Y2.887 Z-0.5337
N39190 X1.6719 Y2.8872 Z-0.533
N39195 X1.67 Z-0.5323
N39200 X1.668 Y2.8871 Z-0.5317
N39205 X1.666 Y2.8869 Z-0.5312
N39210 X1.6641 Y2.8865 Z-0.5307
N39215 X1.6621 Y2.886 Z-0.5302
N39220 X1.6602 Y2.8853 Z-0.5298
N39225 X1.6584 Y2.8845 Z-0.5295
N39230 X1.6566 Y2.8836 Z-0.5292
N39235 X1.6548 Y2.8825 Z-0.529
N39240 X1.6532 Y2.8813 Z-0.5288
N39245 X1.6516 Y2.88 Z-0.5287
N39250 X1.6501 Y2.8786
N39255 X1.4091 Y2.6377
N39260 X1.4064 Y2.635 Z-0.529
N39265 X1.4038 Y2.6324 Z-0.5298
N39270 X1.4013 Y2.6299 Z-0.5312
N39275 X1.3992 Y2.6277 Z-0.5325
N39280 X1.3969 Y2.6255 Z-0.5333
N39285 X1.3946 Y2.6232 Z-0.5337
N39290 X1.3923 Y2.6209
N39295 X0.6824 Y1.911 Z-0.465
N39300 X0.1642 Y1.3928 Z-0.4154
N39305 X-0.2288 Y0.9998 Z-0.3784
N39310 X-0.535 Y0.6935 Z-0.3501
N39315 X-0.7663 Y0.4622 Z-0.3293
N39320 X-0.9644 Y0.2641 Z-0.3121
N39325 X-1.123 Y0.1056 Z-0.2988
N39330 X-1.259 Y-0.0305 Z-0.2881
N39335 X-1.3725 Y-0.144 Z-0.2796
N39340 X-1.4385 Y-0.21 Z-0.275
N39345 X-1.4409 Y-0.2124 Z-0.2746
N39350 X-1.4432 Y-0.2147 Z-0.2737
N39355 X-1.4455 Y-0.2169 Z-0.2724
N39360 X-1.4479 Y-0.2194 Z-0.271
N39365 X-1.4506 Y-0.222 Z-0.2702
N39370 X-1.4532 Y-0.2247 Z-0.2699
N39375 X-1.4924 Y-0.2639
N39380 G2 X-1.5278 Y-0.2285 I-0.0177 J0.0177
N39385 G1 X-1.5251 Y-0.2258 Z-0.2702
N39390 X-1.5225 Y-0.2232 Z-0.271
N39395 X-1.52 Y-0.2207 Z-0.2724
N39400 X-1.5178 Y-0.2185 Z-0.2737
N39405 X-1.5155 Y-0.2162 Z-0.2746
N39410 X-1.5131 Y-0.2138 Z-0.275
N39415 X-1.4094 Y-0.1101 Z-0.2819
N39420 X-1.2852 Y0.0141 Z-0.291
N39425 X-1.1406 Y0.1587 Z-0.3023
N39430 X-0.9831 Y0.3162 Z-0.3153
N39435 X-0.7935 Y0.5057 Z-0.3316
N39440 X-0.5611 Y0.7381 Z-0.3523
N39445 X-0.2667 Y1.0326 Z-0.3793
N39450 X0.106 Y1.4053 Z-0.4142
N39455 X0.5825 Y1.8817 Z-0.4596
N39460 X1.2314 Y2.5306 Z-0.5222
N39465 X1.2337 Y2.533
N39470 X1.236 Y2.5352 Z-0.5218
N39475 X1.2382 Y2.5375 Z-0.521
N39480 X1.2404 Y2.5396 Z-0.5197
N39485 X1.2428 Y2.5421 Z-0.5183
N39490 X1.2455 Y2.5447 Z-0.5174
N39495 X1.2481 Y2.5474 Z-0.5172
N39500 X1.2495 Y2.5489 Z-0.5171
N39505 X1.2507 Y2.5504
N39510 X1.2518 Y2.5521 Z-0.517
N39515 X1.2528 Y2.5538
N39520 X1.2536 Y2.5556 Z-0.5168
N39525 X1.2543 Y2.5575 Z-0.5167
N39530 X1.2549 Y2.5594 Z-0.5165
N39535 X1.2553 Y2.5613 Z-0.5163
N39540 X1.2555 Y2.5633 Z-0.5161
N39545 X1.2556 Y2.5653 Z-0.5159
N39550 Y2.5672 Z-0.5157
N39555 X1.2553 Y2.5692 Z-0.5154
N39560 X1.255 Y2.5711 Z-0.5151
N39565 X1.2545 Y2.573 Z-0.5148
N39570 X1.2538 Y2.5749 Z-0.5145
N39575 X1.253 Y2.5767 Z-0.5142
N39580 X1.252 Y2.5784 Z-0.5139
N39585 X1.2509 Y2.58 Z-0.5136
N39590 X1.2497 Y2.5816 Z-0.5132
N39595 X1.2484 Y2.583 Z-0.5129
N39600 X1.2469 Y2.5843 Z-0.5126
N39605 X1.2454 Y2.5856 Z-0.5123
N39610 X1.2438 Y2.5866 Z-0.5119
N39615 X1.242 Y2.5876 Z-0.5116
N39620 X1.2403 Y2.5884 Z-0.5113
N39625 X1.2384 Y2.5891 Z-0.511
N39630 X1.2365 Y2.5896 Z-0.5107
N39635 X1.2346 Y2.59 Z-0.5104
N39640 X1.2326 Y2.5902 Z-0.5102
N39645 X1.2306 Y2.5903 Z-0.5099
N39650 X1.2287 Y2.5902 Z-0.5097
N39655 X1.2267 Y2.5899 Z-0.5095
N39660 X1.2248 Y2.5895 Z-0.5093
N39665 X1.2228 Y2.589 Z-0.5091
N39670 X1.221 Y2.5883 Z-0.509
N39675 X1.2192 Y2.5874 Z-0.5089
N39680 X1.2175 Y2.5865 Z-0.5088
N39685 X1.2158 Y2.5853 Z-0.5087
N39690 X1.2142 Y2.5841
N39695 X1.2128 Y2.5828
N39700 X1.1176 Y2.4875
N39705 X1.1149 Y2.4849 Z-0.509
N39710 X1.1123 Y2.4822 Z-0.5098
N39715 X1.1098 Y2.4797 Z-0.5112
N39720 X1.1076 Y2.4776 Z-0.5125
N39725 X1.1054 Y2.4754 Z-0.5133
N39730 X1.1031 Y2.4731 Z-0.5137
N39735 X1.1008 Y2.4708
N39740 X0.5054 Y1.8754 Z-0.4565
N39745 X0.0547 Y1.4247 Z-0.4138
N39750 X-0.2943 Y1.0756 Z-0.3813
N39755 X-0.5685 Y0.8015 Z-0.3563
N39760 X-0.7902 Y0.5798 Z-0.3366
N39765 X-0.9797 Y0.3902 Z-0.3204
N39770 X-1.1383 Y0.2317 Z-0.3074
N39775 X-1.2851 Y0.0849 Z-0.2959
N39780 X-1.4093 Y-0.0394 Z-0.2869
N39785 X-1.5133 Y-0.1433 Z-0.2799
N39790 X-1.5928 Y-0.2228 Z-0.275
N39795 X-1.5952 Y-0.2252 Z-0.2746
N39800 X-1.5975 Y-0.2276 Z-0.2737
N39805 X-1.5998 Y-0.2298 Z-0.2724
N39810 X-1.6023 Y-0.2323 Z-0.271
N39815 X-1.6049 Y-0.2349 Z-0.2702
N39820 X-1.6076 Y-0.2376 Z-0.2699
N39825 X-1.6588 Y-0.2888
N39830 G2 X-1.6941 I-0.0177 J0.0177
N39835 Y-0.2534 I0.0177 J0.0177
N39840 G1 X-1.6914 Y-0.2508 Z-0.2702
N39845 X-1.6888 Y-0.2481 Z-0.271
N39850 X-1.6863 Y-0.2457 Z-0.2724
N39855 X-1.6841 Y-0.2434 Z-0.2737
N39860 X-1.6817 Y-0.241 Z-0.2746
N39865 X-1.6793 Y-0.2386 Z-0.275
N39870 X-1.6792
N39875 X-1.6246 Y-0.1839 Z-0.278
N39880 X-1.5303 Y-0.0896 Z-0.2837
N39885 X-1.4263 Y0.0143 Z-0.2906
N39890 X-1.3021 Y0.1386 Z-0.2996
N39895 X-1.1671 Y0.2736 Z-0.31
N39900 X-1.0193 Y0.4214 Z-0.3219
N39905 X-0.8275 Y0.6132 Z-0.3381
N39910 X-0.6069 Y0.8338 Z-0.3575
N39915 X-0.3435 Y1.0972 Z-0.3813
N39920 X-0.0062 Y1.4345 Z-0.4125
N39925 X0.4264 Y1.8671 Z-0.4533
N39930 X0.9864 Y2.4271 Z-0.5069
N39935 X0.9887 Y2.4294
N39940 X0.991 Y2.4317 Z-0.5065
N39945 X0.9932 Y2.4339 Z-0.5056
N39950 X0.9954 Y2.4361 Z-0.5044
N39955 X0.9979 Y2.4385 Z-0.503
N39960 X1.0005 Y2.4412 Z-0.5021
N39965 X1.0032 Y2.4438 Z-0.5018
N39970 X1.0045 Y2.4453
N39975 X1.0057 Y2.4468
N39980 X1.0068 Y2.4485
N39985 X1.0078 Y2.4502 Z-0.5017
N39990 X1.0086 Y2.452 Z-0.5016
N39995 X1.0093 Y2.4538 Z-0.5015
N40000 X1.0098 Y2.4557 Z-0.5014
N40005 X1.0102 Y2.4577 Z-0.5013
N40010 X1.0105 Y2.4596 Z-0.5011
N40015 X1.0106 Y2.4616 Z-0.501
N40020 X1.0105 Y2.4636 Z-0.5008
N40025 X1.0103 Y2.4655 Z-0.5006
N40030 X1.0099 Y2.4674 Z-0.5005
N40035 X1.0094 Y2.4693 Z-0.5003
N40040 X1.0087 Y2.4712 Z-0.5001
N40045 X1.0079 Y2.473 Z-0.4998
N40050 X1.0069 Y2.4747 Z-0.4996
N40055 X1.0058 Y2.4763 Z-0.4994
N40060 X1.0046 Y2.4779 Z-0.4992
N40065 X1.0033 Y2.4793 Z-0.499
N40070 X1.0018 Y2.4806 Z-0.4987
N40075 X1.0003 Y2.4818 Z-0.4985
N40080 X0.9986 Y2.4829 Z-0.4983
N40085 X0.9969 Y2.4839 Z-0.4981
N40090 X0.9951 Y2.4847 Z-0.4979
N40095 X0.9933 Y2.4854 Z-0.4977
N40100 X0.9914 Y2.4859 Z-0.4975
N40105 X0.9895 Y2.4863 Z-0.4973
N40110 X0.9875 Y2.4865 Z-0.4971
N40115 X0.9856 Y2.4866 Z-0.4969
N40120 X0.9836 Y2.4865 Z-0.4968
N40125 X0.9816 Y2.4863 Z-0.4966
N40130 X0.9797 Y2.4859 Z-0.4965
N40135 X0.9778 Y2.4853 Z-0.4964
N40140 X0.976 Y2.4846 Z-0.4963
N40145 X0.9742 Y2.4838 Z-0.4962
N40150 X0.9724 Y2.4829
N40155 X0.9708 Y2.4818 Z-0.4961
N40160 X0.9692 Y2.4805
N40165 X0.9678 Y2.4792
N40170 X0.8993 Y2.4107
N40175 X0.8966 Y2.408 Z-0.4964
N40180 X0.894 Y2.4054 Z-0.4972
N40185 X0.8915 Y2.4029 Z-0.4986
N40190 X0.8894 Y2.4008 Z-0.4999
N40195 X0.8872 Y2.3985 Z-0.5007
N40200 X0.8849 Y2.3963 Z-0.5011
N40205 X0.8826 Y2.3939
N40210 X0.3611 Y1.8725 Z-0.4515
N40215 X-0.0405 Y1.4709 Z-0.4138
N40220 X-0.367 Y1.1443 Z-0.3837
N40225 X-0.6316 Y0.8798 Z-0.36
N40230 X-0.8437 Y0.6677 Z-0.3415
N40235 X-1.0214 Y0.4899 Z-0.3266
N40240 X-1.1671 Y0.3443 Z-0.3149
N40245 X-1.2935 Y0.2179 Z-0.3051
N40250 X-1.4093 Y0.1021 Z-0.2968
N40255 X-1.5239 Y-0.0125 Z-0.2891
N40260 X-1.6268 Y-0.1154 Z-0.2828
N40265 X-1.7222 Y-0.2108 Z-0.2775
N40270 X-1.7751 Y-0.2637 Z-0.275
N40275 X-1.7775 Y-0.2661 Z-0.2746
N40280 X-1.7799 Y-0.2686 Z-0.2738
N40285 X-1.7822 Y-0.2709 Z-0.2724
N40290 X-1.7847 Y-0.2734 Z-0.271
N40295 X-1.7874 Y-0.276 Z-0.2702
N40300 X-1.79 Y-0.2786 Z-0.2699
N40305 X-1.8644 Y-0.353
N40310 G2 X-1.8997 Y-0.3176 I-0.0177 J0.0177
N40315 G1 X-1.897 Y-0.3149 Z-0.2702
N40320 X-1.8944 Y-0.3123 Z-0.271
N40325 X-1.8919 Y-0.3098 Z-0.2724
N40330 X-1.8896 Y-0.3075 Z-0.2738
N40335 X-1.8871 Y-0.3051 Z-0.2746
N40340 X-1.8846 Y-0.3025 Z-0.275
N40345 X-1.8514 Y-0.2693 Z-0.2763
N40350 X-1.7655 Y-0.1834 Z-0.2802
N40355 X-1.6734 Y-0.0913 Z-0.285
N40360 X-1.5705 Y0.0116 Z-0.291
N40365 X-1.4669 Y0.1152 Z-0.2977
N40370 X-1.3401 Y0.242 Z-0.3067
N40375 X-1.204 Y0.3781 Z-0.3169
N40380 X-1.0466 Y0.5355 Z-0.3294
N40385 X-0.8699 Y0.7122 Z-0.3441
N40390 X-0.6589 Y0.9232 Z-0.3623
N40395 X-0.405 Y1.1771 Z-0.3849
N40400 X-0.0902 Y1.4919 Z-0.4137
N40405 X0.3028 Y1.8849 Z-0.4503
N40410 X0.7867 Y2.3688 Z-0.4962
N40415 X0.7891 Y2.3711
N40420 X0.7913 Y2.3734 Z-0.4958
N40425 X0.7936 Y2.3757 Z-0.495
N40430 X0.7957 Y2.3778 Z-0.4937
N40435 X0.7982 Y2.3803 Z-0.4923
N40440 X0.8008 Y2.3829 Z-0.4915
N40445 X0.8035 Y2.3856 Z-0.4912
N40450 X0.8048 Y2.387
N40455 X0.806 Y2.3886
N40460 X0.8071 Y2.3902 Z-0.4911
N40465 X0.8081 Y2.3919
N40470 X0.8089 Y2.3937 Z-0.491
N40475 X0.8096 Y2.3956
N40480 X0.8102 Y2.3975 Z-0.4909
N40485 X0.8105 Y2.3994 Z-0.4908
N40490 X0.8108 Y2.4013 Z-0.4907
N40495 X0.8109 Y2.4033 Z-0.4906
N40500 X0.8108 Y2.4053 Z-0.4904
N40505 X0.8106 Y2.4072 Z-0.4903
N40510 X0.8102 Y2.4092 Z-0.4902
N40515 X0.8096 Y2.411 Z-0.49
N40520 X0.809 Y2.4129 Z-0.4899
N40525 X0.8081 Y2.4147 Z-0.4897
N40530 X0.8072 Y2.4164 Z-0.4895
N40535 X0.8061 Y2.418 Z-0.4894
N40540 X0.8049 Y2.4196 Z-0.4892
N40545 X0.8036 Y2.421 Z-0.489
N40550 X0.8021 Y2.4223 Z-0.4889
N40555 X0.8006 Y2.4235 Z-0.4887
N40560 X0.7989 Y2.4246 Z-0.4886
N40565 X0.7972 Y2.4256 Z-0.4884
N40570 X0.7954 Y2.4264 Z-0.4882
N40575 X0.7936 Y2.4271 Z-0.4881
N40580 X0.7917 Y2.4276 Z-0.4879
N40585 X0.7898 Y2.428 Z-0.4878
N40590 X0.7878 Y2.4282 Z-0.4877
N40595 X0.7859 Y2.4283 Z-0.4875
N40600 X0.7839 Y2.4282 Z-0.4874
N40605 X0.7819 Y2.428 Z-0.4873
N40610 X0.78 Y2.4276 Z-0.4872
N40615 X0.7781 Y2.4271 Z-0.4871
N40620 X0.7763 Y2.4264
N40625 X0.7745 Y2.4256 Z-0.487
N40630 X0.7728 Y2.4246
N40635 X0.7711 Y2.4235 Z-0.4869
N40640 X0.7696 Y2.4223
N40645 X0.7681 Y2.4209
N40650 X0.7133 Y2.3661
N40655 X0.7107 Y2.3635 Z-0.4872
N40660 X0.708 Y2.3608 Z-0.4881
N40665 X0.7056 Y2.3584 Z-0.4895
N40670 X0.7034 Y2.3562 Z-0.4907
N40675 X0.7012 Y2.354 Z-0.4915
N40680 X0.6989 Y2.3517 Z-0.492
N40685 X0.6966 Y2.3494
N40690 X0.2297 Y1.8825 Z-0.4479
N40695 X-0.1387 Y1.5141 Z-0.4137
N40700 X-0.4235 Y1.2293 Z-0.3879
N40705 X-0.6559 Y0.9969 Z-0.3673
N40710 X-0.8658 Y0.787 Z-0.3492
N40715 X-1.0447 Y0.6081 Z-0.3344
N40720 X-1.2033 Y0.4495 Z-0.3219
N40725 X-1.3393 Y0.3135 Z-0.3116
N40730 X-1.4669 Y0.1859 Z-0.3027
N40735 X-1.5794 Y0.0734 Z-0.2954
N40740 X-1.6822 Y-0.0294 Z-0.2893
N40745 X-1.7755 Y-0.1227 Z-0.2844
N40750 X-1.858 Y-0.2052 Z-0.2807
N40755 X-1.9443 Y-0.2915 Z-0.2773
N40760 X-2.021 Y-0.3682 Z-0.275
N40765 X-2.0249 Y-0.3721 Z-0.2745
N40770 X-2.0288 Y-0.376 Z-0.2735
N40775 X-2.0325 Y-0.3797 Z-0.2719
N40780 X-2.0361 Y-0.3833 Z-0.2697
N40785 X-2.0395 Y-0.3867 Z-0.2669
N40790 X-2.0426 Y-0.3898 Z-0.2637
N40795 X-2.0455 Y-0.3927 Z-0.2599
N40800 X-2.0481 Y-0.3953 Z-0.2558
N40805 X-2.0503 Y-0.3975 Z-0.2513
N40810 X-2.0522 Y-0.3994 Z-0.2464
N40815 X-2.0537 Y-0.4009 Z-0.2413
N40820 X-2.0547 Y-0.4019 Z-0.236
N40825 X-2.0554 Y-0.4026 Z-0.2305
N40830 X-2.0556 Y-0.4028 Z-0.225
N40835 G0 Z0.2
N40840 X-2.629 Y-1.4005
N40845 Z-0.1746
N40850 G1 Z-0.225 F39.37
N40855 X-2.6292 Y-1.4007 Z-0.2305
N40860 X-2.6299 Y-1.4013 Z-0.2358
N40865 X-2.6309 Y-1.4023 Z-0.2411
N40870 X-2.6323 Y-1.4038 Z-0.2461
N40875 X-2.6341 Y-1.4056 Z-0.2509
N40880 X-2.6363 Y-1.4077 Z-0.2554
N40885 X-2.6388 Y-1.4102 Z-0.2595
N40890 X-2.6416 Y-1.413 Z-0.2632
N40895 X-2.6446 Y-1.4161 Z-0.2665
N40900 X-2.6479 Y-1.4194 Z-0.2693
N40905 X-2.6514 Y-1.4229 Z-0.2716
N40910 X-2.6551 Y-1.4265 Z-0.2733
N40915 X-2.6588 Y-1.4303 Z-0.2744
N40920 X-2.6627 Y-1.4341 Z-0.275
N40925 X-2.6891 Y-1.4606 Z-0.2768
N40930 X-2.6914 Y-1.4628 Z-0.2767
N40935 X-2.6936 Y-1.465 Z-0.2763
N40940 X-2.6957 Y-1.4671 Z-0.2755
N40945 X-2.6978 Y-1.4692 Z-0.2743
N40950 X-2.7003 Y-1.4717 Z-0.2729
N40955 X-2.7029 Y-1.4743 Z-0.272
N40960 X-2.7055 Y-1.477 Z-0.2717
N40965 X-2.7409 Y-1.5123
N40970 X-2.7423 Y-1.5137
N40975 X-2.7439 Y-1.5149
N40980 X-2.7455 Y-1.516 Z-0.2718
N40985 X-2.7473 Y-1.517
N40990 X-2.749 Y-1.5178 Z-0.2719
N40995 X-2.7509 Y-1.5185 Z-0.272
N41000 X-2.7528 Y-1.519 Z-0.2721
N41005 X-2.7547 Y-1.5194 Z-0.2722
N41010 X-2.7567 Y-1.5196 Z-0.2723
N41015 X-2.7586 Y-1.5197 Z-0.2724
N41020 X-2.7606 Y-1.5196 Z-0.2726
N41025 X-2.7626 Y-1.5194 Z-0.2727
N41030 X-2.7645 Y-1.519 Z-0.2729
N41035 X-2.7664 Y-1.5185 Z-0.2731
N41040 X-2.7682 Y-1.5178 Z-0.2732
N41045 X-2.77 Y-1.517 Z-0.2734
N41050 X-2.7717 Y-1.5161 Z-0.2736
N41055 X-2.7734 Y-1.515 Z-0.2738
N41060 X-2.7749 Y-1.5138 Z-0.274
N41065 X-2.7763 Y-1.5124 Z-0.2742
N41070 X-2.7777 Y-1.511 Z-0.2744
N41075 X-2.7789 Y-1.5094 Z-0.2746
N41080 X-2.78 Y-1.5078 Z-0.2748
N41085 X-2.7809 Y-1.5061 Z-0.275
N41090 X-2.7817 Y-1.5043 Z-0.2751
N41095 X-2.7824 Y-1.5025 Z-0.2753
N41100 X-2.783 Y-1.5006 Z-0.2755
N41105 X-2.7833 Y-1.4986 Z-0.2756
N41110 X-2.7836 Y-1.4967 Z-0.2758
N41115 Y-1.4947 Z-0.2759
N41120 Y-1.4928 Z-0.2761
N41125 X-2.7833 Y-1.4908 Z-0.2762
N41130 X-2.7829 Y-1.4889 Z-0.2763
N41135 X-2.7824 Y-1.487 Z-0.2764
N41140 X-2.7817 Y-1.4851 Z-0.2765
N41145 X-2.7809 Y-1.4833
N41150 X-2.7799 Y-1.4816 Z-0.2766
N41155 X-2.7788 Y-1.48
N41160 X-2.7776 Y-1.4784 Z-0.2767
N41165 X-2.7763 Y-1.477
N41170 X-2.7736 Y-1.4743 Z-0.2769
N41175 X-2.771 Y-1.4717 Z-0.2778
N41180 X-2.7685 Y-1.4692 Z-0.2792
N41185 X-2.7664 Y-1.4671 Z-0.2804
N41190 X-2.7643 Y-1.465 Z-0.2812
N41195 X-2.7621 Y-1.4628 Z-0.2817
N41200 X-2.7599 Y-1.4606
N41205 X-2.6588 Y-1.3595 Z-0.275
N41210 X-2.6564 Y-1.3572 Z-0.2746
N41215 X-2.6541 Y-1.3548 Z-0.2737
N41220 X-2.6519 Y-1.3526 Z-0.2724
N41225 X-2.6494 Y-1.3501 Z-0.271
N41230 X-2.6468 Y-1.3475 Z-0.2702
N41235 X-2.6441 Y-1.3448 Z-0.2699
N41240 X-2.5997 Y-1.3005
N41245 G3 X-2.6351 Y-1.2651 I-0.0177 J0.0177
N41250 G1 X-2.6378 Y-1.2678 Z-0.2702
N41255 X-2.6404 Y-1.2704 Z-0.271
N41260 X-2.6429 Y-1.2729 Z-0.2724
N41265 X-2.6451 Y-1.2751 Z-0.2737
N41270 X-2.6475 Y-1.2775 Z-0.2746
N41275 X-2.6499 Y-1.2799 Z-0.275
N41280 X-2.742 Y-1.372 Z-0.2807
N41285 X-2.8306 Y-1.4606 Z-0.2867
N41290 X-2.8328 Y-1.4628 Z-0.2866
N41295 X-2.835 Y-1.465 Z-0.2862
N41300 X-2.8371 Y-1.4672 Z-0.2854
N41305 X-2.8392 Y-1.4692 Z-0.2842
N41310 X-2.8417 Y-1.4717 Z-0.2827
N41315 X-2.8443 Y-1.4743 Z-0.2819
N41320 X-2.847 Y-1.477 Z-0.2816
N41325 X-2.8757 Y-1.5058
N41330 X-2.8772 Y-1.5071
N41335 X-2.8787 Y-1.5083
N41340 X-2.8804 Y-1.5094 Z-0.2817
N41345 X-2.8821 Y-1.5104
N41350 X-2.8839 Y-1.5112 Z-0.2818
N41355 X-2.8857 Y-1.5119
N41360 X-2.8876 Y-1.5124 Z-0.2819
N41365 X-2.8896 Y-1.5128 Z-0.282
N41370 X-2.8915 Y-1.5131 Z-0.2821
N41375 X-2.8935 Z-0.2823
N41380 X-2.8954 Z-0.2824
N41385 X-2.8974 Y-1.5128 Z-0.2825
N41390 X-2.8993 Y-1.5125 Z-0.2827
N41395 X-2.9012 Y-1.5119 Z-0.2828
N41400 X-2.9031 Y-1.5113 Z-0.283
N41405 X-2.9048 Y-1.5104 Z-0.2832
N41410 X-2.9066 Y-1.5095 Z-0.2833
N41415 X-2.9082 Y-1.5084 Z-0.2835
N41420 X-2.9097 Y-1.5072 Z-0.2837
N41425 X-2.9112 Y-1.5058 Z-0.2839
N41430 X-2.9125 Y-1.5044 Z-0.284
N41435 X-2.9137 Y-1.5029 Z-0.2842
N41440 X-2.9148 Y-1.5012 Z-0.2844
N41445 X-2.9158 Y-1.4995 Z-0.2846
N41450 X-2.9166 Y-1.4977 Z-0.2847
N41455 X-2.9173 Y-1.4959 Z-0.2849
N41460 X-2.9178 Y-1.494 Z-0.285
N41465 X-2.9182 Y-1.4921 Z-0.2852
N41470 X-2.9184 Y-1.4901 Z-0.2853
N41475 X-2.9185 Y-1.4881 Z-0.2854
N41480 X-2.9184 Y-1.4862 Z-0.2856
N41485 X-2.9182 Y-1.4842 Z-0.2857
N41490 X-2.9178 Y-1.4823 Z-0.2858
N41495 X-2.9172 Y-1.4804 Z-0.2859
N41500 X-2.9165 Y-1.4786
N41505 X-2.9157 Y-1.4768 Z-0.286
N41510 X-2.9148 Y-1.4751
N41515 X-2.9137 Y-1.4734 Z-0.2861
N41520 X-2.9124 Y-1.4719
N41525 X-2.9111 Y-1.4704
N41530 X-2.9084 Y-1.4677 Z-0.2864
N41535 X-2.9058 Y-1.4651 Z-0.2873
N41540 X-2.9033 Y-1.4626 Z-0.2887
N41545 X-2.9013 Y-1.4606 Z-0.2899
N41550 X-2.8991 Y-1.4584 Z-0.2907
N41555 X-2.8969 Y-1.4562 Z-0.2911
N41560 X-2.8947 Y-1.454 Z-0.2912
N41565 X-2.8076 Y-1.367 Z-0.2853
N41570 X-2.7273 Y-1.2866 Z-0.2803
N41575 X-2.6341 Y-1.1934 Z-0.275
N41580 X-2.6316 Y-1.191 Z-0.2746
N41585 X-2.6293 Y-1.1886 Z-0.2737
N41590 X-2.627 Y-1.1863 Z-0.2724
N41595 X-2.6245 Y-1.1838 Z-0.271
N41600 X-2.6219 Y-1.1812 Z-0.2702
N41605 X-2.6192 Y-1.1785 Z-0.2699
N41610 X-2.5587 Y-1.118
N41615 G3 Y-1.0826 I-0.0177 J0.0177
N41620 X-2.594 I-0.0177 J-0.0177
N41625 G1 X-2.5967 Y-1.0853 Z-0.2702
N41630 X-2.5993 Y-1.0879 Z-0.271
N41635 X-2.6018 Y-1.0904 Z-0.2724
N41640 X-2.6041 Y-1.0927 Z-0.2738
N41645 X-2.6065 Y-1.0951 Z-0.2746
N41650 X-2.609 Y-1.0976 Z-0.275
N41655 X-2.6926 Y-1.1812 Z-0.2791
N41660 X-2.8029 Y-1.2915 Z-0.2855
N41665 X-2.8736 Y-1.3622 Z-0.29
N41670 X-2.8939 Y-1.3825 Z-0.2913
N41675 X-2.8961 Y-1.3847
N41680 X-2.8983 Y-1.3869 Z-0.2909
N41685 X-2.9005 Y-1.3891 Z-0.29
N41690 X-2.9025 Y-1.3911 Z-0.2888
N41695 X-2.905 Y-1.3936 Z-0.2874
N41700 X-2.9076 Y-1.3962 Z-0.2866
N41705 X-2.9103 Y-1.3989 Z-0.2863
N41710 G2 X-2.9457 I-0.0177 J0.0177
N41715 Y-1.3636 I0.0177 J0.0177
N41720 G1 X-2.9095 Y-1.3274
N41725 X-2.9068 Y-1.3247 Z-0.2866
N41730 X-2.9042 Y-1.3221 Z-0.2874
N41735 X-2.9017 Y-1.3196 Z-0.2888
N41740 X-2.9014 Y-1.3193 Z-0.289
N41745 X-2.8994 Y-1.3173 Z-0.2902
N41750 X-2.8972 Y-1.3151 Z-0.2911
N41755 X-2.895 Y-1.3129 Z-0.2915
N41760 X-2.8928 Y-1.3107 Z-0.2916
N41765 X-2.8541 Y-1.272 Z-0.2892
N41770 X-2.7535 Y-1.1714 Z-0.2835
N41775 X-2.6527 Y-1.0706 Z-0.2785
N41780 X-2.5701 Y-0.988 Z-0.275
N41785 X-2.5676 Y-0.9855 Z-0.2746
N41790 X-2.5652 Y-0.9831 Z-0.2738
N41795 X-2.5628 Y-0.9807 Z-0.2724
N41800 X-2.5603 Y-0.9782 Z-0.271
N41805 X-2.5577 Y-0.9756 Z-0.2702
N41810 X-2.5551 Y-0.973 Z-0.2699
N41815 X-2.4539 Y-0.8718
N41820 G3 X-2.4893 Y-0.8365 I-0.0177 J0.0177
N41825 G1 X-2.4919 Y-0.8391 Z-0.2702
N41830 X-2.4946 Y-0.8418 Z-0.271
N41835 X-2.4971 Y-0.8443 Z-0.2724
N41840 X-2.4994 Y-0.8466 Z-0.2738
N41845 X-2.5019 Y-0.8491 Z-0.2746
N41850 X-2.5044 Y-0.8516 Z-0.275
N41855 X-2.5045 Y-0.8517
N41860 X-2.5889 Y-0.9361 Z-0.2776
N41865 X-2.6707 Y-1.0179 Z-0.2808
N41870 X-2.7618 Y-1.109 Z-0.285
N41875 X-2.8625 Y-1.2097 Z-0.2904
N41880 X-2.8916 Y-1.2388 Z-0.2921
N41885 X-2.8938 Y-1.241
N41890 X-2.896 Y-1.2432 Z-0.2916
N41895 X-2.8981 Y-1.2453 Z-0.2908
N41900 X-2.9001 Y-1.2473 Z-0.2896
N41905 X-2.9026 Y-1.2498 Z-0.2882
N41910 X-2.9053 Y-1.2525 Z-0.2873
N41915 X-2.9079 Y-1.2551 Z-0.287
N41920 G2 X-2.9433 Y-1.2198 I-0.0177 J0.0177
N41925 G1 X-2.9076 Y-1.1841
N41930 X-2.9049 Y-1.1814 Z-0.2873
N41935 X-2.9023 Y-1.1788 Z-0.2882
N41940 X-2.8998 Y-1.1763 Z-0.2896
N41945 X-2.8987 Y-1.1752 Z-0.2904
N41950 X-2.8967 Y-1.1732 Z-0.2915
N41955 X-2.8946 Y-1.1711 Z-0.2924
N41960 X-2.8924 Y-1.1689 Z-0.2928
N41965 X-2.8903 Y-1.1668 Z-0.2929
N41970 X-2.8449 Y-1.1214 Z-0.2905
N41975 X-2.7528 Y-1.0293 Z-0.286
N41980 X-2.6712 Y-0.9477 Z-0.2826
N41985 X-2.5884 Y-0.8649 Z-0.2797
N41990 X-2.5036 Y-0.7801 Z-0.2775
N41995 X-2.3998 Y-0.6763 Z-0.2757
N42000 X-2.2903 Y-0.5668 Z-0.2751
N42005 X-2.1862 Y-0.4627 Z-0.2758
N42010 X-2.0822 Y-0.3587 Z-0.2777
N42015 X-1.9891 Y-0.2656 Z-0.2803
N42020 X-1.9036 Y-0.1801 Z-0.2834
N42025 X-1.8199 Y-0.0964 Z-0.2871
N42030 X-1.7267 Y-0.0032 Z-0.2918
N42035 X-1.6238 Y0.0997 Z-0.2976
N42040 X-1.5091 Y0.2144 Z-0.3048
N42045 X-1.3891 Y0.3344 Z-0.313
N42050 X-1.2477 Y0.4758 Z-0.3234
N42055 X-1.088 Y0.6355 Z-0.3358
N42060 X-0.9102 Y0.8133 Z-0.3503
N42065 X-0.7099 Y1.0136 Z-0.3673
N42070 X-0.4679 Y1.2557 Z-0.3886
N42075 X-0.183 Y1.5405 Z-0.4142
N42080 X0.1735 Y1.8971 Z-0.4471
N42085 X0.6116 Y2.3351 Z-0.4882
N42090 X0.6139 Y2.3374
N42095 X0.6162 Y2.3397 Z-0.4878
N42100 X0.6184 Y2.3419 Z-0.487
N42105 X0.6205 Y2.344 Z-0.4857
N42110 X0.623 Y2.3465 Z-0.4843
N42115 X0.6256 Y2.3491 Z-0.4835
N42120 X0.6283 Y2.3518 Z-0.4832
N42125 X0.6296 Y2.3533
N42130 X0.6309 Y2.3548
N42135 X0.632 Y2.3564 Z-0.4831
N42140 X0.6329 Y2.3582
N42145 X0.6337 Y2.3599
N42150 X0.6344 Y2.3618 Z-0.483
N42155 X0.635 Y2.3637
N42160 X0.6353 Y2.3656 Z-0.4829
N42165 X0.6356 Y2.3676 Z-0.4828
N42170 X0.6357 Y2.3695 Z-0.4827
N42175 X0.6356 Y2.3715 Z-0.4826
N42180 X0.6354 Y2.3734 Z-0.4825
N42185 X0.635 Y2.3754 Z-0.4824
N42190 X0.6344 Y2.3773 Z-0.4823
N42195 X0.6338 Y2.3791 Z-0.4822
N42200 X0.6329 Y2.3809 Z-0.4821
N42205 X0.632 Y2.3826 Z-0.4819
N42210 X0.6309 Y2.3842 Z-0.4818
N42215 X0.6297 Y2.3858 Z-0.4817
N42220 X0.6283 Y2.3872 Z-0.4816
N42225 X0.6269 Y2.3885 Z-0.4814
N42230 X0.6254 Y2.3898 Z-0.4813
N42235 X0.6237 Y2.3908 Z-0.4812
N42240 X0.622 Y2.3918 Z-0.4811
N42245 X0.6202 Y2.3926 Z-0.4809
N42250 X0.6184 Y2.3933 Z-0.4808
N42255 X0.6165 Y2.3938 Z-0.4807
N42260 X0.6146 Y2.3942 Z-0.4806
N42265 X0.6126 Y2.3944 Z-0.4805
N42270 X0.6107 Y2.3945 Z-0.4804
N42275 X0.6087 Y2.3944 Z-0.4803
N42280 X0.6067 Y2.3942 Z-0.4802
N42285 X0.6048 Y2.3938
N42290 X0.6029 Y2.3933 Z-0.4801
N42295 X0.6011 Y2.3926
N42300 X0.5993 Y2.3918 Z-0.48
N42305 X0.5976 Y2.3908
N42310 X0.5959 Y2.3897
N42315 X0.5944 Y2.3885 Z-0.4799
N42320 X0.593 Y2.3872
N42325 X0.5474 Y2.3416
N42330 X0.5447 Y2.3389 Z-0.4802
N42335 X0.5421 Y2.3363 Z-0.4811
N42340 X0.5396 Y2.3338 Z-0.4825
N42345 X0.5375 Y2.3317 Z-0.4837
N42350 X0.5352 Y2.3294 Z-0.4846
N42355 X0.5329 Y2.3272 Z-0.485
N42360 X0.5306 Y2.3249
N42365 X0.1162 Y1.9104 Z-0.4463
N42370 X-0.2275 Y1.5667 Z-0.4148
N42375 X-0.5038 Y1.2904 Z-0.3901
N42380 X-0.7255 Y1.0687 Z-0.3707
N42385 X-0.9258 Y0.8684 Z-0.3538
N42390 X-1.0951 Y0.6991 Z-0.3401
N42395 X-1.2441 Y0.5501 Z-0.3286
N42400 X-1.3898 Y0.4044 Z-0.3179
N42405 X-1.5173 Y0.2769 Z-0.3092
N42410 X-1.6309 Y0.1633 Z-0.3021
N42415 X-1.7338 Y0.0604 Z-0.2962
N42420 X-1.8249 Y-0.0307 Z-0.2916
N42425 X-1.9192 Y-0.125 Z-0.2874
N42430 X-2.0034 Y-0.2092 Z-0.2843
N42435 X-2.0938 Y-0.2996 Z-0.2817
N42440 X-2.2088 Y-0.4146 Z-0.2795
N42445 X-2.3183 Y-0.5241 Z-0.2786
N42450 X-2.4279 Y-0.6337 Z-0.2791
N42455 X-2.5374 Y-0.7432 Z-0.2808
N42460 X-2.622 Y-0.8278 Z-0.283
N42465 X-2.7126 Y-0.9184 Z-0.286
N42470 X-2.8039 Y-1.0097 Z-0.2898
N42475 X-2.8887 Y-1.0945 Z-0.2939
N42480 X-2.8909 Y-1.0967 Z-0.2938
N42485 X-2.893 Y-1.0988 Z-0.2934
N42490 X-2.8951 Y-1.1009 Z-0.2925
N42495 X-2.8971 Y-1.1029 Z-0.2914
N42500 X-2.8996 Y-1.1054 Z-0.29
N42505 X-2.9022 Y-1.108 Z-0.2891
N42510 X-2.9049 Y-1.1107 Z-0.2888
N42515 G2 X-2.9403 I-0.0177 J0.0177
N42520 Y-1.0753 I0.0177 J0.0177
N42525 G1 X-2.9049 Y-1.04
N42530 X-2.9023 Y-1.0373 Z-0.2891
N42535 X-2.8996 Y-1.0347 Z-0.29
N42540 X-2.8972 Y-1.0322 Z-0.2914
N42545 X-2.8954 Y-1.0305 Z-0.2926
N42550 X-2.8934 Y-1.0285 Z-0.2938
N42555 X-2.8913 Y-1.0264 Z-0.2946
N42560 X-2.8892 Y-1.0243 Z-0.295
N42565 X-2.887 Y-1.0221 Z-0.2951
N42570 X-2.8673 Y-1.0023 Z-0.2942
N42575 X-2.7739 Y-0.9089 Z-0.2903
N42580 X-2.6934 Y-0.8285 Z-0.2874
N42585 X-2.609 Y-0.7441 Z-0.2851
N42590 X-2.5165 Y-0.6516 Z-0.2832
N42595 X-2.407 Y-0.5421 Z-0.2822
N42600 X-2.292 Y-0.4271 Z-0.2824
N42605 X-2.177 Y-0.3121 Z-0.284
N42610 X-2.0903 Y-0.2253 Z-0.286
N42615 X-2.0103 Y-0.1453 Z-0.2885
N42620 X-1.9262 Y-0.0613 Z-0.2917
N42625 X-1.8329 Y0.032 Z-0.2959
N42630 X-1.7386 Y0.1263 Z-0.3008
N42635 X-1.6357 Y0.2292 Z-0.3067
N42640 X-1.521 Y0.3439 Z-0.3139
N42645 X-1.3935 Y0.4714 Z-0.3226
N42650 X-1.2478 Y0.6171 Z-0.3332
N42655 X-1.0999 Y0.765 Z-0.3447
N42660 X-0.9521 Y0.9129 Z-0.3565
N42665 X-0.7614 Y1.1035 Z-0.3725
N42670 X-0.5289 Y1.336 Z-0.3925
N42675 X-0.2537 Y1.6112 Z-0.417
N42680 X0.0622 Y1.9271 Z-0.4458
N42685 X0.4531 Y2.318 Z-0.4821
N42690 X0.4554 Y2.3203
N42695 X0.4577 Y2.3226 Z-0.4817
N42700 X0.4599 Y2.3248 Z-0.4809
N42705 X0.462 Y2.3269 Z-0.4796
N42710 X0.4645 Y2.3294 Z-0.4782
N42715 X0.4671 Y2.332 Z-0.4774
N42720 X0.4698 Y2.3347 Z-0.4771
N42725 X0.4711 Y2.3362
N42730 X0.4724 Y2.3377
N42735 X0.4734 Y2.3393 Z-0.477
N42740 X0.4744 Y2.3411
N42745 X0.4752 Y2.3428
N42750 X0.4759 Y2.3447 Z-0.4769
N42755 X0.4764 Y2.3466
N42760 X0.4768 Y2.3485 Z-0.4768
N42765 X0.4771 Y2.3505
N42770 Y2.3524 Z-0.4767
N42775 Y2.3544 Z-0.4766
N42780 X0.4768 Y2.3563 Z-0.4765
N42785 X0.4765 Y2.3583
N42790 X0.4759 Y2.3601 Z-0.4764
N42795 X0.4752 Y2.362 Z-0.4763
N42800 X0.4744 Y2.3638 Z-0.4762
N42805 X0.4735 Y2.3655 Z-0.4761
N42810 X0.4724 Y2.3671 Z-0.476
N42815 X0.4712 Y2.3687 Z-0.4759
N42820 X0.4698 Y2.3701 Z-0.4758
N42825 X0.4684 Y2.3714 Z-0.4757
N42830 X0.4668 Y2.3726 Z-0.4756
N42835 X0.4652 Y2.3737 Z-0.4755
N42840 X0.4635 Y2.3747 Z-0.4754
N42845 X0.4617 Y2.3755 Z-0.4753
N42850 X0.4599 Y2.3762 Z-0.4752
N42855 X0.458 Y2.3767 Z-0.4751
N42860 X0.4561 Y2.3771
N42865 X0.4541 Y2.3773 Z-0.475
N42870 X0.4521 Y2.3774 Z-0.4749
N42875 X0.4502 Y2.3773 Z-0.4748
N42880 X0.4482 Y2.3771
N42885 X0.4463 Y2.3767 Z-0.4747
N42890 X0.4444 Y2.3762
N42895 X0.4426 Y2.3755 Z-0.4746
N42900 X0.4408 Y2.3747
N42905 X0.4391 Y2.3737
N42910 X0.4374 Y2.3726
N42915 X0.4359 Y2.3714 Z-0.4745
N42920 X0.4344 Y2.3701
N42925 X0.3951 Y2.3307
N42930 X0.3924 Y2.328 Z-0.4748
N42935 X0.3898 Y2.3254 Z-0.4757
N42940 X0.3873 Y2.3229 Z-0.4771
N42945 X0.3852 Y2.3208 Z-0.4783
N42950 X0.383 Y2.3186 Z-0.4792
N42955 X0.3807 Y2.3163 Z-0.4796
N42960 X0.3784 Y2.314
N42965 X-0.0007 Y1.935 Z-0.4446
N42970 X-0.294 Y1.6416 Z-0.4181
N42975 X-0.5479 Y1.3877 Z-0.3956
N42980 X-0.7707 Y1.1649 Z-0.3765
N42985 X-0.9732 Y0.9624 Z-0.3597
N42990 X-1.1007 Y0.8349 Z-0.3495
N42995 X-1.2379 Y0.6978 Z-0.3389
N43000 X-1.3814 Y0.5543 Z-0.3284
N43005 X-1.5056 Y0.43 Z-0.3199
N43010 X-1.6214 Y0.3142 Z-0.3125
N43015 X-1.7339 Y0.2017 Z-0.3059
N43020 X-1.8283 Y0.1074 Z-0.3009
N43025 X-1.9226 Y0.013 Z-0.2966
N43030 X-2.0065 Y-0.0709 Z-0.2932
N43035 X-2.0915 Y-0.1558 Z-0.2904
N43040 X-2.1827 Y-0.2471 Z-0.288
N43045 X-2.3032 Y-0.3676 Z-0.2861
N43050 X-2.4182 Y-0.4826 Z-0.2856
N43055 X-2.5332 Y-0.5976 Z-0.2864
N43060 X-2.6425 Y-0.7069 Z-0.2884
N43065 X-2.7307 Y-0.7951 Z-0.2908
N43070 X-2.8135 Y-0.8779 Z-0.2936
N43075 X-2.8852 Y-0.9496 Z-0.2966
N43080 X-2.8874 Y-0.9518 Z-0.2965
N43085 X-2.8895 Y-0.9539 Z-0.296
N43090 X-2.8916 Y-0.9559 Z-0.2952
N43095 X-2.8935 Y-0.9579 Z-0.294
N43100 X-2.896 Y-0.9604 Z-0.2926
N43105 X-2.8986 Y-0.963 Z-0.2918
N43110 X-2.9013 Y-0.9657 Z-0.2915
N43115 G2 X-2.9367 Y-0.9303 I-0.0177 J0.0177
N43120 G1 X-2.9017 Y-0.8954
N43125 X-2.8991 Y-0.8927 Z-0.2918
N43130 X-2.8964 Y-0.8901 Z-0.2926
N43135 X-2.894 Y-0.8876 Z-0.294
N43140 X-2.8916 Y-0.8853 Z-0.2957
N43145 X-2.8896 Y-0.8833 Z-0.2968
N43150 X-2.8876 Y-0.8812 Z-0.2976
N43155 X-2.8855 Y-0.8791 Z-0.2981
N43160 X-2.8833 Y-0.877 Z-0.2982
N43165 X-2.841 Y-0.8347 Z-0.2966
N43170 X-2.749 Y-0.7427 Z-0.2936
N43175 X-2.6592 Y-0.6528 Z-0.2914
N43180 X-2.5387 Y-0.5324 Z-0.2896
N43185 X-2.4237 Y-0.4174 Z-0.2891
N43190 X-2.3087 Y-0.3023 Z-0.2899
N43195 X-2.1939 Y-0.1876 Z-0.292
N43200 X-2.1079 Y-0.1016 Z-0.2943
N43205 X-2.023 Y-0.0166 Z-0.2971
N43210 X-1.9284 Y0.0779 Z-0.301
N43215 X-1.8233 Y0.183 Z-0.306
N43220 X-1.7204 Y0.2859 Z-0.3115
N43225 X-1.6165 Y0.3899 Z-0.3177
N43230 X-1.4996 Y0.5067 Z-0.3252
N43235 X-1.3635 Y0.6428 Z-0.3346
N43240 X-1.2167 Y0.7896 Z-0.3454
N43245 X-1.0164 Y0.99 Z-0.3611
N43250 X-0.8364 Y1.1699 Z-0.3758
N43255 X-0.6243 Y1.3821 Z-0.3937
N43260 X-0.3811 Y1.6252 Z-0.415
N43265 X-0.063 Y1.9433 Z-0.4435
N43270 X0.3064 Y2.3127 Z-0.4774
N43275 X0.3087 Y2.315
N43280 X0.311 Y2.3173 Z-0.477
N43285 X0.3132 Y2.3195 Z-0.4761
N43290 X0.3153 Y2.3217 Z-0.4749
N43295 X0.3181 Y2.3244 Z-0.473
N43300 X0.3206 Y2.3269 Z-0.4716
N43305 X0.3232 Y2.3295 Z-0.4707
N43310 X0.3258 Y2.3322 Z-0.4704
N43315 G3 X0.2905 Y2.3675 I-0.0177 J0.0177
N43320 G1 X0.2536 Y2.3306
N43325 X0.2509 Y2.328 Z-0.4707
N43330 X0.2483 Y2.3254 Z-0.4716
N43335 X0.2458 Y2.3229 Z-0.473
N43340 X0.2437 Y2.3207 Z-0.4742
N43345 X0.2415 Y2.3185 Z-0.4751
N43350 X0.2392 Y2.3162 Z-0.4755
N43355 X0.2369 Y2.314
N43360 X-0.1111 Y1.9659 Z-0.4438
N43365 X-0.3875 Y1.6896 Z-0.4191
N43370 X-0.6092 Y1.4679 Z-0.3998
N43375 X-0.8309 Y1.2461 Z-0.3811
N43380 X-1.0216 Y1.0554 Z-0.3655
N43385 X-1.2123 Y0.8647 Z-0.3507
N43390 X-1.358 Y0.719 Z-0.3399
N43395 X-1.4919 Y0.5851 Z-0.3306
N43400 X-1.6173 Y0.4597 Z-0.3225
N43405 X-1.732 Y0.345 Z-0.3157
N43410 X-1.836 Y0.241 Z-0.3101
N43415 X-1.9315 Y0.1456 Z-0.3055
N43420 X-2.0248 Y0.0522 Z-0.3016
N43425 X-2.1106 Y-0.0335 Z-0.2986
N43430 X-2.2091 Y-0.1321 Z-0.2958
N43435 X-2.3324 Y-0.2553 Z-0.2936
N43440 X-2.4474 Y-0.3703 Z-0.2926
N43445 X-2.5624 Y-0.4853 Z-0.293
N43450 X-2.6829 Y-0.6058 Z-0.2946
N43455 X-2.764 Y-0.687 Z-0.2964
N43460 X-2.8564 Y-0.7793 Z-0.2992
N43465 X-2.8814 Y-0.8044 Z-0.3
N43470 X-2.8836 Y-0.8065 Z-0.2999
N43475 X-2.8857 Y-0.8086 Z-0.2995
N43480 X-2.8877 Y-0.8107 Z-0.2987
N43485 X-2.8896 Y-0.8126 Z-0.2975
N43490 X-2.8921 Y-0.8151 Z-0.2961
N43495 X-2.8948 Y-0.8177 Z-0.2952
N43500 X-2.8974 Y-0.8204 Z-0.2949
N43505 G2 X-2.9328 Y-0.785 I-0.0177 J0.0177
N43510 G1 X-2.8983 Y-0.7506
N43515 X-2.8956 Y-0.7479 Z-0.2952
N43520 X-2.893 Y-0.7453 Z-0.2961
N43525 X-2.8905 Y-0.7428 Z-0.2975
N43530 X-2.8876 Y-0.7399 Z-0.2995
N43535 X-2.885 Y-0.7373 Z-0.301
N43540 X-2.8823 Y-0.7345 Z-0.3018
N43545 X-2.8795 Y-0.7317 Z-0.3021
N43550 X-2.8191 Y-0.6714 Z-0.3003
N43555 X-2.7332 Y-0.5854 Z-0.2983
N43560 X-2.6127 Y-0.4649 Z-0.2966
N43565 X-2.4922 Y-0.3445 Z-0.2961
N43570 X-2.3717 Y-0.224 Z-0.297
N43575 X-2.2515 Y-0.1037 Z-0.2991
N43580 X-2.1321 Y0.0156 Z-0.3024
N43585 X-2.0464 Y0.1014 Z-0.3054
N43590 X-1.9519 Y0.1958 Z-0.3093
N43595 X-1.8479 Y0.2998 Z-0.3143
N43600 X-1.7428 Y0.4049 Z-0.32
N43605 X-1.6292 Y0.5185 Z-0.3267
N43610 X-1.5017 Y0.6461 Z-0.3349
N43615 X-1.3645 Y0.7833 Z-0.3444
N43620 X-1.2081 Y0.9397 Z-0.3559
N43625 X-1.027 Y1.1208 Z-0.37
N43630 X-0.8588 Y1.289 Z-0.3836
N43635 X-0.6585 Y1.4893 Z-0.4004
N43640 X-0.4046 Y1.7431 Z-0.4223
N43645 X-0.1401 Y2.0077 Z-0.4458
N43650 X0.1695 Y2.3172 Z-0.4739
N43655 X0.1718 Y2.3195 Z-0.4738
N43660 X0.1741 Y2.3218 Z-0.4734
N43665 X0.1763 Y2.324 Z-0.4726
N43670 X0.1784 Y2.3262 Z-0.4714
N43675 X0.1804 Y2.3282 Z-0.4699
N43680 X0.1829 Y2.3307 Z-0.4685
N43685 X0.1855 Y2.3333 Z-0.4677
N43690 X0.1882 Y2.336 Z-0.4674
N43695 G3 X0.1529 Y2.3713 I-0.0177 J0.0177
N43700 G1 X0.1206 Y2.3391
N43705 X0.118 Y2.3364 Z-0.4677
N43710 X0.1153 Y2.3338 Z-0.4685
N43715 X0.1128 Y2.3313 Z-0.4699
N43720 X0.1107 Y2.3292 Z-0.4712
N43725 X0.1085 Y2.327 Z-0.472
N43730 X0.1062 Y2.3247 Z-0.4724
N43735 X0.1039 Y2.3224
N43740 X-0.2164 Y2.0021 Z-0.4436
N43745 X-0.4702 Y1.7482 Z-0.4213
N43750 X-0.6919 Y1.5265 Z-0.4023
N43755 X-0.903 Y1.3155 Z-0.3848
N43760 X-1.0401 Y1.1783 Z-0.3739
N43765 X-1.1998 Y1.0187 Z-0.3615
N43770 X-1.3573 Y0.8612 Z-0.3499
N43775 X-1.4945 Y0.724 Z-0.3404
N43780 X-1.6221 Y0.5964 Z-0.3321
N43785 X-1.7367 Y0.4817 Z-0.3252
N43790 X-1.8418 Y0.3766 Z-0.3194
N43795 X-1.9469 Y0.2716 Z-0.3143
N43800 X-2.0413 Y0.1772 Z-0.3102
N43805 X-2.1363 Y0.0821 Z-0.3067
N43810 X-2.2383 Y-0.0199 Z-0.3036
N43815 X-2.3257 Y-0.1073 Z-0.3017
N43820 X-2.4462 Y-0.2277 Z-0.3
N43825 X-2.5667 Y-0.3482 Z-0.2996
N43830 X-2.6872 Y-0.4687 Z-0.3005
N43835 X-2.8131 Y-0.5947 Z-0.3027
N43840 X-2.8776 Y-0.6591 Z-0.3043
N43845 X-2.8803 Y-0.6619 Z-0.3041
N43850 X-2.8831 Y-0.6646 Z-0.3032
N43855 X-2.8857 Y-0.6672 Z-0.3018
N43860 X-2.8881 Y-0.6697 Z-0.3003
N43865 X-2.8908 Y-0.6723 Z-0.2995
N43870 X-2.8934 Y-0.675 Z-0.2992
N43875 X-2.8949 Y-0.6763
N43880 X-2.8964 Y-0.6775
N43885 X-2.8981 Y-0.6786
N43890 X-2.8998 Y-0.6796 Z-0.2993
N43895 X-2.9016 Y-0.6804
N43900 X-2.9034 Y-0.6811
N43905 X-2.9053 Y-0.6816 Z-0.2994
N43910 X-2.9072 Y-0.682
N43915 X-2.9092 Y-0.6822 Z-0.2995
N43920 X-2.9111 Y-0.6823 Z-0.2996
N43925 X-2.9131 Y-0.6822
N43930 X-2.915 Y-0.682 Z-0.2997
N43935 X-2.917 Y-0.6816 Z-0.2998
N43940 X-2.9189 Y-0.6811 Z-0.2999
N43945 X-2.9207 Y-0.6804
N43950 X-2.9225 Y-0.6796 Z-0.3
N43955 X-2.9242 Y-0.6786 Z-0.3001
N43960 X-2.9258 Y-0.6776 Z-0.3002
N43965 X-2.9274 Y-0.6763 Z-0.3003
N43970 X-2.9288 Y-0.675 Z-0.3004
N43975 X-2.9301 Y-0.6736 Z-0.3005
N43980 X-2.9314 Y-0.672 Z-0.3006
N43985 X-2.9324 Y-0.6704 Z-0.3007
N43990 X-2.9334 Y-0.6687 Z-0.3008
N43995 X-2.9342 Y-0.6669 Z-0.3009
N44000 X-2.9349 Y-0.6651 Z-0.301
N44005 X-2.9354 Y-0.6632
N44010 X-2.9358 Y-0.6612 Z-0.3011
N44015 X-2.9361 Y-0.6593 Z-0.3012
N44020 Y-0.6573 Z-0.3013
N44025 X-2.936 Y-0.6554
N44030 X-2.9358 Y-0.6534 Z-0.3014
N44035 X-2.9354 Y-0.6515
N44040 X-2.9349 Y-0.6496 Z-0.3015
N44045 X-2.9342 Y-0.6478
N44050 X-2.9334 Y-0.646
N44055 X-2.9324 Y-0.6443 Z-0.3016
N44060 X-2.9313 Y-0.6426
N44065 X-2.9301 Y-0.6411
N44070 X-2.9288 Y-0.6396
N44075 X-2.8916 Y-0.6024
N44080 X-2.8889 Y-0.5998 Z-0.3019
N44085 X-2.8863 Y-0.5971 Z-0.3028
N44090 X-2.8838 Y-0.5947 Z-0.3042
N44095 X-2.8812 Y-0.5921 Z-0.3056
N44100 X-2.8785 Y-0.5894 Z-0.3065
N44105 X-2.8757 Y-0.5866 Z-0.3067
N44110 X-2.8409 Y-0.5517 Z-0.3059
N44115 X-2.7149 Y-0.4258 Z-0.3039
N44120 X-2.589 Y-0.2998 Z-0.3031
N44125 X-2.463 Y-0.1738 Z-0.3037
N44130 X-2.337 Y-0.0479 Z-0.3056
N44135 X-2.2394 Y0.0498 Z-0.3079
N44140 X-2.1475 Y0.1417 Z-0.3108
N44145 X-2.0525 Y0.2366 Z-0.3143
N44150 X-1.9474 Y0.3417 Z-0.319
N44155 X-1.8423 Y0.4468 Z-0.3242
N44160 X-1.7266 Y0.5626 Z-0.3307
N44165 X-1.6001 Y0.6891 Z-0.3384
N44170 X-1.4725 Y0.8167 Z-0.3468
N44175 X-1.3353 Y0.9539 Z-0.3564
N44180 X-1.1778 Y1.1114 Z-0.3681
N44185 X-0.9415 Y1.3476 Z-0.3866
N44190 X-0.7332 Y1.556 Z-0.4037
N44195 X-0.5007 Y1.7884 Z-0.4234
N44200 X-0.2576 Y2.0316 Z-0.4447
N44205 X0.0402 Y2.3294 Z-0.4713
N44210 X0.0425 Y2.3316
N44215 X0.0448 Y2.3339 Z-0.4708
N44220 X0.047 Y2.3361 Z-0.47
N44225 X0.0491 Y2.3382 Z-0.4688
N44230 X0.0505 Y2.3397 Z-0.4678
N44235 X0.053 Y2.3422 Z-0.4664
N44240 X0.0556 Y2.3448 Z-0.4655
N44245 X0.0583 Y2.3475 Z-0.4652
N44250 G3 X0.023 Y2.3828 I-0.0177 J0.0177
N44255 G1 X-0.006 Y2.3538
N44260 X-0.0087 Y2.3512 Z-0.4655
N44265 X-0.0113 Y2.3486 Z-0.4664
N44270 X-0.0138 Y2.3461 Z-0.4678
N44275 X-0.0159 Y2.3439 Z-0.469
N44280 X-0.0181 Y2.3417 Z-0.4698
N44285 X-0.0204 Y2.3395 Z-0.4703
N44290 X-0.0227 Y2.3372
N44295 X-0.2991 Y2.0608 Z-0.4457
N44300 X-0.5637 Y1.7962 Z-0.4228
N44305 X-0.7854 Y1.5745 Z-0.4042
N44310 X-0.975 Y1.3849 Z-0.3888
N44315 X-1.1765 Y1.1834 Z-0.3731
N44320 X-1.3447 Y1.0152 Z-0.3607
N44325 X-1.4926 Y0.8673 Z-0.3504
N44330 X-1.6287 Y0.7312 Z-0.3415
N44335 X-1.7541 Y0.6058 Z-0.334
N44340 X-1.8726 Y0.4873 Z-0.3275
N44345 X-1.975 Y0.3849 Z-0.3224
N44350 X-2.0801 Y0.2797 Z-0.3179
N44355 X-2.1751 Y0.1847 Z-0.3143
N44360 X-2.2826 Y0.0773 Z-0.3111
N44365 X-2.3748 Y-0.0149 Z-0.309
N44370 X-2.5007 Y-0.1409 Z-0.3071
N44375 X-2.6267 Y-0.2668 Z-0.3066
N44380 X-2.7526 Y-0.3928 Z-0.3074
N44385 X-2.874 Y-0.5141 Z-0.3093
N44390 X-2.8767 Y-0.5169 Z-0.309
N44395 X-2.8794 Y-0.5196 Z-0.3082
N44400 X-2.882 Y-0.5221 Z-0.3067
N44405 X-2.8845 Y-0.5246 Z-0.3053
N44410 X-2.8871 Y-0.5272 Z-0.3045
N44415 X-2.8898 Y-0.5299 Z-0.3042
N44420 X-2.8912 Y-0.5312
N44425 X-2.8927 Y-0.5324
N44430 X-2.8944 Y-0.5335
N44435 X-2.8961 Y-0.5345 Z-0.3043
N44440 X-2.8979 Y-0.5353
N44445 X-2.8997 Y-0.536
N44450 X-2.9016 Y-0.5365 Z-0.3044
N44455 X-2.9035 Y-0.5369
N44460 X-2.9055 Y-0.5372 Z-0.3045
N44465 X-2.9075 Z-0.3046
N44470 X-2.9094 Z-0.3047
N44475 X-2.9114 Y-0.5369
N44480 X-2.9133 Y-0.5366 Z-0.3048
N44485 X-2.9152 Y-0.536 Z-0.3049
N44490 X-2.917 Y-0.5353 Z-0.305
N44495 X-2.9188 Y-0.5345 Z-0.3051
N44500 X-2.9205 Y-0.5336 Z-0.3052
N44505 X-2.9222 Y-0.5325 Z-0.3053
N44510 X-2.9237 Y-0.5313 Z-0.3054
N44515 X-2.9251 Y-0.5299 Z-0.3055
N44520 X-2.9265 Y-0.5285 Z-0.3057
N44525 X-2.9277 Y-0.5269 Z-0.3058
N44530 X-2.9288 Y-0.5253 Z-0.3059
N44535 X-2.9297 Y-0.5236 Z-0.306
N44540 X-2.9306 Y-0.5218 Z-0.3061
N44545 X-2.9312 Y-0.52 Z-0.3062
N44550 X-2.9318 Y-0.5181 Z-0.3063
N44555 X-2.9321 Y-0.5162 Z-0.3064
N44560 X-2.9324 Y-0.5142
N44565 X-2.9325 Y-0.5122 Z-0.3065
N44570 X-2.9324 Y-0.5103 Z-0.3066
N44575 X-2.9321 Y-0.5083 Z-0.3067
N44580 X-2.9318 Y-0.5064
N44585 X-2.9312 Y-0.5045 Z-0.3068
N44590 X-2.9305 Y-0.5027
N44595 X-2.9297 Y-0.5009
N44600 X-2.9288 Y-0.4992 Z-0.3069
N44605 X-2.9277 Y-0.4975
N44610 X-2.9264 Y-0.496
N44615 X-2.9251 Y-0.4945
N44620 X-2.8881 Y-0.4575
N44625 X-2.8854 Y-0.4548 Z-0.3072
N44630 X-2.8828 Y-0.4522 Z-0.3081
N44635 X-2.8803 Y-0.4497 Z-0.3095
N44640 X-2.8777 Y-0.4472 Z-0.3109
N44645 X-2.8751 Y-0.4445 Z-0.3118
N44650 X-2.8723 Y-0.4418 Z-0.312
N44655 X-2.7824 Y-0.3519 Z-0.3108
N44660 X-2.6565 Y-0.2259 Z-0.3101
N44665 X-2.525 Y-0.0945 Z-0.3107
N44670 X-2.3936 Y0.037 Z-0.3127
N44675 X-2.2959 Y0.1346 Z-0.315
N44680 X-2.1876 Y0.2429 Z-0.3184
N44685 X-2.0927 Y0.3379 Z-0.322
N44690 X-1.9869 Y0.4437 Z-0.3266
N44695 X-1.8718 Y0.5588 Z-0.3323
N44700 X-1.7571 Y0.6735 Z-0.3387
N44705 X-1.6306 Y0.8 Z-0.3463
N44710 X-1.4923 Y0.9383 Z-0.3553
N44715 X-1.3444 Y1.0862 Z-0.3656
N44720 X-1.1761 Y1.2544 Z-0.3781
N44725 X-0.9747 Y1.4559 Z-0.3937
N44730 X-0.8054 Y1.6252 Z-0.4074
N44735 X-0.5955 Y1.8351 Z-0.4249
N44740 X-0.3726 Y2.0579 Z-0.444
N44745 X-0.0856 Y2.345 Z-0.4693
N44750 X-0.0833 Y2.3473
N44755 X-0.081 Y2.3496 Z-0.4689
N44760 X-0.0788 Y2.3518 Z-0.468
N44765 X-0.0767 Y2.3539 Z-0.4668
N44770 X-0.0754 Y2.3552 Z-0.4659
N44775 X-0.0729 Y2.3577 Z-0.4645
N44780 X-0.0703 Y2.3603 Z-0.4637
N44785 X-0.0676 Y2.3629 Z-0.4634
N44790 G3 Y2.3983 I-0.0177 J0.0177
N44795 X-0.103 I-0.0177 J-0.0177
N44800 G1 X-0.1317 Y2.3696
N44805 X-0.1344 Y2.3669 Z-0.4637
N44810 X-0.137 Y2.3643 Z-0.4645
N44815 X-0.1395 Y2.3618 Z-0.4659
N44820 X-0.1416 Y2.3597 Z-0.4671
N44825 X-0.1438 Y2.3575 Z-0.468
N44830 X-0.1461 Y2.3552 Z-0.4684
N44835 X-0.1483 Y2.3529
N44840 X-0.383 Y2.1183 Z-0.4479
N44845 X-0.6047 Y1.8966 Z-0.4289
N44850 X-0.8265 Y1.6748 Z-0.4105
N44855 X-0.9743 Y1.527 Z-0.3987
N44860 X-1.1651 Y1.3362 Z-0.3838
N44865 X-1.3344 Y1.1669 Z-0.3713
N44870 X-1.4801 Y1.0212 Z-0.3611
N44875 X-1.6184 Y0.8829 Z-0.352
N44880 X-1.7449 Y0.7564 Z-0.3443
N44885 X-1.8596 Y0.6417 Z-0.3378
N44890 X-1.9765 Y0.5248 Z-0.3318
N44895 X-2.0816 Y0.4197 Z-0.3271
N44900 X-2.1762 Y0.3251 Z-0.3233
N44905 X-2.2721 Y0.2292 Z-0.3201
N44910 X-2.3916 Y0.1097 Z-0.3169
N44915 X-2.5228 Y-0.0215 Z-0.3146
N44920 X-2.6542 Y-0.153 Z-0.3136
N44925 X-2.7857 Y-0.2844 Z-0.314
N44930 X-2.8708 Y-0.3695 Z-0.3149
N44935 X-2.8735 Y-0.3722 Z-0.3146
N44940 X-2.8762 Y-0.3749 Z-0.3138
N44945 X-2.8787 Y-0.3774 Z-0.3123
N44950 X-2.8812 Y-0.3799 Z-0.3109
N44955 X-2.8838 Y-0.3825 Z-0.3101
N44960 X-2.8865 Y-0.3852 Z-0.3098
N44965 X-2.8879 Y-0.3865
N44970 X-2.8895 Y-0.3878
N44975 X-2.8911 Y-0.3889
N44980 X-2.8928 Y-0.3898 Z-0.3099
N44985 X-2.8946 Y-0.3906
N44990 X-2.8965 Y-0.3913 Z-0.31
N44995 X-2.8983 Y-0.3919
N45000 X-2.9003 Y-0.3922 Z-0.3101
N45005 X-2.9022 Y-0.3925
N45010 X-2.9042 Y-0.3926 Z-0.3102
N45015 X-2.9061 Y-0.3925 Z-0.3103
N45020 X-2.9081 Y-0.3923 Z-0.3104
N45025 X-2.91 Y-0.3919 Z-0.3105
N45030 X-2.9119 Y-0.3913 Z-0.3106
N45035 X-2.9138 Y-0.3907 Z-0.3107
N45040 X-2.9155 Y-0.3898 Z-0.3108
N45045 X-2.9173 Y-0.3889 Z-0.3109
N45050 X-2.9189 Y-0.3878 Z-0.3111
N45055 X-2.9204 Y-0.3866 Z-0.3112
N45060 X-2.9219 Y-0.3852 Z-0.3113
N45065 X-2.9232 Y-0.3838 Z-0.3114
N45070 X-2.9244 Y-0.3823 Z-0.3115
N45075 X-2.9255 Y-0.3806 Z-0.3116
N45080 X-2.9265 Y-0.3789 Z-0.3118
N45085 X-2.9273 Y-0.3771 Z-0.3119
N45090 X-2.928 Y-0.3753 Z-0.312
N45095 X-2.9285 Y-0.3734 Z-0.3121
N45100 X-2.9289 Y-0.3715 Z-0.3122
N45105 X-2.9291 Y-0.3695 Z-0.3123
N45110 X-2.9292 Y-0.3676 Z-0.3124
N45115 X-2.9291 Y-0.3656
N45120 X-2.9289 Y-0.3636 Z-0.3125
N45125 X-2.9285 Y-0.3617 Z-0.3126
N45130 X-2.928 Y-0.3598
N45135 X-2.9273 Y-0.358 Z-0.3127
N45140 X-2.9264 Y-0.3562
N45145 X-2.9255 Y-0.3545 Z-0.3128
N45150 X-2.9244 Y-0.3528
N45155 X-2.9232 Y-0.3513
N45160 X-2.9218 Y-0.3499
N45165 X-2.885 Y-0.3131
N45170 X-2.8824 Y-0.3104 Z-0.3131
N45175 X-2.8798 Y-0.3078 Z-0.3139
N45180 X-2.8773 Y-0.3053 Z-0.3153
N45185 X-2.8747 Y-0.3028 Z-0.3168
N45190 X-2.8721 Y-0.3001 Z-0.3176
N45195 X-2.8694 Y-0.2974 Z-0.3179
N45200 X-2.7845 Y-0.2125 Z-0.3172
N45205 X-2.6531 Y-0.0811 Z-0.3173
N45210 X-2.5216 Y0.0504 Z-0.3186
N45215 X-2.3847 Y0.1873 Z-0.3213
N45220 X-2.2768 Y0.2952 Z-0.3244
N45225 X-2.1758 Y0.3962 Z-0.3279
N45230 X-2.0705 Y0.5014 Z-0.3322
N45235 X-1.9655 Y0.6065 Z-0.3371
N45240 X-1.8496 Y0.7223 Z-0.3432
N45245 X-1.7328 Y0.8392 Z-0.3499
N45250 X-1.5955 Y0.9764 Z-0.3584
N45255 X-1.4583 Y1.1136 Z-0.3675
N45260 X-1.3115 Y1.2604 Z-0.3779
N45265 X-1.1444 Y1.4276 Z-0.3903
N45270 X-0.8894 Y1.6826 Z-0.4103
N45275 X-0.6998 Y1.8722 Z-0.4258
N45280 X-0.4769 Y2.0951 Z-0.4446
N45285 X-0.2112 Y2.3608 Z-0.4676
N45290 X-0.2089 Y2.363
N45295 X-0.2067 Y2.3653 Z-0.4672
N45300 X-0.2045 Y2.3675 Z-0.4663
N45305 X-0.2024 Y2.3696 Z-0.4651
N45310 X-0.2013 Y2.3707 Z-0.4643
N45315 X-0.1988 Y2.3732 Z-0.4629
N45320 X-0.1961 Y2.3758 Z-0.4621
N45325 X-0.1935 Y2.3785 Z-0.4618
N45330 G3 Y2.4139 I-0.0177 J0.0177
N45335 X-0.2288 I-0.0177 J-0.0177
N45340 G1 X-0.2574 Y2.3853
N45345 X-0.26 Y2.3826 Z-0.4621
N45350 X-0.2627 Y2.38 Z-0.4629
N45355 X-0.2652 Y2.3775 Z-0.4643
N45360 X-0.2673 Y2.3754 Z-0.4655
N45365 X-0.2695 Y2.3732 Z-0.4664
N45370 X-0.2717 Y2.371 Z-0.4668
N45375 X-0.274 Y2.3687
N45380 X-0.5087 Y2.134 Z-0.4467
N45385 X-0.7197 Y1.923 Z-0.429
N45390 X-0.92 Y1.7227 Z-0.4127
N45395 X-1.1536 Y1.4891 Z-0.3945
N45400 X-1.3229 Y1.3197 Z-0.382
N45405 X-1.4709 Y1.1718 Z-0.3716
N45410 X-1.6199 Y1.0228 Z-0.3618
N45415 X-1.7453 Y0.8974 Z-0.354
N45420 X-1.8718 Y0.7709 Z-0.3468
N45425 X-1.9876 Y0.6551 Z-0.3408
N45430 X-2.0927 Y0.55 Z-0.3359
N45435 X-2.1979 Y0.4448 Z-0.3316
N45440 X-2.2946 Y0.3481 Z-0.3282
N45445 X-2.4359 Y0.2068 Z-0.3243
N45450 X-2.5728 Y0.0699 Z-0.3218
N45455 X-2.7097 Y-0.067 Z-0.3207
N45460 X-2.8411 Y-0.1985 Z-0.3208
N45465 X-2.8681 Y-0.2254 Z-0.321
N45470 X-2.8708 Y-0.2281 Z-0.3207
N45475 X-2.8735 Y-0.2308 Z-0.3199
N45480 X-2.876 Y-0.2333 Z-0.3185
N45485 X-2.8785 Y-0.2358 Z-0.3171
N45490 X-2.8811 Y-0.2384 Z-0.3162
N45495 X-2.8838 Y-0.2411 Z-0.3159
N45500 X-2.8852 Y-0.2424
N45505 X-2.8868 Y-0.2436
N45510 X-2.8884 Y-0.2447 Z-0.316
N45515 X-2.8901 Y-0.2457
N45520 X-2.8919 Y-0.2465
N45525 X-2.8937 Y-0.2472 Z-0.3161
N45530 X-2.8956 Y-0.2477 Z-0.3162
N45535 X-2.8976 Y-0.2481
N45540 X-2.8995 Y-0.2483 Z-0.3163
N45545 X-2.9015 Y-0.2484 Z-0.3164
N45550 X-2.9034 Z-0.3165
N45555 X-2.9054 Y-0.2481 Z-0.3166
N45560 X-2.9073 Y-0.2477 Z-0.3167
N45565 X-2.9092 Y-0.2472 Z-0.3168
N45570 X-2.911 Y-0.2465 Z-0.3169
N45575 X-2.9128 Y-0.2457 Z-0.317
N45580 X-2.9145 Y-0.2448 Z-0.3172
N45585 X-2.9162 Y-0.2437 Z-0.3173
N45590 X-2.9177 Y-0.2424 Z-0.3174
N45595 X-2.9192 Y-0.2411 Z-0.3175
N45600 X-2.9205 Y-0.2397 Z-0.3177
N45605 X-2.9217 Y-0.2381 Z-0.3178
N45610 X-2.9228 Y-0.2365 Z-0.3179
N45615 X-2.9238 Y-0.2348 Z-0.318
N45620 X-2.9246 Y-0.233 Z-0.3182
N45625 X-2.9253 Y-0.2312 Z-0.3183
N45630 X-2.9258 Y-0.2293 Z-0.3184
N45635 X-2.9262 Y-0.2273 Z-0.3185
N45640 X-2.9264 Y-0.2254 Z-0.3186
N45645 X-2.9265 Y-0.2234 Z-0.3187
N45650 X-2.9264 Y-0.2215 Z-0.3188
N45655 X-2.9262 Y-0.2195 Z-0.3189
N45660 X-2.9258 Y-0.2176
N45665 X-2.9252 Y-0.2157 Z-0.319
N45670 X-2.9246 Y-0.2138
N45675 X-2.9237 Y-0.2121 Z-0.3191
N45680 X-2.9228 Y-0.2103
N45685 X-2.9217 Y-0.2087
N45690 X-2.9205 Y-0.2072 Z-0.3192
N45695 X-2.9191 Y-0.2057
N45700 X-2.8826 Y-0.1692
N45705 X-2.8799 Y-0.1665 Z-0.3194
N45710 X-2.8773 Y-0.1639 Z-0.3203
N45715 X-2.8748 Y-0.1614 Z-0.3217
N45720 X-2.8723 Y-0.1589 Z-0.3231
N45725 X-2.8697 Y-0.1563 Z-0.324
N45730 X-2.867 Y-0.1536 Z-0.3243
N45735 X-2.861 Y-0.1477 Z-0.3242
N45740 X-2.7296 Y-0.0162
N45745 X-2.5927 Y0.1207 Z-0.3255
N45750 X-2.4558 Y0.2576 Z-0.3281
N45755 X-2.3145 Y0.3989 Z-0.332
N45760 X-2.2179 Y0.4955 Z-0.3354
N45765 X-2.1127 Y0.6007 Z-0.3397
N45770 X-1.9968 Y0.7166 Z-0.3451
N45775 X-1.881 Y0.8324 Z-0.3512
N45780 X-1.7545 Y0.9589 Z-0.3584
N45785 X-1.6184 Y1.095 Z-0.3668
N45790 X-1.4694 Y1.244 Z-0.3767
N45795 X-1.3107 Y1.4027 Z-0.3878
N45800 X-1.1425 Y1.5709 Z-0.4003
N45805 X-0.9411 Y1.7723 Z-0.416
N45810 X-0.8039 Y1.9095 Z-0.427
N45815 X-0.5811 Y2.1323 Z-0.4453
N45820 X-0.3368 Y2.3766 Z-0.4662
N45825 X-0.3346 Y2.3788 Z-0.4661
N45830 X-0.3323 Y2.3811 Z-0.4657
N45835 X-0.3301 Y2.3833 Z-0.4649
N45840 X-0.328 Y2.3854 Z-0.4636
N45845 X-0.3271 Y2.3863 Z-0.463
N45850 X-0.3246 Y2.3888 Z-0.4616
N45855 X-0.322 Y2.3914 Z-0.4607
N45860 X-0.3193 Y2.3941 Z-0.4604
N45865 G3 Y2.4295 I-0.0177 J0.0177
N45870 X-0.3546 I-0.0177 J-0.0177
N45875 G1 X-0.383 Y2.4011
N45880 X-0.3857 Y2.3984 Z-0.4607
N45885 X-0.3883 Y2.3958 Z-0.4616
N45890 X-0.3908 Y2.3933 Z-0.463
N45895 X-0.3929 Y2.3912 Z-0.4642
N45900 X-0.3951 Y2.389 Z-0.4651
N45905 X-0.3974 Y2.3867 Z-0.4655
N45910 X-0.3996 Y2.3845
N45915 X-0.6332 Y2.1509 Z-0.4458
N45920 X-0.8335 Y1.9506 Z-0.4294
N45925 X-1.0993 Y1.6848 Z-0.4085
N45930 X-1.2782 Y1.5059 Z-0.3951
N45935 X-1.4368 Y1.3473 Z-0.3838
N45940 X-1.5858 Y1.1983 Z-0.3738
N45945 X-1.7231 Y1.061 Z-0.3652
N45950 X-1.8496 Y0.9345 Z-0.3577
N45955 X-1.9761 Y0.808 Z-0.351
N45960 X-2.093 Y0.6911 Z-0.3453
N45965 X-2.1981 Y0.586 Z-0.3408
N45970 X-2.3039 Y0.4802 Z-0.3369
N45975 X-2.4223 Y0.3618 Z-0.3332
N45980 X-2.5646 Y0.2195 Z-0.33
N45985 X-2.7016 Y0.0825 Z-0.3281
N45990 X-2.8385 Y-0.0544 Z-0.3276
N45995 X-2.866 Y-0.0819
N46000 X-2.8687 Y-0.0846 Z-0.3273
N46005 X-2.8713 Y-0.0872 Z-0.3265
N46010 X-2.8738 Y-0.0897 Z-0.3251
N46015 X-2.8763 Y-0.0922 Z-0.3237
N46020 X-2.8789 Y-0.0948 Z-0.3228
N46025 X-2.8816 Y-0.0975 Z-0.3225
N46030 X-2.883 Y-0.0988
N46035 X-2.8846 Y-0.1
N46040 X-2.8862 Y-0.1011 Z-0.3226
N46045 X-2.8879 Y-0.1021
N46050 X-2.8897 Y-0.1029
N46055 X-2.8915 Y-0.1036 Z-0.3227
N46060 X-2.8934 Y-0.1041 Z-0.3228
N46065 X-2.8954 Y-0.1045
N46070 X-2.8973 Y-0.1047 Z-0.3229
N46075 X-2.8993 Y-0.1048 Z-0.323
N46080 X-2.9012 Y-0.1047 Z-0.3231
N46085 X-2.9032 Y-0.1045 Z-0.3232
N46090 X-2.9051 Y-0.1041 Z-0.3233
N46095 X-2.907 Y-0.1036 Z-0.3234
N46100 X-2.9088 Y-0.1029 Z-0.3236
N46105 X-2.9106 Y-0.1021 Z-0.3237
N46110 X-2.9123 Y-0.1011 Z-0.3238
N46115 X-2.914 Y-0.1001 Z-0.324
N46120 X-2.9155 Y-0.0988 Z-0.3241
N46125 X-2.917 Y-0.0975 Z-0.3242
N46130 X-2.9183 Y-0.0961 Z-0.3244
N46135 X-2.9195 Y-0.0945 Z-0.3245
N46140 X-2.9206 Y-0.0929 Z-0.3246
N46145 X-2.9216 Y-0.0912 Z-0.3248
N46150 X-2.9224 Y-0.0894 Z-0.3249
N46155 X-2.9231 Y-0.0876 Z-0.325
N46160 X-2.9236 Y-0.0857 Z-0.3251
N46165 X-2.924 Y-0.0837 Z-0.3252
N46170 X-2.9242 Y-0.0818 Z-0.3254
N46175 X-2.9243 Y-0.0798
N46180 X-2.9242 Y-0.0779 Z-0.3255
N46185 X-2.924 Y-0.0759 Z-0.3256
N46190 X-2.9236 Y-0.074 Z-0.3257
N46195 X-2.923 Y-0.0721 Z-0.3258
N46200 X-2.9224 Y-0.0702
N46205 X-2.9215 Y-0.0685 Z-0.3259
N46210 X-2.9206 Y-0.0667
N46215 X-2.9195 Y-0.0651
N46220 X-2.9183 Y-0.0636
N46225 X-2.9169 Y-0.0621 Z-0.326
N46230 X-2.8806 Y-0.0258
N46235 X-2.878 Y-0.0232 Z-0.3262
N46240 X-2.8754 Y-0.0206 Z-0.3271
N46245 X-2.8729 Y-0.0181 Z-0.3285
N46250 X-2.8704 Y-0.0156 Z-0.3299
N46255 X-2.8678 Y-0.013 Z-0.3308
N46260 X-2.8651 Y-0.0103 Z-0.3311
N46265 X-2.7414 Y0.1134 Z-0.3316
N46270 X-2.599 Y0.2558 Z-0.3334
N46275 X-2.4566 Y0.3982 Z-0.3366
N46280 X-2.3371 Y0.5177 Z-0.3402
N46285 X-2.2311 Y0.6237 Z-0.3441
N46290 X-2.1249 Y0.7299 Z-0.3486
N46295 X-2.0091 Y0.8458 Z-0.3541
N46300 X-1.8825 Y0.9723 Z-0.3608
N46305 X-1.756 Y1.0988 Z-0.3681
N46310 X-1.6188 Y1.236 Z-0.3766
N46315 X-1.4698 Y1.385 Z-0.3865
N46320 X-1.3101 Y1.5447 Z-0.3978
N46325 X-1.1311 Y1.7237 Z-0.411
N46330 X-0.8761 Y1.9787 Z-0.4309
N46335 X-0.665 Y2.1898 Z-0.448
N46340 X-0.4625 Y2.3923 Z-0.465
N46345 X-0.4602 Y2.3946
N46350 X-0.458 Y2.3968 Z-0.4645
N46355 X-0.4558 Y2.399 Z-0.4637
N46360 X-0.4537 Y2.4011 Z-0.4625
N46365 X-0.4529 Y2.4019 Z-0.462
N46370 X-0.4504 Y2.4044 Z-0.4605
N46375 X-0.4478 Y2.407 Z-0.4597
N46380 X-0.4451 Y2.4097 Z-0.4594
N46385 G3 Y2.445 I-0.0177 J0.0177
N46390 X-0.4805 I-0.0177 J-0.0177
N46395 G1 X-0.5087 Y2.4168
N46400 X-0.5114 Y2.4141 Z-0.4597
N46405 X-0.514 Y2.4115 Z-0.4605
N46410 X-0.5165 Y2.409 Z-0.462
N46415 X-0.5186 Y2.4069 Z-0.4632
N46420 X-0.5208 Y2.4047 Z-0.464
N46425 X-0.523 Y2.4025 Z-0.4644
N46430 X-0.5253 Y2.4002 Z-0.4645
N46435 X-0.7482 Y2.1773 Z-0.4461
N46440 X-0.896 Y2.0295 Z-0.4342
N46445 X-1.1189 Y1.8066 Z-0.4169
N46450 X-1.2979 Y1.6277 Z-0.4036
N46455 X-1.4672 Y1.4583 Z-0.3917
N46460 X-1.6173 Y1.3082 Z-0.3816
N46465 X-1.7556 Y1.1699 Z-0.373
N46470 X-1.8918 Y1.0338 Z-0.3651
N46475 X-2.0183 Y0.9072 Z-0.3584
N46480 X-2.1352 Y0.7903 Z-0.3528
N46485 X-2.2511 Y0.6744 Z-0.3479
N46490 X-2.357 Y0.5685 Z-0.344
N46495 X-2.4983 Y0.4273 Z-0.3398
N46500 X-2.6406 Y0.2849 Z-0.3368
N46505 X-2.783 Y0.1425 Z-0.335
N46510 X-2.8646 Y0.0609 Z-0.3346
N46515 X-2.8672 Y0.0583 Z-0.3343
N46520 X-2.8698 Y0.0557 Z-0.3334
N46525 X-2.8723 Y0.0532 Z-0.332
N46530 X-2.8748 Y0.0507 Z-0.3306
N46535 X-2.8774 Y0.0481 Z-0.3298
N46540 X-2.8801 Y0.0454 Z-0.3295
N46545 X-2.8815 Y0.0441
N46550 X-2.8831 Y0.0429
N46555 X-2.8847 Y0.0418
N46560 X-2.8864 Y0.0408 Z-0.3296
N46565 X-2.8882 Y0.04
N46570 X-2.8901 Y0.0393 Z-0.3297
N46575 X-2.8919 Y0.0388 Z-0.3298
N46580 X-2.8939 Y0.0384
N46585 X-2.8958 Y0.0382 Z-0.3299
N46590 X-2.8978 Y0.0381 Z-0.33
N46595 X-2.8998 Y0.0382 Z-0.3301
N46600 X-2.9017 Y0.0384 Z-0.3302
N46605 X-2.9036 Y0.0388 Z-0.3304
N46610 X-2.9055 Y0.0393 Z-0.3305
N46615 X-2.9074 Y0.04 Z-0.3306
N46620 X-2.9092 Y0.0408 Z-0.3307
N46625 X-2.9109 Y0.0417 Z-0.3309
N46630 X-2.9125 Y0.0428 Z-0.331
N46635 X-2.914 Y0.0441 Z-0.3312
N46640 X-2.9155 Y0.0454 Z-0.3313
N46645 X-2.9168 Y0.0468 Z-0.3314
N46650 X-2.918 Y0.0484 Z-0.3316
N46655 X-2.9191 Y0.05 Z-0.3317
N46660 X-2.9201 Y0.0517 Z-0.3319
N46665 X-2.9209 Y0.0535 Z-0.332
N46670 X-2.9216 Y0.0553 Z-0.3321
N46675 X-2.9221 Y0.0572 Z-0.3322
N46680 X-2.9225 Y0.0592 Z-0.3324
N46685 X-2.9227 Y0.0611 Z-0.3325
N46690 X-2.9228 Y0.0631 Z-0.3326
N46695 X-2.9227 Y0.065 Z-0.3327
N46700 X-2.9225 Y0.067 Z-0.3328
N46705 X-2.9221 Y0.0689
N46710 X-2.9216 Y0.0708 Z-0.3329
N46715 X-2.9209 Y0.0727 Z-0.333
N46720 X-2.92 Y0.0744
N46725 X-2.9191 Y0.0762 Z-0.3331
N46730 X-2.918 Y0.0778
N46735 X-2.9168 Y0.0793
N46740 X-2.9154 Y0.0808
N46745 X-2.8795 Y0.1168
N46750 X-2.8768 Y0.1194 Z-0.3334
N46755 X-2.8742 Y0.122 Z-0.3343
N46760 X-2.8717 Y0.1245 Z-0.3357
N46765 X-2.8692 Y0.127 Z-0.3371
N46770 X-2.8667 Y0.1296 Z-0.3379
N46775 X-2.864 Y0.1322 Z-0.3382
N46780 X-2.7308 Y0.2654 Z-0.3394
N46785 X-2.5884 Y0.4078 Z-0.3419
N46790 X-2.4351 Y0.5611 Z-0.3459
N46795 X-2.3283 Y0.6679 Z-0.3495
N46800 X-2.2229 Y0.7733 Z-0.3537
N46805 X-2.1059 Y0.8903 Z-0.3589
N46810 X-1.989 Y1.0072 Z-0.3647
N46815 X-1.8614 Y1.1348 Z-0.3717
N46820 X-1.7231 Y1.2731 Z-0.3799
N46825 X-1.5752 Y1.4211 Z-0.3893
N46830 X-1.4251 Y1.5712 Z-0.3995
N46835 X-1.2568 Y1.7394 Z-0.4115
N46840 X-1.0672 Y1.9291 Z-0.4257
N46845 X-0.7907 Y2.2055 Z-0.4475
N46850 X-0.5881 Y2.4081 Z-0.4641
N46855 X-0.5859 Y2.4104
N46860 X-0.5836 Y2.4126 Z-0.4636
N46865 X-0.5814 Y2.4148 Z-0.4628
N46870 X-0.5793 Y2.4169 Z-0.4616
N46875 X-0.5788 Y2.4174 Z-0.4612
N46880 X-0.5763 Y2.4199 Z-0.4598
N46885 X-0.5737 Y2.4225 Z-0.4589
N46890 X-0.571 Y2.4252 Z-0.4587
N46895 G3 Y2.4606 I-0.0177 J0.0177
N46900 X-0.6064 I-0.0177 J-0.0177
N46905 G1 X-0.6344 Y2.4325
N46910 X-0.6371 Y2.4298 Z-0.4589
N46915 X-0.6397 Y2.4272 Z-0.4598
N46920 X-0.6422 Y2.4247 Z-0.4612
N46925 X-0.6443 Y2.4226 Z-0.4624
N46930 X-0.6465 Y2.4205 Z-0.4633
N46935 X-0.6487 Y2.4182 Z-0.4637
N46940 X-0.651 Y2.416
N46945 X-0.8524 Y2.2145 Z-0.4475
N46950 X-1.1075 Y1.9594 Z-0.4276
N46955 X-1.2971 Y1.7698 Z-0.4135
N46960 X-1.4665 Y1.6004 Z-0.4016
N46965 X-1.6166 Y1.4503 Z-0.3915
N46970 X-1.7549 Y1.312 Z-0.3829
N46975 X-1.8921 Y1.1748 Z-0.3748
N46980 X-2.0209 Y1.0461 Z-0.3679
N46985 X-2.1485 Y0.9184 Z-0.3616
N46990 X-2.2643 Y0.8026 Z-0.3566
N46995 X-2.3711 Y0.6959 Z-0.3525
N47000 X-2.4836 Y0.5834 Z-0.3489
N47005 X-2.636 Y0.4309 Z-0.345
N47010 X-2.7838 Y0.2831 Z-0.3426
N47015 X-2.8638 Y0.2032 Z-0.3419
N47020 X-2.8664 Y0.2005 Z-0.3416
N47025 X-2.869 Y0.1979 Z-0.3407
N47030 X-2.8714 Y0.1955 Z-0.3394
N47035 X-2.8739 Y0.193 Z-0.338
N47040 X-2.8765 Y0.1904 Z-0.3371
N47045 X-2.8792 Y0.1877 Z-0.3368
N47050 X-2.8807 Y0.1864
N47055 X-2.8822 Y0.1852
N47060 X-2.8838 Y0.1841 Z-0.3369
N47065 X-2.8856 Y0.1831
N47070 X-2.8873 Y0.1823
N47075 X-2.8892 Y0.1816 Z-0.337
N47080 X-2.8911 Y0.1811 Z-0.3371
N47085 X-2.893 Y0.1807 Z-0.3372
N47090 X-2.895 Y0.1804 Z-0.3373
N47095 X-2.8969 Z-0.3374
N47100 X-2.8989 Z-0.3375
N47105 X-2.9008 Y0.1807 Z-0.3376
N47110 X-2.9028 Y0.181 Z-0.3377
N47115 X-2.9047 Y0.1816 Z-0.3378
N47120 X-2.9065 Y0.1822 Z-0.338
N47125 X-2.9083 Y0.1831 Z-0.3381
N47130 X-2.91 Y0.184 Z-0.3382
N47135 X-2.9116 Y0.1851 Z-0.3384
N47140 X-2.9132 Y0.1863 Z-0.3385
N47145 X-2.9146 Y0.1877 Z-0.3387
N47150 X-2.9159 Y0.1891 Z-0.3388
N47155 X-2.9172 Y0.1906 Z-0.339
N47160 X-2.9183 Y0.1923 Z-0.3391
N47165 X-2.9192 Y0.194 Z-0.3393
N47170 X-2.92 Y0.1958 Z-0.3394
N47175 X-2.9207 Y0.1976 Z-0.3395
N47180 X-2.9212 Y0.1995 Z-0.3397
N47185 X-2.9216 Y0.2014 Z-0.3398
N47190 X-2.9218 Y0.2034 Z-0.3399
N47195 X-2.9219 Y0.2054 Z-0.34
N47200 X-2.9218 Y0.2073 Z-0.3401
N47205 X-2.9216 Y0.2093 Z-0.3402
N47210 X-2.9212 Y0.2112 Z-0.3403
N47215 X-2.9207 Y0.2131 Z-0.3404
N47220 X-2.92 Y0.2149
N47225 X-2.9192 Y0.2167 Z-0.3405
N47230 X-2.9182 Y0.2184
N47235 X-2.9171 Y0.2201
N47240 X-2.9159 Y0.2216 Z-0.3406
N47245 X-2.9146 Y0.2231
N47250 X-2.8789 Y0.2588
N47255 X-2.8762 Y0.2614 Z-0.3409
N47260 X-2.8736 Y0.264 Z-0.3417
N47265 X-2.8711 Y0.2665 Z-0.3431
N47270 X-2.8686 Y0.269 Z-0.3445
N47275 X-2.8661 Y0.2716 Z-0.3454
N47280 X-2.8635 Y0.2742 Z-0.3457
N47285 X-2.7871 Y0.3506 Z-0.3465
N47290 X-2.6392 Y0.4984 Z-0.3492
N47295 X-2.4859 Y0.6518 Z-0.3532
N47300 X-2.379 Y0.7586 Z-0.3568
N47305 X-2.2617 Y0.8759 Z-0.3614
